(Exported by FreeCAD)
(Post Processor: grbl_post)
(Output Time:2022-05-09 20:18:41.777896)
(Begin preamble)
G17 G90
G21
(Begin operation: Fixture)
(Path: Fixture)
G54
(Finish operation: Fixture)
(Begin operation: 3mm_Endmill_3024)
(Path: 3mm_Endmill_3024)
(3mm_Endmill_3024)
(Begin toolchange)
( M6 T2.0 )
M3 S8000.0
(Finish operation: 3mm_Endmill_3024)
(Begin operation: Profile)
(Path: Profile)
(Profile)
(Compensated Tool Path. Diameter: 3.175)
G0 Z7.000
G0 X51.593 Y-72.758
G0 Z5.000
G1 X51.593 Y-72.758 Z2.300 F250.000
G3 X51.474 Y-72.327 Z2.300 I-50.346 J-13.611 K0.000 F750.000
G2 X43.674 Y-72.829 Z2.300 I-5.981 J32.123 K0.000 F750.000
G1 X42.616 Y-72.775 Z2.300 F750.000
G2 X40.212 Y-76.237 Z2.300 I-24.053 J14.135 K0.000 F750.000
G3 X45.868 Y-82.808 Z2.300 I37.655 J26.692 K0.000 F750.000
G3 X50.902 Y-86.769 Z2.300 I25.666 J27.433 K0.000 F750.000
G3 X52.480 Y-87.662 Z2.300 I7.726 J11.813 K0.000 F750.000
G1 X52.778 Y-87.787 Z2.300 F750.000
G3 X53.151 Y-85.613 Z2.300 I-6.044 J2.156 K0.000 F750.000
G3 X53.084 Y-80.635 Z2.300 I-49.612 J1.818 K0.000 F750.000
G3 X51.593 Y-72.758 Z2.300 I-51.837 J-5.734 K0.000 F750.000
G1 X51.593 Y-72.758 Z1.600 F250.000
G3 X51.474 Y-72.327 Z1.600 I-50.346 J-13.611 K0.000 F750.000
G2 X43.674 Y-72.829 Z1.600 I-5.981 J32.123 K0.000 F750.000
G1 X42.616 Y-72.775 Z1.600 F750.000
G2 X40.212 Y-76.237 Z1.600 I-24.053 J14.135 K0.000 F750.000
G3 X45.868 Y-82.808 Z1.600 I37.655 J26.692 K0.000 F750.000
G3 X50.902 Y-86.769 Z1.600 I25.666 J27.433 K0.000 F750.000
G3 X52.480 Y-87.662 Z1.600 I7.726 J11.813 K0.000 F750.000
G1 X52.778 Y-87.787 Z1.600 F750.000
G3 X53.151 Y-85.613 Z1.600 I-6.044 J2.156 K0.000 F750.000
G3 X53.084 Y-80.635 Z1.600 I-49.612 J1.818 K0.000 F750.000
G3 X51.593 Y-72.758 Z1.600 I-51.837 J-5.734 K0.000 F750.000
G1 X51.593 Y-72.758 Z0.900 F250.000
G3 X51.474 Y-72.327 Z0.900 I-50.346 J-13.611 K0.000 F750.000
G2 X43.674 Y-72.829 Z0.900 I-5.981 J32.123 K0.000 F750.000
G1 X42.616 Y-72.775 Z0.900 F750.000
G2 X40.212 Y-76.237 Z0.900 I-24.053 J14.135 K0.000 F750.000
G3 X45.868 Y-82.808 Z0.900 I37.655 J26.692 K0.000 F750.000
G3 X50.902 Y-86.769 Z0.900 I25.666 J27.433 K0.000 F750.000
G3 X52.480 Y-87.662 Z0.900 I7.726 J11.813 K0.000 F750.000
G1 X52.778 Y-87.787 Z0.900 F750.000
G3 X53.151 Y-85.613 Z0.900 I-6.044 J2.156 K0.000 F750.000
G3 X53.084 Y-80.635 Z0.900 I-49.612 J1.818 K0.000 F750.000
G3 X51.593 Y-72.758 Z0.900 I-51.837 J-5.734 K0.000 F750.000
G1 X51.593 Y-72.758 Z0.200 F250.000
G3 X51.474 Y-72.327 Z0.200 I-50.346 J-13.611 K0.000 F750.000
G2 X43.674 Y-72.829 Z0.200 I-5.981 J32.123 K0.000 F750.000
G1 X42.616 Y-72.775 Z0.200 F750.000
G2 X40.212 Y-76.237 Z0.200 I-24.053 J14.135 K0.000 F750.000
G3 X45.868 Y-82.808 Z0.200 I37.655 J26.692 K0.000 F750.000
G3 X50.902 Y-86.769 Z0.200 I25.666 J27.433 K0.000 F750.000
G3 X52.480 Y-87.662 Z0.200 I7.726 J11.813 K0.000 F750.000
G1 X52.778 Y-87.787 Z0.200 F750.000
G3 X53.151 Y-85.613 Z0.200 I-6.044 J2.156 K0.000 F750.000
G3 X53.084 Y-80.635 Z0.200 I-49.612 J1.818 K0.000 F750.000
G3 X51.593 Y-72.758 Z0.200 I-51.837 J-5.734 K0.000 F750.000
G1 X51.593 Y-72.758 Z0.000 F250.000
G3 X51.474 Y-72.327 Z0.000 I-50.346 J-13.611 K0.000 F750.000
G2 X43.674 Y-72.829 Z0.000 I-5.981 J32.123 K0.000 F750.000
G1 X42.616 Y-72.775 Z0.000 F750.000
G2 X40.212 Y-76.237 Z0.000 I-24.053 J14.135 K0.000 F750.000
G3 X45.868 Y-82.808 Z0.000 I37.655 J26.692 K0.000 F750.000
G3 X50.902 Y-86.769 Z0.000 I25.666 J27.433 K0.000 F750.000
G3 X52.480 Y-87.662 Z0.000 I7.726 J11.813 K0.000 F750.000
G1 X52.778 Y-87.787 Z0.000 F750.000
G3 X53.151 Y-85.613 Z0.000 I-6.044 J2.156 K0.000 F750.000
G3 X53.084 Y-80.635 Z0.000 I-49.612 J1.818 K0.000 F750.000
G3 X51.593 Y-72.758 Z0.000 I-51.837 J-5.734 K0.000 F750.000
G0 Z7.000
G0 Z7.000
G0 X51.593 Y-72.758
G0 X80.554 Y-76.516
G0 X80.554 Y-76.516 Z5.000
G1 X80.554 Y-76.516 Z2.300 F250.000
G3 X81.347 Y-82.573 Z2.300 I23.984 J0.060 K0.000 F750.000
G3 X84.187 Y-80.944 Z2.300 I-3.806 J9.924 K0.000 F750.000
G3 X90.553 Y-75.896 Z2.300 I-103.869 J137.526 K0.000 F750.000
G2 X89.777 Y-74.696 Z2.300 I7.591 J5.758 K0.000 F750.000
G2 X85.418 Y-75.827 Z2.300 I-19.175 J64.925 K0.000 F750.000
G2 X80.554 Y-76.516 Z2.300 I-8.090 J39.644 K0.000 F750.000
G1 X80.554 Y-76.516 Z1.600 F250.000
G3 X81.347 Y-82.573 Z1.600 I23.984 J0.060 K0.000 F750.000
G3 X84.187 Y-80.944 Z1.600 I-3.806 J9.924 K0.000 F750.000
G3 X90.553 Y-75.896 Z1.600 I-103.869 J137.526 K0.000 F750.000
G2 X89.777 Y-74.696 Z1.600 I7.591 J5.758 K0.000 F750.000
G2 X85.418 Y-75.827 Z1.600 I-19.175 J64.925 K0.000 F750.000
G2 X80.554 Y-76.516 Z1.600 I-8.090 J39.644 K0.000 F750.000
G1 X80.554 Y-76.516 Z0.900 F250.000
G3 X81.347 Y-82.573 Z0.900 I23.984 J0.060 K0.000 F750.000
G3 X84.187 Y-80.944 Z0.900 I-3.806 J9.924 K0.000 F750.000
G3 X90.553 Y-75.896 Z0.900 I-103.869 J137.526 K0.000 F750.000
G2 X89.777 Y-74.696 Z0.900 I7.591 J5.758 K0.000 F750.000
G2 X85.418 Y-75.827 Z0.900 I-19.175 J64.925 K0.000 F750.000
G2 X80.554 Y-76.516 Z0.900 I-8.090 J39.644 K0.000 F750.000
G1 X80.554 Y-76.516 Z0.200 F250.000
G3 X81.347 Y-82.573 Z0.200 I23.984 J0.060 K0.000 F750.000
G3 X84.187 Y-80.944 Z0.200 I-3.806 J9.924 K0.000 F750.000
G3 X90.553 Y-75.896 Z0.200 I-103.869 J137.526 K0.000 F750.000
G2 X89.777 Y-74.696 Z0.200 I7.591 J5.758 K0.000 F750.000
G2 X85.418 Y-75.827 Z0.200 I-19.175 J64.925 K0.000 F750.000
G2 X80.554 Y-76.516 Z0.200 I-8.090 J39.644 K0.000 F750.000
G1 X80.554 Y-76.516 Z0.000 F250.000
G3 X81.347 Y-82.573 Z0.000 I23.984 J0.060 K0.000 F750.000
G3 X84.187 Y-80.944 Z0.000 I-3.806 J9.924 K0.000 F750.000
G3 X90.553 Y-75.896 Z0.000 I-103.869 J137.526 K0.000 F750.000
G2 X89.777 Y-74.696 Z0.000 I7.591 J5.758 K0.000 F750.000
G2 X85.418 Y-75.827 Z0.000 I-19.175 J64.925 K0.000 F750.000
G2 X80.554 Y-76.516 Z0.000 I-8.090 J39.644 K0.000 F750.000
G0 Z7.000
G0 Z7.000
G0 X80.554 Y-76.516
G0 X93.692 Y-87.978
G0 X93.692 Y-87.978 Z5.000
G1 X93.692 Y-87.978 Z2.300 F250.000
G3 X91.788 Y-90.197 Z2.300 I133.742 J-116.686 K0.000 F750.000
G3 X84.708 Y-101.440 Z2.300 I56.405 J-43.373 K0.000 F750.000
G3 X82.751 Y-106.453 Z2.300 I19.797 J-10.617 K0.000 F750.000
G3 X81.907 Y-111.852 Z2.300 I37.212 J-8.581 K0.000 F750.000
G3 X81.869 Y-119.156 Z2.300 I31.546 J-3.817 K0.000 F750.000
G3 X83.277 Y-127.064 Z2.300 I97.488 J13.276 K0.000 F750.000
G1 X83.300 Y-127.580 Z2.300 F750.000
G2 X82.425 Y-129.049 Z2.300 I-2.604 J0.556 K0.000 F750.000
G2 X79.260 Y-131.014 Z2.300 I-8.527 J10.206 K0.000 F750.000
G2 X64.810 Y-133.757 Z2.300 I-13.909 J33.844 K0.000 F750.000
G2 X54.022 Y-131.290 Z2.300 I-0.410 J23.027 K0.000 F750.000
G2 X48.000 Y-125.394 Z2.300 I5.529 J11.671 K0.000 F750.000
G2 X47.838 Y-124.315 Z2.300 I1.394 J0.760 K0.000 F750.000
G3 X48.386 Y-114.601 Z2.300 I-27.905 J6.447 K0.000 F750.000
G3 X41.390 Y-98.238 Z2.300 I-32.235 J-4.105 K0.000 F750.000
G3 X29.332 Y-84.033 Z2.300 I-386.324 J-315.701 K0.000 F750.000
G1 X28.948 Y-83.624 Z2.300 F750.000
G2 X17.848 Y-83.172 Z2.300 I-3.851 J41.918 K0.000 F750.000
G2 X9.289 Y-80.401 Z2.300 I4.576 J28.745 K0.000 F750.000
G2 X2.658 Y-75.264 Z2.300 I8.922 J18.366 K0.000 F750.000
G2 X-1.476 Y-65.875 Z2.300 I13.023 J11.339 K0.000 F750.000
G2 X1.370 Y-54.863 Z2.300 I16.027 J1.731 K0.000 F750.000
G2 X7.182 Y-49.324 Z2.300 I18.117 J-13.191 K0.000 F750.000
G2 X6.737 Y-45.544 Z2.300 I25.629 J4.930 K0.000 F750.000
G2 X10.661 Y-28.986 Z2.300 I28.583 J1.971 K0.000 F750.000
G2 X20.377 Y-18.428 Z2.300 I31.885 J-19.593 K0.000 F750.000
G2 X27.736 Y-14.412 Z2.300 I23.039 J-33.466 K0.000 F750.000
G2 X42.139 Y-10.994 Z2.300 I16.471 J-37.348 K0.000 F750.000
G2 X46.932 Y-6.179 Z2.300 I19.537 J-14.654 K0.000 F750.000
G2 X49.707 Y-4.485 Z2.300 I8.031 J-10.039 K0.000 F750.000
G2 X52.487 Y-2.897 Z2.300 I23.834 J-38.486 K0.000 F750.000
G2 X68.664 Y-1.972 Z2.300 I9.231 J-19.530 K0.000 F750.000
G2 X73.975 Y0.162 Z2.300 I15.672 J-31.319 K0.000 F750.000
G2 X83.145 Y1.586 Z2.300 I9.017 J-27.824 K0.000 F750.000
G2 X91.437 Y-0.018 Z2.300 I0.239 J-20.990 K0.000 F750.000
G2 X100.498 Y-5.561 Z2.300 I-15.325 J-35.228 K0.000 F750.000
G2 X104.664 Y-10.359 Z2.300 I-9.204 J-12.199 K0.000 F750.000
G2 X106.623 Y-14.927 Z2.300 I-14.343 J-8.855 K0.000 F750.000
G2 X113.303 Y-16.790 Z2.300 I-6.220 J-35.209 K0.000 F750.000
G2 X122.715 Y-23.439 Z2.300 I-9.563 J-23.527 K0.000 F750.000
G2 X125.193 Y-26.429 Z2.300 I-61.232 J-53.238 K0.000 F750.000
G2 X127.168 Y-29.782 Z2.300 I-16.138 J-11.764 K0.000 F750.000
G2 X128.830 Y-34.927 Z2.300 I-16.968 J-8.325 K0.000 F750.000
G2 X128.791 Y-38.300 Z2.300 I-17.644 J-1.482 K0.000 F750.000
G2 X126.930 Y-45.071 Z2.300 I-20.540 J2.004 K0.000 F750.000
G2 X123.439 Y-50.463 Z2.300 I-31.379 J16.488 K0.000 F750.000
G2 X124.241 Y-52.131 Z2.300 I-20.130 J-10.700 K0.000 F750.000
G2 X126.919 Y-61.337 Z2.300 I-34.171 J-14.935 K0.000 F750.000
G2 X126.667 Y-68.246 Z2.300 I-16.960 J-2.838 K0.000 F750.000
G2 X122.284 Y-76.631 Z2.300 I-20.997 J5.636 K0.000 F750.000
G2 X118.160 Y-80.315 Z2.300 I-12.909 J10.302 K0.000 F750.000
G2 X113.314 Y-82.616 Z2.300 I-9.891 J14.574 K0.000 F750.000
G2 X106.162 Y-83.307 Z2.300 I-5.909 J23.810 K0.000 F750.000
G2 X99.163 Y-81.989 Z2.300 I3.117 J35.802 K0.000 F750.000
G3 X93.692 Y-87.978 Z2.300 I128.271 J-122.675 K0.000 F750.000
G1 X93.692 Y-87.978 Z1.600 F250.000
G3 X91.788 Y-90.197 Z1.600 I133.742 J-116.686 K0.000 F750.000
G3 X84.708 Y-101.440 Z1.600 I56.405 J-43.373 K0.000 F750.000
G3 X82.751 Y-106.453 Z1.600 I19.797 J-10.617 K0.000 F750.000
G3 X81.907 Y-111.852 Z1.600 I37.212 J-8.581 K0.000 F750.000
G3 X81.869 Y-119.156 Z1.600 I31.546 J-3.817 K0.000 F750.000
G3 X83.277 Y-127.064 Z1.600 I97.488 J13.276 K0.000 F750.000
G1 X83.300 Y-127.580 Z1.600 F750.000
G2 X82.425 Y-129.049 Z1.600 I-2.604 J0.556 K0.000 F750.000
G2 X79.260 Y-131.014 Z1.600 I-8.527 J10.206 K0.000 F750.000
G2 X64.810 Y-133.757 Z1.600 I-13.909 J33.844 K0.000 F750.000
G2 X54.022 Y-131.290 Z1.600 I-0.410 J23.027 K0.000 F750.000
G2 X48.000 Y-125.394 Z1.600 I5.529 J11.671 K0.000 F750.000
G2 X47.838 Y-124.315 Z1.600 I1.394 J0.760 K0.000 F750.000
G3 X48.386 Y-114.601 Z1.600 I-27.905 J6.447 K0.000 F750.000
G3 X41.390 Y-98.238 Z1.600 I-32.235 J-4.105 K0.000 F750.000
G3 X29.332 Y-84.033 Z1.600 I-386.324 J-315.701 K0.000 F750.000
G1 X28.948 Y-83.624 Z1.600 F750.000
G2 X17.848 Y-83.172 Z1.600 I-3.851 J41.918 K0.000 F750.000
G2 X9.289 Y-80.401 Z1.600 I4.576 J28.745 K0.000 F750.000
G2 X2.658 Y-75.264 Z1.600 I8.922 J18.366 K0.000 F750.000
G2 X-1.476 Y-65.875 Z1.600 I13.023 J11.339 K0.000 F750.000
G2 X1.370 Y-54.863 Z1.600 I16.027 J1.731 K0.000 F750.000
G2 X7.182 Y-49.324 Z1.600 I18.117 J-13.191 K0.000 F750.000
G2 X6.737 Y-45.544 Z1.600 I25.629 J4.930 K0.000 F750.000
G2 X10.661 Y-28.986 Z1.600 I28.583 J1.971 K0.000 F750.000
G2 X20.377 Y-18.428 Z1.600 I31.885 J-19.593 K0.000 F750.000
G2 X27.736 Y-14.412 Z1.600 I23.039 J-33.466 K0.000 F750.000
G2 X42.139 Y-10.994 Z1.600 I16.471 J-37.348 K0.000 F750.000
G2 X46.932 Y-6.179 Z1.600 I19.537 J-14.654 K0.000 F750.000
G2 X49.707 Y-4.485 Z1.600 I8.031 J-10.039 K0.000 F750.000
G2 X52.487 Y-2.897 Z1.600 I23.834 J-38.486 K0.000 F750.000
G2 X68.664 Y-1.972 Z1.600 I9.231 J-19.530 K0.000 F750.000
G2 X73.975 Y0.162 Z1.600 I15.672 J-31.319 K0.000 F750.000
G2 X83.145 Y1.586 Z1.600 I9.017 J-27.824 K0.000 F750.000
G2 X91.437 Y-0.018 Z1.600 I0.239 J-20.990 K0.000 F750.000
G2 X100.498 Y-5.561 Z1.600 I-15.325 J-35.228 K0.000 F750.000
G2 X104.664 Y-10.359 Z1.600 I-9.204 J-12.199 K0.000 F750.000
G2 X106.623 Y-14.927 Z1.600 I-14.343 J-8.855 K0.000 F750.000
G2 X113.303 Y-16.790 Z1.600 I-6.220 J-35.209 K0.000 F750.000
G2 X122.715 Y-23.439 Z1.600 I-9.563 J-23.527 K0.000 F750.000
G2 X125.193 Y-26.429 Z1.600 I-61.232 J-53.238 K0.000 F750.000
G2 X127.168 Y-29.782 Z1.600 I-16.138 J-11.764 K0.000 F750.000
G2 X128.830 Y-34.927 Z1.600 I-16.968 J-8.325 K0.000 F750.000
G2 X128.791 Y-38.300 Z1.600 I-17.644 J-1.482 K0.000 F750.000
G2 X126.930 Y-45.071 Z1.600 I-20.540 J2.004 K0.000 F750.000
G2 X123.439 Y-50.463 Z1.600 I-31.379 J16.488 K0.000 F750.000
G2 X124.241 Y-52.131 Z1.600 I-20.130 J-10.700 K0.000 F750.000
G2 X126.919 Y-61.337 Z1.600 I-34.171 J-14.935 K0.000 F750.000
G2 X126.667 Y-68.246 Z1.600 I-16.960 J-2.838 K0.000 F750.000
G2 X122.284 Y-76.631 Z1.600 I-20.997 J5.636 K0.000 F750.000
G2 X118.160 Y-80.315 Z1.600 I-12.909 J10.302 K0.000 F750.000
G2 X113.314 Y-82.616 Z1.600 I-9.891 J14.574 K0.000 F750.000
G2 X106.162 Y-83.307 Z1.600 I-5.909 J23.810 K0.000 F750.000
G2 X99.163 Y-81.989 Z1.600 I3.117 J35.802 K0.000 F750.000
G3 X93.692 Y-87.978 Z1.600 I128.271 J-122.675 K0.000 F750.000
G1 X93.692 Y-87.978 Z0.900 F250.000
G3 X91.788 Y-90.197 Z0.900 I133.742 J-116.686 K0.000 F750.000
G3 X84.708 Y-101.440 Z0.900 I56.405 J-43.373 K0.000 F750.000
G3 X82.751 Y-106.453 Z0.900 I19.797 J-10.617 K0.000 F750.000
G3 X81.907 Y-111.852 Z0.900 I37.212 J-8.581 K0.000 F750.000
G3 X81.869 Y-119.156 Z0.900 I31.546 J-3.817 K0.000 F750.000
G3 X83.277 Y-127.064 Z0.900 I97.488 J13.276 K0.000 F750.000
G1 X83.300 Y-127.580 Z0.900 F750.000
G2 X82.425 Y-129.049 Z0.900 I-2.604 J0.556 K0.000 F750.000
G2 X79.260 Y-131.014 Z0.900 I-8.527 J10.206 K0.000 F750.000
G2 X64.810 Y-133.757 Z0.900 I-13.909 J33.844 K0.000 F750.000
G2 X54.022 Y-131.290 Z0.900 I-0.410 J23.027 K0.000 F750.000
G2 X48.000 Y-125.394 Z0.900 I5.529 J11.671 K0.000 F750.000
G2 X47.838 Y-124.315 Z0.900 I1.394 J0.760 K0.000 F750.000
G3 X48.386 Y-114.601 Z0.900 I-27.905 J6.447 K0.000 F750.000
G3 X41.390 Y-98.238 Z0.900 I-32.235 J-4.105 K0.000 F750.000
G3 X29.332 Y-84.033 Z0.900 I-386.324 J-315.701 K0.000 F750.000
G1 X28.948 Y-83.624 Z0.900 F750.000
G2 X17.848 Y-83.172 Z0.900 I-3.851 J41.918 K0.000 F750.000
G2 X9.289 Y-80.401 Z0.900 I4.576 J28.745 K0.000 F750.000
G2 X2.658 Y-75.264 Z0.900 I8.922 J18.366 K0.000 F750.000
G2 X-1.476 Y-65.875 Z0.900 I13.023 J11.339 K0.000 F750.000
G2 X1.370 Y-54.863 Z0.900 I16.027 J1.731 K0.000 F750.000
G2 X7.182 Y-49.324 Z0.900 I18.117 J-13.191 K0.000 F750.000
G2 X6.737 Y-45.544 Z0.900 I25.629 J4.930 K0.000 F750.000
G2 X10.661 Y-28.986 Z0.900 I28.583 J1.971 K0.000 F750.000
G2 X20.377 Y-18.428 Z0.900 I31.885 J-19.593 K0.000 F750.000
G2 X27.736 Y-14.412 Z0.900 I23.039 J-33.466 K0.000 F750.000
G2 X42.139 Y-10.994 Z0.900 I16.471 J-37.348 K0.000 F750.000
G2 X46.932 Y-6.179 Z0.900 I19.537 J-14.654 K0.000 F750.000
G2 X49.707 Y-4.485 Z0.900 I8.031 J-10.039 K0.000 F750.000
G2 X52.487 Y-2.897 Z0.900 I23.834 J-38.486 K0.000 F750.000
G2 X68.664 Y-1.972 Z0.900 I9.231 J-19.530 K0.000 F750.000
G2 X73.975 Y0.162 Z0.900 I15.672 J-31.319 K0.000 F750.000
G2 X83.145 Y1.586 Z0.900 I9.017 J-27.824 K0.000 F750.000
G2 X91.437 Y-0.018 Z0.900 I0.239 J-20.990 K0.000 F750.000
G2 X100.498 Y-5.561 Z0.900 I-15.325 J-35.228 K0.000 F750.000
G2 X104.664 Y-10.359 Z0.900 I-9.204 J-12.199 K0.000 F750.000
G2 X106.623 Y-14.927 Z0.900 I-14.343 J-8.855 K0.000 F750.000
G2 X113.303 Y-16.790 Z0.900 I-6.220 J-35.209 K0.000 F750.000
G2 X122.715 Y-23.439 Z0.900 I-9.563 J-23.527 K0.000 F750.000
G2 X125.193 Y-26.429 Z0.900 I-61.232 J-53.238 K0.000 F750.000
G2 X127.168 Y-29.782 Z0.900 I-16.138 J-11.764 K0.000 F750.000
G2 X128.830 Y-34.927 Z0.900 I-16.968 J-8.325 K0.000 F750.000
G2 X128.791 Y-38.300 Z0.900 I-17.644 J-1.482 K0.000 F750.000
G2 X126.930 Y-45.071 Z0.900 I-20.540 J2.004 K0.000 F750.000
G2 X123.439 Y-50.463 Z0.900 I-31.379 J16.488 K0.000 F750.000
G2 X124.241 Y-52.131 Z0.900 I-20.130 J-10.700 K0.000 F750.000
G2 X126.919 Y-61.337 Z0.900 I-34.171 J-14.935 K0.000 F750.000
G2 X126.667 Y-68.246 Z0.900 I-16.960 J-2.838 K0.000 F750.000
G2 X122.284 Y-76.631 Z0.900 I-20.997 J5.636 K0.000 F750.000
G2 X118.160 Y-80.315 Z0.900 I-12.909 J10.302 K0.000 F750.000
G2 X113.314 Y-82.616 Z0.900 I-9.891 J14.574 K0.000 F750.000
G2 X106.162 Y-83.307 Z0.900 I-5.909 J23.810 K0.000 F750.000
G2 X99.163 Y-81.989 Z0.900 I3.117 J35.802 K0.000 F750.000
G3 X93.692 Y-87.978 Z0.900 I128.271 J-122.675 K0.000 F750.000
G1 X93.692 Y-87.978 Z0.200 F250.000
G3 X91.788 Y-90.197 Z0.200 I133.742 J-116.686 K0.000 F750.000
G3 X84.708 Y-101.440 Z0.200 I56.405 J-43.373 K0.000 F750.000
G3 X82.751 Y-106.453 Z0.200 I19.797 J-10.617 K0.000 F750.000
G3 X81.907 Y-111.852 Z0.200 I37.212 J-8.581 K0.000 F750.000
G3 X81.869 Y-119.156 Z0.200 I31.546 J-3.817 K0.000 F750.000
G3 X83.277 Y-127.064 Z0.200 I97.488 J13.276 K0.000 F750.000
G1 X83.300 Y-127.580 Z0.200 F750.000
G2 X82.425 Y-129.049 Z0.200 I-2.604 J0.556 K0.000 F750.000
G2 X79.260 Y-131.014 Z0.200 I-8.527 J10.206 K0.000 F750.000
G2 X64.810 Y-133.757 Z0.200 I-13.909 J33.844 K0.000 F750.000
G2 X54.022 Y-131.290 Z0.200 I-0.410 J23.027 K0.000 F750.000
G2 X48.000 Y-125.394 Z0.200 I5.529 J11.671 K0.000 F750.000
G2 X47.838 Y-124.315 Z0.200 I1.394 J0.760 K0.000 F750.000
G3 X48.386 Y-114.601 Z0.200 I-27.905 J6.447 K0.000 F750.000
G3 X41.390 Y-98.238 Z0.200 I-32.235 J-4.105 K0.000 F750.000
G3 X29.332 Y-84.033 Z0.200 I-386.324 J-315.701 K0.000 F750.000
G1 X28.948 Y-83.624 Z0.200 F750.000
G2 X17.848 Y-83.172 Z0.200 I-3.851 J41.918 K0.000 F750.000
G2 X9.289 Y-80.401 Z0.200 I4.576 J28.745 K0.000 F750.000
G2 X2.658 Y-75.264 Z0.200 I8.922 J18.366 K0.000 F750.000
G2 X-1.476 Y-65.875 Z0.200 I13.023 J11.339 K0.000 F750.000
G2 X1.370 Y-54.863 Z0.200 I16.027 J1.731 K0.000 F750.000
G2 X7.182 Y-49.324 Z0.200 I18.117 J-13.191 K0.000 F750.000
G2 X6.737 Y-45.544 Z0.200 I25.629 J4.930 K0.000 F750.000
G2 X10.661 Y-28.986 Z0.200 I28.583 J1.971 K0.000 F750.000
G2 X20.377 Y-18.428 Z0.200 I31.885 J-19.593 K0.000 F750.000
G2 X27.736 Y-14.412 Z0.200 I23.039 J-33.466 K0.000 F750.000
G2 X42.139 Y-10.994 Z0.200 I16.471 J-37.348 K0.000 F750.000
G2 X46.932 Y-6.179 Z0.200 I19.537 J-14.654 K0.000 F750.000
G2 X49.707 Y-4.485 Z0.200 I8.031 J-10.039 K0.000 F750.000
G2 X52.487 Y-2.897 Z0.200 I23.834 J-38.486 K0.000 F750.000
G2 X68.664 Y-1.972 Z0.200 I9.231 J-19.530 K0.000 F750.000
G2 X73.975 Y0.162 Z0.200 I15.672 J-31.319 K0.000 F750.000
G2 X83.145 Y1.586 Z0.200 I9.017 J-27.824 K0.000 F750.000
G2 X91.437 Y-0.018 Z0.200 I0.239 J-20.990 K0.000 F750.000
G2 X100.498 Y-5.561 Z0.200 I-15.325 J-35.228 K0.000 F750.000
G2 X104.664 Y-10.359 Z0.200 I-9.204 J-12.199 K0.000 F750.000
G2 X106.623 Y-14.927 Z0.200 I-14.343 J-8.855 K0.000 F750.000
G2 X113.303 Y-16.790 Z0.200 I-6.220 J-35.209 K0.000 F750.000
G2 X122.715 Y-23.439 Z0.200 I-9.563 J-23.527 K0.000 F750.000
G2 X125.193 Y-26.429 Z0.200 I-61.232 J-53.238 K0.000 F750.000
G2 X127.168 Y-29.782 Z0.200 I-16.138 J-11.764 K0.000 F750.000
G2 X128.830 Y-34.927 Z0.200 I-16.968 J-8.325 K0.000 F750.000
G2 X128.791 Y-38.300 Z0.200 I-17.644 J-1.482 K0.000 F750.000
G2 X126.930 Y-45.071 Z0.200 I-20.540 J2.004 K0.000 F750.000
G2 X123.439 Y-50.463 Z0.200 I-31.379 J16.488 K0.000 F750.000
G2 X124.241 Y-52.131 Z0.200 I-20.130 J-10.700 K0.000 F750.000
G2 X126.919 Y-61.337 Z0.200 I-34.171 J-14.935 K0.000 F750.000
G2 X126.667 Y-68.246 Z0.200 I-16.960 J-2.838 K0.000 F750.000
G2 X122.284 Y-76.631 Z0.200 I-20.997 J5.636 K0.000 F750.000
G2 X118.160 Y-80.315 Z0.200 I-12.909 J10.302 K0.000 F750.000
G2 X113.314 Y-82.616 Z0.200 I-9.891 J14.574 K0.000 F750.000
G2 X106.162 Y-83.307 Z0.200 I-5.909 J23.810 K0.000 F750.000
G2 X99.163 Y-81.989 Z0.200 I3.117 J35.802 K0.000 F750.000
G3 X93.692 Y-87.978 Z0.200 I128.271 J-122.675 K0.000 F750.000
G1 X93.692 Y-87.978 Z0.000 F250.000
G3 X91.788 Y-90.197 Z0.000 I133.742 J-116.686 K0.000 F750.000
G3 X84.708 Y-101.440 Z0.000 I56.405 J-43.373 K0.000 F750.000
G3 X82.751 Y-106.453 Z0.000 I19.797 J-10.617 K0.000 F750.000
G3 X81.907 Y-111.852 Z0.000 I37.212 J-8.581 K0.000 F750.000
G3 X81.869 Y-119.156 Z0.000 I31.546 J-3.817 K0.000 F750.000
G3 X83.277 Y-127.064 Z0.000 I97.488 J13.276 K0.000 F750.000
G1 X83.300 Y-127.580 Z0.000 F750.000
G2 X82.425 Y-129.049 Z0.000 I-2.604 J0.556 K0.000 F750.000
G2 X79.260 Y-131.014 Z0.000 I-8.527 J10.206 K0.000 F750.000
G2 X64.810 Y-133.757 Z0.000 I-13.909 J33.844 K0.000 F750.000
G2 X54.022 Y-131.290 Z0.000 I-0.410 J23.027 K0.000 F750.000
G2 X48.000 Y-125.394 Z0.000 I5.529 J11.671 K0.000 F750.000
G2 X47.838 Y-124.315 Z0.000 I1.394 J0.760 K0.000 F750.000
G3 X48.386 Y-114.601 Z0.000 I-27.905 J6.447 K0.000 F750.000
G3 X41.390 Y-98.238 Z0.000 I-32.235 J-4.105 K0.000 F750.000
G3 X29.332 Y-84.033 Z0.000 I-386.324 J-315.701 K0.000 F750.000
G1 X28.948 Y-83.624 Z0.000 F750.000
G2 X17.848 Y-83.172 Z0.000 I-3.851 J41.918 K0.000 F750.000
G2 X9.289 Y-80.401 Z0.000 I4.576 J28.745 K0.000 F750.000
G2 X2.658 Y-75.264 Z0.000 I8.922 J18.366 K0.000 F750.000
G2 X-1.476 Y-65.875 Z0.000 I13.023 J11.339 K0.000 F750.000
G2 X1.370 Y-54.863 Z0.000 I16.027 J1.731 K0.000 F750.000
G2 X7.182 Y-49.324 Z0.000 I18.117 J-13.191 K0.000 F750.000
G2 X6.737 Y-45.544 Z0.000 I25.629 J4.930 K0.000 F750.000
G2 X10.661 Y-28.986 Z0.000 I28.583 J1.971 K0.000 F750.000
G2 X20.377 Y-18.428 Z0.000 I31.885 J-19.593 K0.000 F750.000
G2 X27.736 Y-14.412 Z0.000 I23.039 J-33.466 K0.000 F750.000
G2 X42.139 Y-10.994 Z0.000 I16.471 J-37.348 K0.000 F750.000
G2 X46.932 Y-6.179 Z0.000 I19.537 J-14.654 K0.000 F750.000
G2 X49.707 Y-4.485 Z0.000 I8.031 J-10.039 K0.000 F750.000
G2 X52.487 Y-2.897 Z0.000 I23.834 J-38.486 K0.000 F750.000
G2 X68.664 Y-1.972 Z0.000 I9.231 J-19.530 K0.000 F750.000
G2 X73.975 Y0.162 Z0.000 I15.672 J-31.319 K0.000 F750.000
G2 X83.145 Y1.586 Z0.000 I9.017 J-27.824 K0.000 F750.000
G2 X91.437 Y-0.018 Z0.000 I0.239 J-20.990 K0.000 F750.000
G2 X100.498 Y-5.561 Z0.000 I-15.325 J-35.228 K0.000 F750.000
G2 X104.664 Y-10.359 Z0.000 I-9.204 J-12.199 K0.000 F750.000
G2 X106.623 Y-14.927 Z0.000 I-14.343 J-8.855 K0.000 F750.000
G2 X113.303 Y-16.790 Z0.000 I-6.220 J-35.209 K0.000 F750.000
G2 X122.715 Y-23.439 Z0.000 I-9.563 J-23.527 K0.000 F750.000
G2 X125.193 Y-26.429 Z0.000 I-61.232 J-53.238 K0.000 F750.000
G2 X127.168 Y-29.782 Z0.000 I-16.138 J-11.764 K0.000 F750.000
G2 X128.830 Y-34.927 Z0.000 I-16.968 J-8.325 K0.000 F750.000
G2 X128.791 Y-38.300 Z0.000 I-17.644 J-1.482 K0.000 F750.000
G2 X126.930 Y-45.071 Z0.000 I-20.540 J2.004 K0.000 F750.000
G2 X123.439 Y-50.463 Z0.000 I-31.379 J16.488 K0.000 F750.000
G2 X124.241 Y-52.131 Z0.000 I-20.130 J-10.700 K0.000 F750.000
G2 X126.919 Y-61.337 Z0.000 I-34.171 J-14.935 K0.000 F750.000
G2 X126.667 Y-68.246 Z0.000 I-16.960 J-2.838 K0.000 F750.000
G2 X122.284 Y-76.631 Z0.000 I-20.997 J5.636 K0.000 F750.000
G2 X118.160 Y-80.315 Z0.000 I-12.909 J10.302 K0.000 F750.000
G2 X113.314 Y-82.616 Z0.000 I-9.891 J14.574 K0.000 F750.000
G2 X106.162 Y-83.307 Z0.000 I-5.909 J23.810 K0.000 F750.000
G2 X99.163 Y-81.989 Z0.000 I3.117 J35.802 K0.000 F750.000
G3 X93.692 Y-87.978 Z0.000 I128.271 J-122.675 K0.000 F750.000
G0 Z7.000
G0 Z7.000
(Finish operation: Profile)
(Begin postamble)
M5
G17 G90
M2
