(Exported by FreeCAD)
(Post Processor: grbl_post)
(Output Time:2022-06-05 12:07:56.540467)
(Begin preamble)
G17 G90
G21
(Begin operation: Fixture)
(Path: Fixture)
G54
(Finish operation: Fixture)
(Begin operation: TC: 3mm_Endmill_2flutes002)
(Path: TC: 3mm_Endmill_2flutes002)
(TC: 3mm_Endmill_2flutes002)
(Begin toolchange)
( M6 T1.0 )
M3 S12000.0
(Finish operation: TC: 3mm_Endmill_2flutes002)
(Begin operation: inner_pocker)
(Path: inner_pocker)
(inner_pocker)
G0 Z5.000
G0 X65.366 Y-10.257 Z3.000
G0 Z5.000
G1 X65.366 Y-10.257 Z-1.000 F250.000
G1 X64.817 Y-10.257 Z-1.000 F750.000
G1 X64.817 Y-10.806 Z-1.000 F750.000
G1 X65.366 Y-10.257 Z-1.000 F750.000
G1 X69.856 Y-10.257 Z-1.000 F750.000
G1 X9.811 Y-70.302 Z-1.000 F750.000
G1 X14.301 Y-70.302 Z-1.000 F750.000
G1 X74.346 Y-10.257 Z-1.000 F750.000
G1 X78.837 Y-10.257 Z-1.000 F750.000
G1 X18.792 Y-70.302 Z-1.000 F750.000
G1 X23.282 Y-70.302 Z-1.000 F750.000
G1 X80.984 Y-12.599 Z-1.000 F750.000
G1 X81.230 Y-12.627 Z-1.000 F750.000
G1 X85.447 Y-12.627 Z-1.000 F750.000
G1 X27.772 Y-70.302 Z-1.000 F750.000
G1 X32.262 Y-70.302 Z-1.000 F750.000
G1 X89.937 Y-12.627 Z-1.000 F750.000
G1 X94.427 Y-12.627 Z-1.000 F750.000
G1 X36.752 Y-70.302 Z-1.000 F750.000
G1 X41.242 Y-70.302 Z-1.000 F750.000
G1 X98.917 Y-12.627 Z-1.000 F750.000
G1 X99.642 Y-12.627 Z-1.000 F750.000
G1 X99.642 Y-13.409 Z-1.000 F750.000
G3 X101.057 Y-14.977 Z-1.000 I1.569 J-0.006 K0.000 F750.000
G1 X45.732 Y-70.302 Z-1.000 F750.000
G1 X50.222 Y-70.302 Z-1.000 F750.000
G1 X105.527 Y-14.997 Z-1.000 F750.000
G1 X110.018 Y-14.997 Z-1.000 F750.000
G1 X54.713 Y-70.302 Z-1.000 F750.000
G1 X59.203 Y-70.302 Z-1.000 F750.000
G1 X114.508 Y-14.997 Z-1.000 F750.000
G1 X118.998 Y-14.997 Z-1.000 F750.000
G1 X63.158 Y-70.836 Z-1.000 F750.000
G1 X63.264 Y-70.955 Z-1.000 F750.000
G1 X65.060 Y-73.425 Z-1.000 F750.000
G1 X123.488 Y-14.997 Z-1.000 F750.000
G1 X127.978 Y-14.997 Z-1.000 F750.000
G1 X66.950 Y-76.024 Z-1.000 F750.000
G1 X68.841 Y-78.624 Z-1.000 F750.000
G1 X132.468 Y-14.997 Z-1.000 F750.000
G1 X136.958 Y-14.997 Z-1.000 F750.000
G1 X70.732 Y-81.223 Z-1.000 F750.000
G1 X72.622 Y-83.823 Z-1.000 F750.000
G1 X138.047 Y-18.399 Z-1.000 F750.000
G1 X138.047 Y-22.889 Z-1.000 F750.000
G1 X75.507 Y-85.428 Z-1.000 F750.000
G1 X79.483 Y-85.943 Z-1.000 F750.000
G1 X138.047 Y-27.379 Z-1.000 F750.000
G1 X138.047 Y-31.869 Z-1.000 F750.000
G1 X83.458 Y-86.458 Z-1.000 F750.000
G1 X87.433 Y-86.972 Z-1.000 F750.000
G1 X138.047 Y-36.359 Z-1.000 F750.000
G1 X138.047 Y-40.849 Z-1.000 F750.000
G1 X91.409 Y-87.487 Z-1.000 F750.000
G1 X95.384 Y-88.002 Z-1.000 F750.000
G1 X138.047 Y-45.339 Z-1.000 F750.000
G1 X138.047 Y-49.830 Z-1.000 F750.000
G1 X99.360 Y-88.517 Z-1.000 F750.000
G1 X103.335 Y-89.031 Z-1.000 F750.000
G1 X138.047 Y-54.320 Z-1.000 F750.000
G1 X138.047 Y-58.810 Z-1.000 F750.000
G1 X107.310 Y-89.546 Z-1.000 F750.000
G1 X110.211 Y-89.922 Z-1.000 F750.000
G2 X111.070 Y-90.277 Z-1.000 I-0.276 J-1.884 K0.000 F750.000
G1 X138.047 Y-63.300 Z-1.000 F750.000
G1 X138.047 Y-67.790 Z-1.000 F750.000
G1 X113.916 Y-91.920 Z-1.000 F750.000
G1 X116.763 Y-93.564 Z-1.000 F750.000
G1 X138.047 Y-72.280 Z-1.000 F750.000
G1 X138.047 Y-76.422 Z-1.000 F750.000
G1 X137.570 Y-77.247 Z-1.000 F750.000
G1 X119.610 Y-95.207 Z-1.000 F750.000
G1 X122.456 Y-96.851 Z-1.000 F750.000
G1 X131.437 Y-87.870 Z-1.000 F750.000
G1 X125.303 Y-98.494 Z-1.000 F750.000
G0 Z3.000
G0 X62.996 Y-12.627 Z3.000
G0 X62.996 Y-12.627 Z5.000
G1 X62.996 Y-12.627 Z-1.000 F250.000
G1 X7.817 Y-67.806 Z-1.000 F750.000
G1 X7.817 Y-63.316 Z-1.000 F750.000
G1 X58.506 Y-12.627 Z-1.000 F750.000
G1 X54.016 Y-12.627 Z-1.000 F750.000
G1 X7.817 Y-58.825 Z-1.000 F750.000
G1 X7.817 Y-54.335 Z-1.000 F750.000
G1 X44.958 Y-17.195 Z-1.000 F750.000
G2 X44.230 Y-17.377 Z-1.000 I-0.720 J1.334 K0.000 F750.000
G1 X40.286 Y-17.377 Z-1.000 F750.000
G1 X7.817 Y-49.845 Z-1.000 F750.000
G1 X7.817 Y-45.355 Z-1.000 F750.000
G1 X35.796 Y-17.377 Z-1.000 F750.000
G1 X31.305 Y-17.377 Z-1.000 F750.000
G1 X7.817 Y-40.865 Z-1.000 F750.000
G1 X7.817 Y-36.375 Z-1.000 F750.000
G1 X26.815 Y-17.377 Z-1.000 F750.000
G1 X22.325 Y-17.377 Z-1.000 F750.000
G1 X7.817 Y-31.885 Z-1.000 F750.000
G1 X7.817 Y-27.395 Z-1.000 F750.000
G1 X17.835 Y-17.377 Z-1.000 F750.000
G1 X13.345 Y-17.377 Z-1.000 F750.000
G1 X7.817 Y-22.904 Z-1.000 F750.000
G1 X7.817 Y-18.414 Z-1.000 F750.000
G1 X7.817 Y-17.377 Z-1.000 F750.000
G1 X8.855 Y-17.377 Z-1.000 F750.000
G1 X7.817 Y-18.414 Z-1.000 F750.000
G0 Z3.000
G0 X45.635 Y-16.517 Z3.000
G0 X45.635 Y-16.517 Z5.000
G1 X45.635 Y-16.517 Z-1.000 F250.000
G3 X45.817 Y-15.789 Z-1.000 I-0.949 J0.624 K0.000 F750.000
G1 X45.817 Y-12.627 Z-1.000 F750.000
G1 X49.526 Y-12.627 Z-1.000 F750.000
G1 X45.635 Y-16.517 Z-1.000 F750.000
G0 Z3.000
G0 Z3.000
(Finish operation: inner_pocker)
(Begin operation: inner_contour)
(Path: inner_contour)
(inner_contour)
(Compensated Tool Path. Diameter: 3.175)
G0 Z5.000
G0 X138.047 Y-14.997 Z3.000
G0 Z5.000
G1 X138.047 Y-14.997 Z-1.000 F250.000
G1 X138.047 Y-76.422 Z-1.000 F750.000
G1 X125.303 Y-98.494 Z-1.000 F750.000
G1 X110.800 Y-90.121 Z-1.000 F750.000
G3 X110.211 Y-89.922 Z-1.000 I-0.794 J-1.375 K0.000 F750.000
G1 X73.611 Y-85.183 Z-1.000 F750.000
G1 X63.264 Y-70.955 Z-1.000 F750.000
G3 X61.980 Y-70.302 Z-1.000 I-1.284 J-0.934 K0.000 F750.000
G1 X7.817 Y-70.302 Z-1.000 F750.000
G1 X7.817 Y-17.377 Z-1.000 F750.000
G1 X44.230 Y-17.377 Z-1.000 F750.000
G3 X45.817 Y-15.789 Z-1.000 I0.000 J1.587 K0.000 F750.000
G1 X45.817 Y-12.627 Z-1.000 F750.000
G1 X63.230 Y-12.627 Z-1.000 F750.000
G3 X64.777 Y-11.392 Z-1.000 I-0.000 J1.587 K0.000 F750.000
G3 X64.817 Y-10.257 Z-1.000 I-5.020 J0.745 K0.000 F750.000
G1 X79.642 Y-10.257 Z-1.000 F750.000
G1 X79.642 Y-11.039 Z-1.000 F750.000
G3 X81.230 Y-12.627 Z-1.000 I1.587 J-0.000 K0.000 F750.000
G1 X99.642 Y-12.627 Z-1.000 F750.000
G1 X99.642 Y-13.409 Z-1.000 F750.000
G3 X101.230 Y-14.997 Z-1.000 I1.587 J-0.000 K0.000 F750.000
G1 X138.047 Y-14.997 Z-1.000 F750.000
G0 Z3.000
G0 Z3.000
(Finish operation: inner_contour)
(Begin operation: outer_ledge)
(Path: outer_ledge)
(outer_ledge)
(Compensated Tool Path. Diameter: 3.175)
G0 Z5.000
G0 X142.987 Y-8.861 Z3.000
G0 Z5.000
G1 X142.987 Y-8.861 Z0.000 F250.000
G2 X144.222 Y-10.409 Z0.000 I-0.353 J-1.548 K0.000 F750.000
G1 X144.222 Y-77.651 Z0.000 F750.000
G2 X144.009 Y-78.445 Z0.000 I-1.588 J0.000 K0.000 F750.000
G1 X128.357 Y-105.555 Z0.000 F750.000
G2 X127.562 Y-106.239 Z0.000 I-1.375 J0.794 K0.000 F750.000
G2 X126.188 Y-106.136 Z0.000 I-0.580 J1.478 K0.000 F750.000
G1 X108.508 Y-95.928 Z0.000 F750.000
G1 X70.860 Y-91.053 Z0.000 F750.000
G2 X69.780 Y-90.412 Z0.000 I0.204 J1.574 K0.000 F750.000
G1 X59.644 Y-76.477 Z0.000 F750.000
G1 X3.230 Y-76.477 Z0.000 F750.000
G2 X1.642 Y-74.889 Z0.000 I-0.000 J1.587 K0.000 F750.000
G1 X1.642 Y-12.789 Z0.000 F750.000
G2 X3.230 Y-11.202 Z0.000 I1.587 J0.000 K0.000 F750.000
G1 X39.642 Y-11.202 Z0.000 F750.000
G1 X39.642 Y-8.039 Z0.000 F750.000
G2 X41.230 Y-6.452 Z0.000 I1.587 J0.000 K0.000 F750.000
G1 X58.642 Y-6.452 Z0.000 F750.000
G1 X58.642 Y-5.039 Z0.000 F750.000
G2 X60.230 Y-3.452 Z0.000 I1.587 J0.000 K0.000 F750.000
G1 X84.230 Y-3.452 Z0.000 F750.000
G2 X85.817 Y-5.039 Z0.000 I0.000 J-1.587 K0.000 F750.000
G1 X85.817 Y-6.452 Z0.000 F750.000
G1 X104.230 Y-6.452 Z0.000 F750.000
G2 X105.777 Y-7.686 Z0.000 I0.000 J-1.587 K0.000 F750.000
G2 X105.817 Y-8.822 Z0.000 I-5.020 J-0.745 K0.000 F750.000
G1 X142.634 Y-8.822 Z0.000 F750.000
G2 X142.987 Y-8.861 Z0.000 I0.000 J-1.587 K0.000 F750.000
G0 Z3.000
G0 Z3.000
(Finish operation: outer_ledge)
(Begin operation: Profile008)
(Path: Profile008)
(Profile008)
(Compensated Tool Path. Diameter: 3.175)
G0 Z5.000
G0 X146.020 Y-5.869 Z3.000
G0 Z5.000
G1 X146.020 Y-5.869 Z-1.587 F250.000
G2 X147.222 Y-7.409 Z-1.587 I-0.386 J-1.540 K0.000 F750.000
G1 X147.222 Y-78.455 Z-1.587 F750.000
G2 X147.009 Y-79.248 Z-1.587 I-1.588 J0.000 K0.000 F750.000
G1 X129.455 Y-109.653 Z-1.587 F750.000
G2 X128.660 Y-110.337 Z-1.587 I-1.375 J0.794 K0.000 F750.000
G2 X127.286 Y-110.234 Z-1.587 I-0.580 J1.478 K0.000 F750.000
G1 X107.527 Y-98.826 Z-1.587 F750.000
G1 X69.193 Y-93.862 Z-1.587 F750.000
G2 X68.113 Y-93.222 Z-1.587 I0.204 J1.574 K0.000 F750.000
G1 X58.116 Y-79.477 Z-1.587 F750.000
G1 X0.230 Y-79.477 Z-1.587 F750.000
G2 X-1.358 Y-77.889 Z-1.587 I-0.000 J1.587 K0.000 F750.000
G1 X-1.358 Y-9.789 Z-1.587 F750.000
G2 X0.230 Y-8.202 Z-1.587 I1.587 J0.000 K0.000 F750.000
G1 X36.642 Y-8.202 Z-1.587 F750.000
G1 X36.642 Y-5.039 Z-1.587 F750.000
G2 X38.230 Y-3.452 Z-1.587 I1.587 J0.000 K0.000 F750.000
G1 X55.642 Y-3.452 Z-1.587 F750.000
G1 X55.642 Y-2.669 Z-1.587 F750.000
G2 X57.230 Y-1.082 Z-1.587 I1.587 J0.000 K0.000 F750.000
G1 X87.230 Y-1.082 Z-1.587 F750.000
G2 X88.777 Y-2.316 Z-1.587 I0.000 J-1.587 K0.000 F750.000
G2 X88.817 Y-3.452 Z-1.587 I-5.020 J-0.745 K0.000 F750.000
G1 X107.230 Y-3.452 Z-1.587 F750.000
G2 X108.777 Y-4.686 Z-1.587 I0.000 J-1.587 K0.000 F750.000
G2 X108.817 Y-5.822 Z-1.587 I-5.020 J-0.745 K0.000 F750.000
G1 X145.634 Y-5.822 Z-1.587 F750.000
G2 X146.020 Y-5.869 Z-1.587 I0.000 J-1.587 K0.000 F750.000
G1 X146.020 Y-5.869 Z-3.175 F250.000
G2 X147.222 Y-7.409 Z-3.175 I-0.386 J-1.540 K0.000 F750.000
G1 X147.222 Y-78.455 Z-3.175 F750.000
G2 X147.009 Y-79.248 Z-3.175 I-1.588 J0.000 K0.000 F750.000
G1 X129.455 Y-109.653 Z-3.175 F750.000
G2 X128.660 Y-110.337 Z-3.175 I-1.375 J0.794 K0.000 F750.000
G2 X127.286 Y-110.234 Z-3.175 I-0.580 J1.478 K0.000 F750.000
G1 X107.527 Y-98.826 Z-3.175 F750.000
G1 X69.193 Y-93.862 Z-3.175 F750.000
G2 X68.113 Y-93.222 Z-3.175 I0.204 J1.574 K0.000 F750.000
G1 X58.116 Y-79.477 Z-3.175 F750.000
G1 X0.230 Y-79.477 Z-3.175 F750.000
G2 X-1.358 Y-77.889 Z-3.175 I-0.000 J1.587 K0.000 F750.000
G1 X-1.358 Y-9.789 Z-3.175 F750.000
G2 X0.230 Y-8.202 Z-3.175 I1.587 J0.000 K0.000 F750.000
G1 X36.642 Y-8.202 Z-3.175 F750.000
G1 X36.642 Y-5.039 Z-3.175 F750.000
G2 X38.230 Y-3.452 Z-3.175 I1.587 J0.000 K0.000 F750.000
G1 X55.642 Y-3.452 Z-3.175 F750.000
G1 X55.642 Y-2.669 Z-3.175 F750.000
G2 X57.230 Y-1.082 Z-3.175 I1.587 J0.000 K0.000 F750.000
G1 X87.230 Y-1.082 Z-3.175 F750.000
G2 X88.777 Y-2.316 Z-3.175 I0.000 J-1.587 K0.000 F750.000
G2 X88.817 Y-3.452 Z-3.175 I-5.020 J-0.745 K0.000 F750.000
G1 X107.230 Y-3.452 Z-3.175 F750.000
G2 X108.777 Y-4.686 Z-3.175 I0.000 J-1.587 K0.000 F750.000
G2 X108.817 Y-5.822 Z-3.175 I-5.020 J-0.745 K0.000 F750.000
G1 X145.634 Y-5.822 Z-3.175 F750.000
G2 X146.020 Y-5.869 Z-3.175 I0.000 J-1.587 K0.000 F750.000
G1 X146.020 Y-5.869 Z-4.762 F250.000
G2 X147.222 Y-7.409 Z-4.762 I-0.386 J-1.540 K0.000 F750.000
G1 X147.222 Y-78.455 Z-4.762 F750.000
G2 X147.009 Y-79.248 Z-4.762 I-1.588 J0.000 K0.000 F750.000
G1 X129.455 Y-109.653 Z-4.762 F750.000
G2 X128.660 Y-110.337 Z-4.762 I-1.375 J0.794 K0.000 F750.000
G2 X127.286 Y-110.234 Z-4.762 I-0.580 J1.478 K0.000 F750.000
G1 X107.527 Y-98.826 Z-4.762 F750.000
G1 X69.193 Y-93.862 Z-4.762 F750.000
G2 X68.113 Y-93.222 Z-4.762 I0.204 J1.574 K0.000 F750.000
G1 X58.116 Y-79.477 Z-4.762 F750.000
G1 X0.230 Y-79.477 Z-4.762 F750.000
G2 X-1.358 Y-77.889 Z-4.762 I-0.000 J1.587 K0.000 F750.000
G1 X-1.358 Y-9.789 Z-4.762 F750.000
G2 X0.230 Y-8.202 Z-4.762 I1.587 J0.000 K0.000 F750.000
G1 X36.642 Y-8.202 Z-4.762 F750.000
G1 X36.642 Y-5.039 Z-4.762 F750.000
G2 X38.230 Y-3.452 Z-4.762 I1.587 J0.000 K0.000 F750.000
G1 X55.642 Y-3.452 Z-4.762 F750.000
G1 X55.642 Y-2.669 Z-4.762 F750.000
G2 X57.230 Y-1.082 Z-4.762 I1.587 J0.000 K0.000 F750.000
G1 X87.230 Y-1.082 Z-4.762 F750.000
G2 X88.777 Y-2.316 Z-4.762 I0.000 J-1.587 K0.000 F750.000
G2 X88.817 Y-3.452 Z-4.762 I-5.020 J-0.745 K0.000 F750.000
G1 X107.230 Y-3.452 Z-4.762 F750.000
G2 X108.777 Y-4.686 Z-4.762 I0.000 J-1.587 K0.000 F750.000
G2 X108.817 Y-5.822 Z-4.762 I-5.020 J-0.745 K0.000 F750.000
G1 X145.634 Y-5.822 Z-4.762 F750.000
G2 X146.020 Y-5.869 Z-4.762 I0.000 J-1.587 K0.000 F750.000
G1 X146.020 Y-5.869 Z-5.000 F250.000
G2 X147.222 Y-7.409 Z-5.000 I-0.386 J-1.540 K0.000 F750.000
G1 X147.222 Y-78.455 Z-5.000 F750.000
G2 X147.009 Y-79.248 Z-5.000 I-1.588 J0.000 K0.000 F750.000
G1 X129.455 Y-109.653 Z-5.000 F750.000
G2 X128.660 Y-110.337 Z-5.000 I-1.375 J0.794 K0.000 F750.000
G2 X127.286 Y-110.234 Z-5.000 I-0.580 J1.478 K0.000 F750.000
G1 X107.527 Y-98.826 Z-5.000 F750.000
G1 X69.193 Y-93.862 Z-5.000 F750.000
G2 X68.113 Y-93.222 Z-5.000 I0.204 J1.574 K0.000 F750.000
G1 X58.116 Y-79.477 Z-5.000 F750.000
G1 X0.230 Y-79.477 Z-5.000 F750.000
G2 X-1.358 Y-77.889 Z-5.000 I-0.000 J1.587 K0.000 F750.000
G1 X-1.358 Y-9.789 Z-5.000 F750.000
G2 X0.230 Y-8.202 Z-5.000 I1.587 J0.000 K0.000 F750.000
G1 X36.642 Y-8.202 Z-5.000 F750.000
G1 X36.642 Y-5.039 Z-5.000 F750.000
G2 X38.230 Y-3.452 Z-5.000 I1.587 J0.000 K0.000 F750.000
G1 X55.642 Y-3.452 Z-5.000 F750.000
G1 X55.642 Y-2.669 Z-5.000 F750.000
G2 X57.230 Y-1.082 Z-5.000 I1.587 J0.000 K0.000 F750.000
G1 X87.230 Y-1.082 Z-5.000 F750.000
G2 X88.777 Y-2.316 Z-5.000 I0.000 J-1.587 K0.000 F750.000
G2 X88.817 Y-3.452 Z-5.000 I-5.020 J-0.745 K0.000 F750.000
G1 X107.230 Y-3.452 Z-5.000 F750.000
G2 X108.777 Y-4.686 Z-5.000 I0.000 J-1.587 K0.000 F750.000
G2 X108.817 Y-5.822 Z-5.000 I-5.020 J-0.745 K0.000 F750.000
G1 X145.634 Y-5.822 Z-5.000 F750.000
G2 X146.020 Y-5.869 Z-5.000 I0.000 J-1.587 K0.000 F750.000
G0 Z3.000
G0 Z3.000
(Finish operation: Profile008)
(Begin postamble)
M5
G17 G90
M2
