(Exported by FreeCAD)
(Post Processor: grbl_post)
(Output Time:2022-05-21 11:13:54.528715)
(Begin preamble)
G17 G90
G21
(Begin operation: Fixture)
(Path: Fixture)
G54
(Finish operation: Fixture)
(Begin operation: TC: 3mm_Endmill_1flutes003)
(Path: TC: 3mm_Endmill_1flutes003)
(TC: 3mm_Endmill_1flutes003)
(Begin toolchange)
( M6 T3.0 )
M3 S1200.0
(Finish operation: TC: 3mm_Endmill_1flutes003)
(Begin operation: Profile)
(Path: Profile)
(Profile)
(Compensated Tool Path. Diameter: 3.175)
G0 Z5.000
G0 X206.428 Y-185.187
G0 Z3.000
G1 X206.428 Y-185.187 Z-1.058 F250.000
G2 X206.564 Y-185.829 Z-1.058 I-1.452 J-0.642 K0.000 F750.000
G1 X206.564 Y-243.083 Z-1.058 F750.000
G2 X204.977 Y-244.670 Z-1.058 I-1.587 J-0.000 K0.000 F750.000
G1 X176.977 Y-244.670 Z-1.058 F750.000
G2 X175.389 Y-243.083 Z-1.058 I-0.000 J1.587 K0.000 F750.000
G1 X175.389 Y-185.829 Z-1.058 F750.000
G2 X176.977 Y-184.242 Z-1.058 I1.587 J0.000 K0.000 F750.000
G1 X204.977 Y-184.242 Z-1.058 F750.000
G2 X206.428 Y-185.187 Z-1.058 I0.000 J-1.587 K0.000 F750.000
G0 Z5.000
G0 X173.272 Y-185.800 Z5.000
G0 X173.272 Y-185.800 Z3.000
G1 X173.272 Y-185.800 Z-1.058 F250.000
G2 X173.272 Y-185.829 Z-1.058 I-1.587 J-0.029 K0.000 F750.000
G1 X173.272 Y-243.083 Z-1.058 F750.000
G2 X171.685 Y-244.670 Z-1.058 I-1.587 J-0.000 K0.000 F750.000
G1 X143.685 Y-244.670 Z-1.058 F750.000
G2 X142.097 Y-243.083 Z-1.058 I-0.000 J1.587 K0.000 F750.000
G1 X142.097 Y-185.829 Z-1.058 F750.000
G2 X143.685 Y-184.242 Z-1.058 I1.587 J0.000 K0.000 F750.000
G1 X171.685 Y-184.242 Z-1.058 F750.000
G2 X173.272 Y-185.800 Z-1.058 I0.000 J-1.587 K0.000 F750.000
G0 Z5.000
G0 X139.981 Y-185.829 Z5.000
G0 X139.981 Y-185.829 Z3.000
G1 X139.981 Y-185.829 Z-1.058 F250.000
G1 X139.981 Y-210.829 Z-1.058 F750.000
G2 X138.393 Y-212.417 Z-1.058 I-1.587 J-0.000 K0.000 F750.000
G1 X78.393 Y-212.417 Z-1.058 F750.000
G2 X76.806 Y-210.829 Z-1.058 I-0.000 J1.587 K0.000 F750.000
G1 X76.806 Y-185.829 Z-1.058 F750.000
G2 X78.393 Y-184.242 Z-1.058 I1.587 J0.000 K0.000 F750.000
G1 X138.393 Y-184.242 Z-1.058 F750.000
G2 X139.981 Y-185.829 Z-1.058 I0.000 J-1.587 K0.000 F750.000
G0 Z5.000
G0 X138.471 Y-216.497 Z5.000
G0 X138.471 Y-216.497 Z3.000
G1 X138.471 Y-216.497 Z-1.058 F250.000
G2 X139.981 Y-218.083 Z-1.058 I-0.078 J-1.586 K0.000 F750.000
G1 X139.981 Y-243.083 Z-1.058 F750.000
G2 X138.393 Y-244.670 Z-1.058 I-1.587 J-0.000 K0.000 F750.000
G1 X78.393 Y-244.670 Z-1.058 F750.000
G2 X76.806 Y-243.083 Z-1.058 I-0.000 J1.587 K0.000 F750.000
G1 X76.806 Y-218.083 Z-1.058 F750.000
G2 X78.393 Y-216.495 Z-1.058 I1.587 J0.000 K0.000 F750.000
G1 X138.393 Y-216.495 Z-1.058 F750.000
G2 X138.471 Y-216.497 Z-1.058 I0.000 J-1.587 K0.000 F750.000
G0 Z5.000
G0 X138.393 Y-246.787 Z5.000
G0 X138.393 Y-246.787 Z3.000
G1 X138.393 Y-246.787 Z-1.058 F250.000
G2 X139.981 Y-248.375 Z-1.058 I0.000 J-1.587 K0.000 F750.000
G1 X139.981 Y-305.628 Z-1.058 F750.000
G2 X138.393 Y-307.216 Z-1.058 I-1.587 J-0.000 K0.000 F750.000
G1 X78.393 Y-307.216 Z-1.058 F750.000
G2 X76.806 Y-305.628 Z-1.058 I-0.000 J1.587 K0.000 F750.000
G1 X76.806 Y-248.375 Z-1.058 F750.000
G2 X78.393 Y-246.787 Z-1.058 I1.587 J0.000 K0.000 F750.000
G1 X138.393 Y-246.787 Z-1.058 F750.000
G0 Z5.000
G0 X142.164 Y-247.919 Z5.000
G0 X142.164 Y-247.919 Z3.000
G1 X142.164 Y-247.919 Z-1.058 F250.000
G2 X143.685 Y-246.787 Z-1.058 I1.521 J-0.456 K0.000 F750.000
G1 X172.685 Y-246.787 Z-1.058 F750.000
G2 X174.272 Y-248.375 Z-1.058 I0.000 J-1.587 K0.000 F750.000
G1 X174.272 Y-305.629 Z-1.058 F750.000
G2 X172.685 Y-307.216 Z-1.058 I-1.587 J-0.000 K0.000 F750.000
G1 X143.685 Y-307.216 Z-1.058 F750.000
G2 X142.097 Y-305.629 Z-1.058 I-0.000 J1.587 K0.000 F750.000
G1 X142.097 Y-248.375 Z-1.058 F750.000
G2 X142.164 Y-247.919 Z-1.058 I1.587 J0.000 K0.000 F750.000
G0 Z5.000
G0 X176.389 Y-248.355 Z5.000
G0 X176.389 Y-248.355 Z3.000
G1 X176.389 Y-248.355 Z-1.058 F250.000
G2 X177.977 Y-246.787 Z-1.058 I1.587 J-0.020 K0.000 F750.000
G1 X206.976 Y-246.787 Z-1.058 F750.000
G2 X208.564 Y-248.375 Z-1.058 I0.000 J-1.587 K0.000 F750.000
G1 X208.564 Y-305.629 Z-1.058 F750.000
G2 X206.976 Y-307.216 Z-1.058 I-1.587 J-0.000 K0.000 F750.000
G1 X177.977 Y-307.216 Z-1.058 F750.000
G2 X176.389 Y-305.629 Z-1.058 I-0.000 J1.587 K0.000 F750.000
G1 X176.389 Y-248.375 Z-1.058 F750.000
G2 X176.389 Y-248.355 Z-1.058 I1.587 J0.000 K0.000 F750.000
G0 Z5.000
G0 X74.689 Y-248.375 Z5.000
G0 X74.689 Y-248.375 Z3.000
G1 X74.689 Y-248.375 Z-1.058 F250.000
G1 X74.689 Y-305.629 Z-1.058 F750.000
G2 X73.102 Y-307.216 Z-1.058 I-1.587 J-0.000 K0.000 F750.000
G1 X44.102 Y-307.216 Z-1.058 F750.000
G2 X42.514 Y-305.629 Z-1.058 I-0.000 J1.587 K0.000 F750.000
G1 X42.514 Y-248.375 Z-1.058 F750.000
G2 X44.102 Y-246.787 Z-1.058 I1.587 J0.000 K0.000 F750.000
G1 X73.102 Y-246.787 Z-1.058 F750.000
G2 X74.689 Y-248.375 Z-1.058 I0.000 J-1.587 K0.000 F750.000
G0 Z5.000
G0 X73.558 Y-244.603 Z5.000
G0 X73.558 Y-244.603 Z3.000
G1 X73.558 Y-244.603 Z-1.058 F250.000
G2 X73.102 Y-244.670 Z-1.058 I-0.456 J1.521 K0.000 F750.000
G1 X45.102 Y-244.670 Z-1.058 F750.000
G2 X43.514 Y-243.083 Z-1.058 I-0.000 J1.587 K0.000 F750.000
G1 X43.514 Y-185.829 Z-1.058 F750.000
G2 X45.102 Y-184.242 Z-1.058 I1.587 J0.000 K0.000 F750.000
G1 X73.102 Y-184.242 Z-1.058 F750.000
G2 X74.689 Y-185.829 Z-1.058 I0.000 J-1.587 K0.000 F750.000
G1 X74.689 Y-243.083 Z-1.058 F750.000
G2 X73.558 Y-244.603 Z-1.058 I-1.587 J-0.000 K0.000 F750.000
G0 Z5.000
G0 X41.396 Y-243.154 Z5.000
G0 X41.396 Y-243.154 Z3.000
G1 X41.396 Y-243.154 Z-1.058 F250.000
G2 X39.810 Y-244.670 Z-1.058 I-1.586 J0.071 K0.000 F750.000
G1 X11.810 Y-244.670 Z-1.058 F750.000
G2 X10.222 Y-243.083 Z-1.058 I-0.000 J1.587 K0.000 F750.000
G1 X10.222 Y-185.829 Z-1.058 F750.000
G2 X11.810 Y-184.242 Z-1.058 I1.587 J0.000 K0.000 F750.000
G1 X39.810 Y-184.242 Z-1.058 F750.000
G2 X41.397 Y-185.829 Z-1.058 I0.000 J-1.587 K0.000 F750.000
G1 X41.397 Y-243.083 Z-1.058 F750.000
G2 X41.396 Y-243.154 Z-1.058 I-1.587 J-0.000 K0.000 F750.000
G0 Z5.000
G0 X38.680 Y-247.300 Z5.000
G0 X38.680 Y-247.300 Z3.000
G1 X38.680 Y-247.300 Z-1.058 F250.000
G2 X39.397 Y-248.628 Z-1.058 I-0.870 J-1.328 K0.000 F750.000
G1 X39.397 Y-305.882 Z-1.058 F750.000
G2 X37.810 Y-307.470 Z-1.058 I-1.587 J-0.000 K0.000 F750.000
G1 X8.810 Y-307.470 Z-1.058 F750.000
G2 X7.223 Y-305.882 Z-1.058 I-0.000 J1.587 K0.000 F750.000
G1 X7.223 Y-248.628 Z-1.058 F750.000
G2 X8.810 Y-247.041 Z-1.058 I1.587 J0.000 K0.000 F750.000
G1 X37.810 Y-247.041 Z-1.058 F750.000
G2 X38.680 Y-247.300 Z-1.058 I0.000 J-1.587 K0.000 F750.000
G1 X38.680 Y-247.300 Z-2.117 F250.000
G2 X39.397 Y-248.628 Z-2.117 I-0.870 J-1.328 K0.000 F750.000
G1 X39.397 Y-305.882 Z-2.117 F750.000
G2 X37.810 Y-307.470 Z-2.117 I-1.587 J-0.000 K0.000 F750.000
G1 X8.810 Y-307.470 Z-2.117 F750.000
G2 X7.223 Y-305.882 Z-2.117 I-0.000 J1.587 K0.000 F750.000
G1 X7.223 Y-248.628 Z-2.117 F750.000
G2 X8.810 Y-247.041 Z-2.117 I1.587 J0.000 K0.000 F750.000
G1 X37.810 Y-247.041 Z-2.117 F750.000
G2 X38.680 Y-247.300 Z-2.117 I0.000 J-1.587 K0.000 F750.000
G0 Z5.000
G0 Y-244.670 Z5.000
G0 Y-244.670 Z3.000
G1 X38.680 Y-244.670 Z-2.117 F250.000
G1 X11.810 Y-244.670 Z-2.117 F750.000
G2 X10.222 Y-243.083 Z-2.117 I-0.000 J1.587 K0.000 F750.000
G1 X10.222 Y-185.829 Z-2.117 F750.000
G2 X11.810 Y-184.242 Z-2.117 I1.587 J0.000 K0.000 F750.000
G1 X39.810 Y-184.242 Z-2.117 F750.000
G2 X41.397 Y-185.829 Z-2.117 I0.000 J-1.587 K0.000 F750.000
G1 X41.397 Y-243.083 Z-2.117 F750.000
G2 X39.810 Y-244.670 Z-2.117 I-1.587 J-0.000 K0.000 F750.000
G1 X38.680 Y-244.670 Z-2.117 F750.000
G0 Z5.000
G0 X42.791 Y-247.479 Z5.000
G0 X42.791 Y-247.479 Z3.000
G1 X42.791 Y-247.479 Z-2.117 F250.000
G2 X44.102 Y-246.787 Z-2.117 I1.311 J-0.896 K0.000 F750.000
G1 X73.102 Y-246.787 Z-2.117 F750.000
G2 X74.689 Y-248.375 Z-2.117 I0.000 J-1.587 K0.000 F750.000
G1 X74.689 Y-305.629 Z-2.117 F750.000
G2 X73.102 Y-307.216 Z-2.117 I-1.587 J-0.000 K0.000 F750.000
G1 X44.102 Y-307.216 Z-2.117 F750.000
G2 X42.514 Y-305.629 Z-2.117 I-0.000 J1.587 K0.000 F750.000
G1 X42.514 Y-248.375 Z-2.117 F750.000
G2 X42.791 Y-247.479 Z-2.117 I1.587 J0.000 K0.000 F750.000
G0 Z5.000
G0 X44.363 Y-244.488 Z5.000
G0 X44.363 Y-244.488 Z3.000
G1 X44.363 Y-244.488 Z-2.117 F250.000
G2 X43.514 Y-243.083 Z-2.117 I0.739 J1.405 K0.000 F750.000
G1 X43.514 Y-185.829 Z-2.117 F750.000
G2 X45.102 Y-184.242 Z-2.117 I1.587 J0.000 K0.000 F750.000
G1 X73.102 Y-184.242 Z-2.117 F750.000
G2 X74.689 Y-185.829 Z-2.117 I0.000 J-1.587 K0.000 F750.000
G1 X74.689 Y-243.083 Z-2.117 F750.000
G2 X73.102 Y-244.670 Z-2.117 I-1.587 J-0.000 K0.000 F750.000
G1 X45.102 Y-244.670 Z-2.117 F750.000
G2 X44.363 Y-244.488 Z-2.117 I-0.000 J1.587 K0.000 F750.000
G0 Z5.000
G0 X76.807 Y-243.148 Z5.000
G0 X76.807 Y-243.148 Z3.000
G1 X76.807 Y-243.148 Z-2.117 F250.000
G2 X76.806 Y-243.083 Z-2.117 I1.586 J0.065 K0.000 F750.000
G1 X76.806 Y-218.083 Z-2.117 F750.000
G2 X78.393 Y-216.495 Z-2.117 I1.587 J0.000 K0.000 F750.000
G1 X138.393 Y-216.495 Z-2.117 F750.000
G2 X139.981 Y-218.083 Z-2.117 I0.000 J-1.587 K0.000 F750.000
G1 X139.981 Y-243.083 Z-2.117 F750.000
G2 X138.393 Y-244.670 Z-2.117 I-1.587 J-0.000 K0.000 F750.000
G1 X78.393 Y-244.670 Z-2.117 F750.000
G2 X76.807 Y-243.148 Z-2.117 I-0.000 J1.587 K0.000 F750.000
G0 Z5.000
G0 X77.932 Y-246.856 Z5.000
G0 X77.932 Y-246.856 Z3.000
G1 X77.932 Y-246.856 Z-2.117 F250.000
G2 X78.393 Y-246.787 Z-2.117 I0.461 J-1.519 K0.000 F750.000
G1 X138.393 Y-246.787 Z-2.117 F750.000
G2 X139.981 Y-248.375 Z-2.117 I0.000 J-1.587 K0.000 F750.000
G1 X139.981 Y-305.628 Z-2.117 F750.000
G2 X138.393 Y-307.216 Z-2.117 I-1.587 J-0.000 K0.000 F750.000
G1 X78.393 Y-307.216 Z-2.117 F750.000
G2 X76.806 Y-305.628 Z-2.117 I-0.000 J1.587 K0.000 F750.000
G1 X76.806 Y-248.375 Z-2.117 F750.000
G2 X77.932 Y-246.856 Z-2.117 I1.587 J0.000 K0.000 F750.000
G0 Z5.000
G0 X78.373 Y-212.417 Z5.000
G0 X78.373 Y-212.417 Z3.000
G1 X78.373 Y-212.417 Z-2.117 F250.000
G2 X76.806 Y-210.829 Z-2.117 I0.020 J1.587 K0.000 F750.000
G1 X76.806 Y-185.829 Z-2.117 F750.000
G2 X78.393 Y-184.242 Z-2.117 I1.587 J0.000 K0.000 F750.000
G1 X138.393 Y-184.242 Z-2.117 F750.000
G2 X139.981 Y-185.829 Z-2.117 I0.000 J-1.587 K0.000 F750.000
G1 X139.981 Y-210.829 Z-2.117 F750.000
G2 X138.393 Y-212.417 Z-2.117 I-1.587 J-0.000 K0.000 F750.000
G1 X78.393 Y-212.417 Z-2.117 F750.000
G2 X78.373 Y-212.417 Z-2.117 I-0.000 J1.587 K0.000 F750.000
G0 Z5.000
G0 X142.097 Z5.000
G0 X142.097 Z3.000
G1 X142.097 Y-212.417 Z-2.117 F250.000
G1 X142.097 Y-185.829 Z-2.117 F750.000
G2 X143.685 Y-184.242 Z-2.117 I1.587 J0.000 K0.000 F750.000
G1 X171.685 Y-184.242 Z-2.117 F750.000
G2 X173.272 Y-185.829 Z-2.117 I0.000 J-1.587 K0.000 F750.000
G1 X173.272 Y-243.083 Z-2.117 F750.000
G2 X171.685 Y-244.670 Z-2.117 I-1.587 J-0.000 K0.000 F750.000
G1 X143.685 Y-244.670 Z-2.117 F750.000
G2 X142.097 Y-243.083 Z-2.117 I-0.000 J1.587 K0.000 F750.000
G1 X142.097 Y-212.417 Z-2.117 F750.000
G0 Z5.000
G0 X175.389 Z5.000
G0 X175.389 Z3.000
G1 X175.389 Y-212.417 Z-2.117 F250.000
G1 X175.389 Y-185.829 Z-2.117 F750.000
G2 X176.977 Y-184.242 Z-2.117 I1.587 J0.000 K0.000 F750.000
G1 X204.977 Y-184.242 Z-2.117 F750.000
G2 X206.564 Y-185.829 Z-2.117 I0.000 J-1.587 K0.000 F750.000
G1 X206.564 Y-243.083 Z-2.117 F750.000
G2 X204.977 Y-244.670 Z-2.117 I-1.587 J-0.000 K0.000 F750.000
G1 X176.977 Y-244.670 Z-2.117 F750.000
G2 X175.389 Y-243.083 Z-2.117 I-0.000 J1.587 K0.000 F750.000
G1 X175.389 Y-212.417 Z-2.117 F750.000
G0 Z5.000
G0 X177.863 Y-246.791 Z5.000
G0 X177.863 Y-246.791 Z3.000
G1 X177.863 Y-246.791 Z-2.117 F250.000
G2 X177.977 Y-246.787 Z-2.117 I0.114 J-1.583 K0.000 F750.000
G1 X206.976 Y-246.787 Z-2.117 F750.000
G2 X208.564 Y-248.375 Z-2.117 I0.000 J-1.587 K0.000 F750.000
G1 X208.564 Y-305.629 Z-2.117 F750.000
G2 X206.976 Y-307.216 Z-2.117 I-1.587 J-0.000 K0.000 F750.000
G1 X177.977 Y-307.216 Z-2.117 F750.000
G2 X176.389 Y-305.629 Z-2.117 I-0.000 J1.587 K0.000 F750.000
G1 X176.389 Y-248.375 Z-2.117 F750.000
G2 X177.863 Y-246.791 Z-2.117 I1.587 J0.000 K0.000 F750.000
G0 Z5.000
G0 X174.203 Y-247.911 Z5.000
G0 X174.203 Y-247.911 Z3.000
G1 X174.203 Y-247.911 Z-2.117 F250.000
G2 X174.272 Y-248.375 Z-2.117 I-1.518 J-0.464 K0.000 F750.000
G1 X174.272 Y-305.629 Z-2.117 F750.000
G2 X172.685 Y-307.216 Z-2.117 I-1.587 J-0.000 K0.000 F750.000
G1 X143.685 Y-307.216 Z-2.117 F750.000
G2 X142.097 Y-305.629 Z-2.117 I-0.000 J1.587 K0.000 F750.000
G1 X142.097 Y-248.375 Z-2.117 F750.000
G2 X143.685 Y-246.787 Z-2.117 I1.587 J0.000 K0.000 F750.000
G1 X172.685 Y-246.787 Z-2.117 F750.000
G2 X174.203 Y-247.911 Z-2.117 I0.000 J-1.587 K0.000 F750.000
G1 X174.203 Y-247.911 Z-3.000 F250.000
G2 X174.272 Y-248.375 Z-3.000 I-1.518 J-0.464 K0.000 F750.000
G1 X174.272 Y-305.629 Z-3.000 F750.000
G2 X172.685 Y-307.216 Z-3.000 I-1.587 J-0.000 K0.000 F750.000
G1 X143.685 Y-307.216 Z-3.000 F750.000
G2 X142.097 Y-305.629 Z-3.000 I-0.000 J1.587 K0.000 F750.000
G1 X142.097 Y-248.375 Z-3.000 F750.000
G2 X143.685 Y-246.787 Z-3.000 I1.587 J0.000 K0.000 F750.000
G1 X172.685 Y-246.787 Z-3.000 F750.000
G2 X174.203 Y-247.911 Z-3.000 I0.000 J-1.587 K0.000 F750.000
G0 Z5.000
G0 X176.401 Y-248.181 Z5.000
G0 X176.401 Y-248.181 Z3.000
G1 X176.401 Y-248.181 Z-3.000 F250.000
G2 X177.977 Y-246.787 Z-3.000 I1.576 J-0.194 K0.000 F750.000
G1 X206.976 Y-246.787 Z-3.000 F750.000
G2 X208.564 Y-248.375 Z-3.000 I0.000 J-1.587 K0.000 F750.000
G1 X208.564 Y-305.629 Z-3.000 F750.000
G2 X206.976 Y-307.216 Z-3.000 I-1.587 J-0.000 K0.000 F750.000
G1 X177.977 Y-307.216 Z-3.000 F750.000
G2 X176.389 Y-305.629 Z-3.000 I-0.000 J1.587 K0.000 F750.000
G1 X176.389 Y-248.375 Z-3.000 F750.000
G2 X176.401 Y-248.181 Z-3.000 I1.587 J0.000 K0.000 F750.000
G0 Z5.000
G0 X176.798 Y-244.660 Z5.000
G0 X176.798 Y-244.660 Z3.000
G1 X176.798 Y-244.660 Z-3.000 F250.000
G2 X175.389 Y-243.083 Z-3.000 I0.178 J1.577 K0.000 F750.000
G1 X175.389 Y-185.829 Z-3.000 F750.000
G2 X176.977 Y-184.242 Z-3.000 I1.587 J0.000 K0.000 F750.000
G1 X204.977 Y-184.242 Z-3.000 F750.000
G2 X206.564 Y-185.829 Z-3.000 I0.000 J-1.587 K0.000 F750.000
G1 X206.564 Y-243.083 Z-3.000 F750.000
G2 X204.977 Y-244.670 Z-3.000 I-1.587 J-0.000 K0.000 F750.000
G1 X176.977 Y-244.670 Z-3.000 F750.000
G2 X176.798 Y-244.660 Z-3.000 I-0.000 J1.587 K0.000 F750.000
G0 Z5.000
G0 X173.202 Y-243.551 Z5.000
G0 X173.202 Y-243.551 Z3.000
G1 X173.202 Y-243.551 Z-3.000 F250.000
G2 X171.685 Y-244.670 Z-3.000 I-1.517 J0.468 K0.000 F750.000
G1 X143.685 Y-244.670 Z-3.000 F750.000
G2 X142.097 Y-243.083 Z-3.000 I-0.000 J1.587 K0.000 F750.000
G1 X142.097 Y-185.829 Z-3.000 F750.000
G2 X143.685 Y-184.242 Z-3.000 I1.587 J0.000 K0.000 F750.000
G1 X171.685 Y-184.242 Z-3.000 F750.000
G2 X173.272 Y-185.829 Z-3.000 I0.000 J-1.587 K0.000 F750.000
G1 X173.272 Y-243.083 Z-3.000 F750.000
G2 X173.202 Y-243.551 Z-3.000 I-1.587 J-0.000 K0.000 F750.000
G0 Z5.000
G0 X139.981 Y-243.104 Z5.000
G0 X139.981 Y-243.104 Z3.000
G1 X139.981 Y-243.104 Z-3.000 F250.000
G2 X138.393 Y-244.670 Z-3.000 I-1.587 J0.021 K0.000 F750.000
G1 X78.393 Y-244.670 Z-3.000 F750.000
G2 X76.806 Y-243.083 Z-3.000 I-0.000 J1.587 K0.000 F750.000
G1 X76.806 Y-218.083 Z-3.000 F750.000
G2 X78.393 Y-216.495 Z-3.000 I1.587 J0.000 K0.000 F750.000
G1 X138.393 Y-216.495 Z-3.000 F750.000
G2 X139.981 Y-218.083 Z-3.000 I0.000 J-1.587 K0.000 F750.000
G1 X139.981 Y-243.083 Z-3.000 F750.000
G2 X139.981 Y-243.104 Z-3.000 I-1.587 J-0.000 K0.000 F750.000
G0 Z5.000
G0 X138.851 Y-246.855 Z5.000
G0 X138.851 Y-246.855 Z3.000
G1 X138.851 Y-246.855 Z-3.000 F250.000
G2 X139.981 Y-248.375 Z-3.000 I-0.458 J-1.520 K0.000 F750.000
G1 X139.981 Y-305.628 Z-3.000 F750.000
G2 X138.393 Y-307.216 Z-3.000 I-1.587 J-0.000 K0.000 F750.000
G1 X78.393 Y-307.216 Z-3.000 F750.000
G2 X76.806 Y-305.628 Z-3.000 I-0.000 J1.587 K0.000 F750.000
G1 X76.806 Y-248.375 Z-3.000 F750.000
G2 X78.393 Y-246.787 Z-3.000 I1.587 J0.000 K0.000 F750.000
G1 X138.393 Y-246.787 Z-3.000 F750.000
G2 X138.851 Y-246.855 Z-3.000 I0.000 J-1.587 K0.000 F750.000
G0 Z5.000
G0 X138.413 Y-212.417 Z5.000
G0 X138.413 Y-212.417 Z3.000
G1 X138.413 Y-212.417 Z-3.000 F250.000
G2 X138.393 Y-212.417 Z-3.000 I-0.020 J1.587 K0.000 F750.000
G1 X78.393 Y-212.417 Z-3.000 F750.000
G2 X76.806 Y-210.829 Z-3.000 I-0.000 J1.587 K0.000 F750.000
G1 X76.806 Y-185.829 Z-3.000 F750.000
G2 X78.393 Y-184.242 Z-3.000 I1.587 J0.000 K0.000 F750.000
G1 X138.393 Y-184.242 Z-3.000 F750.000
G2 X139.981 Y-185.829 Z-3.000 I0.000 J-1.587 K0.000 F750.000
G1 X139.981 Y-210.829 Z-3.000 F750.000
G2 X138.413 Y-212.417 Z-3.000 I-1.587 J-0.000 K0.000 F750.000
G0 Z5.000
G0 X74.689 Z5.000
G0 X74.689 Z3.000
G1 X74.689 Y-212.417 Z-3.000 F250.000
G1 X74.689 Y-243.083 Z-3.000 F750.000
G2 X73.102 Y-244.670 Z-3.000 I-1.587 J-0.000 K0.000 F750.000
G1 X45.102 Y-244.670 Z-3.000 F750.000
G2 X43.514 Y-243.083 Z-3.000 I-0.000 J1.587 K0.000 F750.000
G1 X43.514 Y-185.829 Z-3.000 F750.000
G2 X45.102 Y-184.242 Z-3.000 I1.587 J0.000 K0.000 F750.000
G1 X73.102 Y-184.242 Z-3.000 F750.000
G2 X74.689 Y-185.829 Z-3.000 I0.000 J-1.587 K0.000 F750.000
G1 X74.689 Y-212.417 Z-3.000 F750.000
G0 Z5.000
G0 X41.397 Z5.000
G0 X41.397 Z3.000
G1 X41.397 Y-212.417 Z-3.000 F250.000
G1 X41.397 Y-243.083 Z-3.000 F750.000
G2 X39.810 Y-244.670 Z-3.000 I-1.587 J-0.000 K0.000 F750.000
G1 X11.810 Y-244.670 Z-3.000 F750.000
G2 X10.222 Y-243.083 Z-3.000 I-0.000 J1.587 K0.000 F750.000
G1 X10.222 Y-185.829 Z-3.000 F750.000
G2 X11.810 Y-184.242 Z-3.000 I1.587 J0.000 K0.000 F750.000
G1 X39.810 Y-184.242 Z-3.000 F750.000
G2 X41.397 Y-185.829 Z-3.000 I0.000 J-1.587 K0.000 F750.000
G1 X41.397 Y-212.417 Z-3.000 F750.000
G0 Z5.000
G0 X43.983 Y-246.792 Z5.000
G0 X43.983 Y-246.792 Z3.000
G1 X43.983 Y-246.792 Z-3.000 F250.000
G2 X44.102 Y-246.787 Z-3.000 I0.119 J-1.583 K0.000 F750.000
G1 X73.102 Y-246.787 Z-3.000 F750.000
G2 X74.689 Y-248.375 Z-3.000 I0.000 J-1.587 K0.000 F750.000
G1 X74.689 Y-305.629 Z-3.000 F750.000
G2 X73.102 Y-307.216 Z-3.000 I-1.587 J-0.000 K0.000 F750.000
G1 X44.102 Y-307.216 Z-3.000 F750.000
G2 X42.514 Y-305.629 Z-3.000 I-0.000 J1.587 K0.000 F750.000
G1 X42.514 Y-248.375 Z-3.000 F750.000
G2 X43.983 Y-246.792 Z-3.000 I1.587 J0.000 K0.000 F750.000
G0 Z5.000
G0 X39.331 Y-248.176 Z5.000
G0 X39.331 Y-248.176 Z3.000
G1 X39.331 Y-248.176 Z-3.000 F250.000
G2 X39.397 Y-248.628 Z-3.000 I-1.522 J-0.453 K0.000 F750.000
G1 X39.397 Y-305.882 Z-3.000 F750.000
G2 X37.810 Y-307.470 Z-3.000 I-1.587 J-0.000 K0.000 F750.000
G1 X8.810 Y-307.470 Z-3.000 F750.000
G2 X7.223 Y-305.882 Z-3.000 I-0.000 J1.587 K0.000 F750.000
G1 X7.223 Y-248.628 Z-3.000 F750.000
G2 X8.810 Y-247.041 Z-3.000 I1.587 J0.000 K0.000 F750.000
G1 X37.810 Y-247.041 Z-3.000 F750.000
G2 X39.331 Y-248.176 Z-3.000 I0.000 J-1.587 K0.000 F750.000
G0 Z5.000
G0 Z5.000
(Finish operation: Profile)
(Begin postamble)
M5
G17 G90
M2
