(Exported by FreeCAD)
(Post Processor: grbl_post)
(Output Time:2022-05-23 18:44:05.453495)
(Begin preamble)
G17 G90
G21
(Begin operation: Fixture)
(Path: Fixture)
G54
(Finish operation: Fixture)
(Begin operation: TC: 25degree_Vbit007)
(Path: TC: 25degree_Vbit007)
(TC: 25degree_Vbit007)
(Begin toolchange)
( M6 T2.0 )
M3 S12000.0
(Finish operation: TC: 25degree_Vbit007)
(Begin operation: Profile004)
(Path: Profile004)
(Profile004)
(Compensated Tool Path. Diameter: 3.175)
G0 Z38.671
G0 X409.894 Y-86.248
G0 Z35.671
G1 X409.894 Y-86.248 Z27.496 F200.000
G2 X410.799 Y-87.681 Z27.496 I-0.683 J-1.433 K0.000 F800.000
G1 X410.799 Y-99.681 Z27.496 F800.000
G2 X409.211 Y-101.268 Z27.496 I-1.588 J0.000 K0.000 F800.000
G1 X407.532 Y-101.268 Z27.496 F800.000
G2 X406.705 Y-101.036 Z27.496 I0.000 J1.588 K0.000 F800.000
G3 X351.718 Y-101.036 Z27.496 I-27.493 J-43.151 K0.000 F800.000
G2 X350.891 Y-101.268 Z27.496 I-0.827 J1.355 K0.000 F800.000
G1 X349.211 Y-101.268 Z27.496 F800.000
G2 X347.624 Y-99.681 Z27.496 I-0.000 J1.587 K0.000 F800.000
G1 X347.624 Y-87.681 Z27.496 F800.000
G2 X349.211 Y-86.094 Z27.496 I1.587 J0.000 K0.000 F800.000
G1 X409.211 Y-86.094 Z27.496 F800.000
G2 X409.894 Y-86.248 Z27.496 I0.000 J-1.587 K0.000 F800.000
G0 Z38.671
G0 X409.242 Y-104.770 Z38.671
G0 X409.242 Y-104.770 Z35.671
G1 X409.242 Y-104.770 Z27.496 F200.000
G2 X410.774 Y-106.356 Z27.496 I-0.056 J-1.587 K0.000 F800.000
G1 X410.774 Y-118.356 Z27.496 F800.000
G2 X409.186 Y-119.944 Z27.496 I-1.587 J-0.000 K0.000 F800.000
G1 X407.507 Y-119.944 Z27.496 F800.000
G2 X406.680 Y-119.711 Z27.496 I-0.000 J1.587 K0.000 F800.000
G3 X351.693 Y-119.711 Z27.496 I-27.493 J-43.151 K0.000 F800.000
G2 X350.866 Y-119.944 Z27.496 I-0.827 J1.355 K0.000 F800.000
G1 X349.186 Y-119.944 Z27.496 F800.000
G2 X347.599 Y-118.356 Z27.496 I-0.000 J1.587 K0.000 F800.000
G1 X347.599 Y-106.356 Z27.496 F800.000
G2 X349.186 Y-104.769 Z27.496 I1.587 J0.000 K0.000 F800.000
G1 X409.186 Y-104.769 Z27.496 F800.000
G2 X409.242 Y-104.770 Z27.496 I0.000 J-1.587 K0.000 F800.000
G0 Z38.671
G0 X409.048 Y-123.545 Z38.671
G0 X409.048 Y-123.545 Z35.671
G1 X409.048 Y-123.545 Z27.496 F200.000
G2 X410.619 Y-125.132 Z27.496 I-0.016 J-1.587 K0.000 F800.000
G1 X410.619 Y-137.132 Z27.496 F800.000
G2 X409.031 Y-138.719 Z27.496 I-1.587 J-0.000 K0.000 F800.000
G1 X407.352 Y-138.719 Z27.496 F800.000
G2 X406.525 Y-138.487 Z27.496 I0.000 J1.588 K0.000 F800.000
G3 X351.538 Y-138.487 Z27.496 I-27.493 J-43.151 K0.000 F800.000
G2 X350.711 Y-138.719 Z27.496 I-0.827 J1.355 K0.000 F800.000
G1 X349.031 Y-138.719 Z27.496 F800.000
G2 X347.444 Y-137.132 Z27.496 I-0.000 J1.587 K0.000 F800.000
G1 X347.444 Y-125.132 Z27.496 F800.000
G2 X349.031 Y-123.545 Z27.496 I1.587 J0.000 K0.000 F800.000
G1 X409.031 Y-123.545 Z27.496 F800.000
G2 X409.048 Y-123.545 Z27.496 I0.000 J-1.587 K0.000 F800.000
G0 Z38.671
G0 X346.714 Z38.671
G0 X346.714 Z35.671
G1 X346.714 Y-123.545 Z27.496 F200.000
G1 X346.714 Y-143.643 Z27.496 F800.000
G2 X345.127 Y-145.231 Z27.496 I-1.587 J-0.000 K0.000 F800.000
G1 X285.127 Y-145.231 Z27.496 F800.000
G2 X283.539 Y-143.643 Z27.496 I-0.000 J1.587 K0.000 F800.000
G1 X283.539 Y-86.390 Z27.496 F800.000
G2 X285.127 Y-84.802 Z27.496 I1.587 J0.000 K0.000 F800.000
G1 X345.127 Y-84.802 Z27.496 F800.000
G2 X346.714 Y-86.390 Z27.496 I0.000 J-1.587 K0.000 F800.000
G1 X346.714 Y-123.545 Z27.496 F800.000
G0 Z38.671
G0 X281.050 Z38.671
G0 X281.050 Z35.671
G1 X281.050 Y-123.545 Z27.496 F200.000
G1 X281.050 Y-143.190 Z27.496 F800.000
G2 X279.462 Y-144.777 Z27.496 I-1.587 J-0.000 K0.000 F800.000
G1 X219.462 Y-144.777 Z27.496 F800.000
G2 X217.875 Y-143.190 Z27.496 I-0.000 J1.587 K0.000 F800.000
G1 X217.875 Y-85.936 Z27.496 F800.000
G2 X219.462 Y-84.349 Z27.496 I1.587 J0.000 K0.000 F800.000
G1 X279.462 Y-84.349 Z27.496 F800.000
G2 X281.050 Y-85.936 Z27.496 I0.000 J-1.587 K0.000 F800.000
G1 X281.050 Y-123.545 Z27.496 F800.000
G1 X281.050 Y-123.545 Z24.321 F200.000
G1 X281.050 Y-143.190 Z24.321 F800.000
G2 X279.462 Y-144.777 Z24.321 I-1.587 J-0.000 K0.000 F800.000
G1 X219.462 Y-144.777 Z24.321 F800.000
G2 X217.875 Y-143.190 Z24.321 I-0.000 J1.587 K0.000 F800.000
G1 X217.875 Y-85.936 Z24.321 F800.000
G2 X219.462 Y-84.349 Z24.321 I1.587 J0.000 K0.000 F800.000
G1 X279.462 Y-84.349 Z24.321 F800.000
G2 X281.050 Y-85.936 Z24.321 I0.000 J-1.587 K0.000 F800.000
G1 X281.050 Y-123.545 Z24.321 F800.000
G0 Z38.671
G0 X283.539 Z38.671
G0 X283.539 Z35.671
G1 X283.539 Y-123.545 Z24.321 F200.000
G1 X283.539 Y-86.390 Z24.321 F800.000
G2 X285.127 Y-84.802 Z24.321 I1.587 J0.000 K0.000 F800.000
G1 X345.127 Y-84.802 Z24.321 F800.000
G2 X346.714 Y-86.390 Z24.321 I0.000 J-1.587 K0.000 F800.000
G1 X346.714 Y-143.643 Z24.321 F800.000
G2 X345.127 Y-145.231 Z24.321 I-1.587 J-0.000 K0.000 F800.000
G1 X285.127 Y-145.231 Z24.321 F800.000
G2 X283.539 Y-143.643 Z24.321 I-0.000 J1.587 K0.000 F800.000
G1 X283.539 Y-123.545 Z24.321 F800.000
G0 Z38.671
G0 X347.444 Y-125.094 Z38.671
G0 X347.444 Y-125.094 Z35.671
G1 X347.444 Y-125.094 Z24.321 F200.000
G2 X349.031 Y-123.545 Z24.321 I1.587 J-0.038 K0.000 F800.000
G1 X409.031 Y-123.545 Z24.321 F800.000
G2 X410.619 Y-125.132 Z24.321 I0.000 J-1.587 K0.000 F800.000
G1 X410.619 Y-137.132 Z24.321 F800.000
G2 X409.031 Y-138.719 Z24.321 I-1.587 J-0.000 K0.000 F800.000
G1 X407.352 Y-138.719 Z24.321 F800.000
G2 X406.525 Y-138.487 Z24.321 I0.000 J1.588 K0.000 F800.000
G3 X351.538 Y-138.487 Z24.321 I-27.493 J-43.151 K0.000 F800.000
G2 X350.711 Y-138.719 Z24.321 I-0.827 J1.355 K0.000 F800.000
G1 X349.031 Y-138.719 Z24.321 F800.000
G2 X347.444 Y-137.132 Z24.321 I-0.000 J1.587 K0.000 F800.000
G1 X347.444 Y-125.132 Z24.321 F800.000
G2 X347.444 Y-125.094 Z24.321 I1.587 J0.000 K0.000 F800.000
G0 Z38.671
G0 X348.789 Y-119.893 Z38.671
G0 X348.789 Y-119.893 Z35.671
G1 X348.789 Y-119.893 Z24.321 F200.000
G2 X347.599 Y-118.356 Z24.321 I0.397 J1.537 K0.000 F800.000
G1 X347.599 Y-106.356 Z24.321 F800.000
G2 X349.186 Y-104.769 Z24.321 I1.587 J0.000 K0.000 F800.000
G1 X409.186 Y-104.769 Z24.321 F800.000
G2 X410.774 Y-106.356 Z24.321 I0.000 J-1.587 K0.000 F800.000
G1 X410.774 Y-118.356 Z24.321 F800.000
G2 X409.186 Y-119.944 Z24.321 I-1.587 J-0.000 K0.000 F800.000
G1 X407.507 Y-119.944 Z24.321 F800.000
G2 X406.680 Y-119.711 Z24.321 I-0.000 J1.587 K0.000 F800.000
G3 X351.693 Y-119.711 Z24.321 I-27.493 J-43.151 K0.000 F800.000
G2 X350.866 Y-119.944 Z24.321 I-0.827 J1.355 K0.000 F800.000
G1 X349.186 Y-119.944 Z24.321 F800.000
G2 X348.789 Y-119.893 Z24.321 I-0.000 J1.587 K0.000 F800.000
G0 Z38.671
G0 X349.178 Y-101.268 Z38.671
G0 X349.178 Y-101.268 Z35.671
G1 X349.178 Y-101.268 Z24.321 F200.000
G2 X347.624 Y-99.681 Z24.321 I0.033 J1.587 K0.000 F800.000
G1 X347.624 Y-87.681 Z24.321 F800.000
G2 X349.211 Y-86.094 Z24.321 I1.587 J0.000 K0.000 F800.000
G1 X409.211 Y-86.094 Z24.321 F800.000
G2 X410.799 Y-87.681 Z24.321 I0.000 J-1.587 K0.000 F800.000
G1 X410.799 Y-99.681 Z24.321 F800.000
G2 X409.211 Y-101.268 Z24.321 I-1.588 J0.000 K0.000 F800.000
G1 X407.532 Y-101.268 Z24.321 F800.000
G2 X406.705 Y-101.036 Z24.321 I0.000 J1.588 K0.000 F800.000
G3 X351.718 Y-101.036 Z24.321 I-27.493 J-43.151 K0.000 F800.000
G2 X350.891 Y-101.268 Z24.321 I-0.827 J1.355 K0.000 F800.000
G1 X349.211 Y-101.268 Z24.321 F800.000
G2 X349.178 Y-101.268 Z24.321 I-0.000 J1.587 K0.000 F800.000
G1 X349.178 Y-101.268 Z21.146 F200.000
G2 X347.624 Y-99.681 Z21.146 I0.033 J1.587 K0.000 F800.000
G1 X347.624 Y-87.681 Z21.146 F800.000
G2 X349.211 Y-86.094 Z21.146 I1.587 J0.000 K0.000 F800.000
G1 X409.211 Y-86.094 Z21.146 F800.000
G2 X410.799 Y-87.681 Z21.146 I0.000 J-1.587 K0.000 F800.000
G1 X410.799 Y-99.681 Z21.146 F800.000
G2 X409.211 Y-101.268 Z21.146 I-1.588 J0.000 K0.000 F800.000
G1 X407.532 Y-101.268 Z21.146 F800.000
G2 X406.705 Y-101.036 Z21.146 I0.000 J1.588 K0.000 F800.000
G3 X351.718 Y-101.036 Z21.146 I-27.493 J-43.151 K0.000 F800.000
G2 X350.891 Y-101.268 Z21.146 I-0.827 J1.355 K0.000 F800.000
G1 X349.211 Y-101.268 Z21.146 F800.000
G2 X349.178 Y-101.268 Z21.146 I-0.000 J1.587 K0.000 F800.000
G0 Z38.671
G0 X346.714 Z38.671
G0 X346.714 Z35.671
G1 X346.714 Y-101.268 Z21.146 F200.000
G1 X346.714 Y-143.643 Z21.146 F800.000
G2 X345.127 Y-145.231 Z21.146 I-1.587 J-0.000 K0.000 F800.000
G1 X285.127 Y-145.231 Z21.146 F800.000
G2 X283.539 Y-143.643 Z21.146 I-0.000 J1.587 K0.000 F800.000
G1 X283.539 Y-86.390 Z21.146 F800.000
G2 X285.127 Y-84.802 Z21.146 I1.587 J0.000 K0.000 F800.000
G1 X345.127 Y-84.802 Z21.146 F800.000
G2 X346.714 Y-86.390 Z21.146 I0.000 J-1.587 K0.000 F800.000
G1 X346.714 Y-101.268 Z21.146 F800.000
G0 Z38.671
G0 X348.492 Y-104.928 Z38.671
G0 X348.492 Y-104.928 Z35.671
G1 X348.492 Y-104.928 Z21.146 F200.000
G2 X349.186 Y-104.769 Z21.146 I0.694 J-1.428 K0.000 F800.000
G1 X409.186 Y-104.769 Z21.146 F800.000
G2 X410.774 Y-106.356 Z21.146 I0.000 J-1.587 K0.000 F800.000
G1 X410.774 Y-118.356 Z21.146 F800.000
G2 X409.186 Y-119.944 Z21.146 I-1.587 J-0.000 K0.000 F800.000
G1 X407.507 Y-119.944 Z21.146 F800.000
G2 X406.680 Y-119.711 Z21.146 I-0.000 J1.587 K0.000 F800.000
G3 X351.693 Y-119.711 Z21.146 I-27.493 J-43.151 K0.000 F800.000
G2 X350.866 Y-119.944 Z21.146 I-0.827 J1.355 K0.000 F800.000
G1 X349.186 Y-119.944 Z21.146 F800.000
G2 X347.599 Y-118.356 Z21.146 I-0.000 J1.587 K0.000 F800.000
G1 X347.599 Y-106.356 Z21.146 F800.000
G2 X348.492 Y-104.928 Z21.146 I1.587 J0.000 K0.000 F800.000
G0 Z38.671
G0 X348.989 Y-123.545 Z38.671
G0 X348.989 Y-123.545 Z35.671
G1 X348.989 Y-123.545 Z21.146 F200.000
G2 X349.031 Y-123.545 Z21.146 I0.042 J-1.587 K0.000 F800.000
G1 X409.031 Y-123.545 Z21.146 F800.000
G2 X410.619 Y-125.132 Z21.146 I0.000 J-1.587 K0.000 F800.000
G1 X410.619 Y-137.132 Z21.146 F800.000
G2 X409.031 Y-138.719 Z21.146 I-1.587 J-0.000 K0.000 F800.000
G1 X407.352 Y-138.719 Z21.146 F800.000
G2 X406.525 Y-138.487 Z21.146 I0.000 J1.588 K0.000 F800.000
G3 X351.538 Y-138.487 Z21.146 I-27.493 J-43.151 K0.000 F800.000
G2 X350.711 Y-138.719 Z21.146 I-0.827 J1.355 K0.000 F800.000
G1 X349.031 Y-138.719 Z21.146 F800.000
G2 X347.444 Y-137.132 Z21.146 I-0.000 J1.587 K0.000 F800.000
G1 X347.444 Y-125.132 Z21.146 F800.000
G2 X348.989 Y-123.545 Z21.146 I1.587 J0.000 K0.000 F800.000
G0 Z38.671
G0 X281.050 Z38.671
G0 X281.050 Z35.671
G1 X281.050 Y-123.545 Z21.146 F200.000
G1 X281.050 Y-143.190 Z21.146 F800.000
G2 X279.462 Y-144.777 Z21.146 I-1.587 J-0.000 K0.000 F800.000
G1 X219.462 Y-144.777 Z21.146 F800.000
G2 X217.875 Y-143.190 Z21.146 I-0.000 J1.587 K0.000 F800.000
G1 X217.875 Y-85.936 Z21.146 F800.000
G2 X219.462 Y-84.349 Z21.146 I1.587 J0.000 K0.000 F800.000
G1 X279.462 Y-84.349 Z21.146 F800.000
G2 X281.050 Y-85.936 Z21.146 I0.000 J-1.587 K0.000 F800.000
G1 X281.050 Y-123.545 Z21.146 F800.000
G1 X281.050 Y-123.545 Z17.971 F200.000
G1 X281.050 Y-143.190 Z17.971 F800.000
G2 X279.462 Y-144.777 Z17.971 I-1.587 J-0.000 K0.000 F800.000
G1 X219.462 Y-144.777 Z17.971 F800.000
G2 X217.875 Y-143.190 Z17.971 I-0.000 J1.587 K0.000 F800.000
G1 X217.875 Y-85.936 Z17.971 F800.000
G2 X219.462 Y-84.349 Z17.971 I1.587 J0.000 K0.000 F800.000
G1 X279.462 Y-84.349 Z17.971 F800.000
G2 X281.050 Y-85.936 Z17.971 I0.000 J-1.587 K0.000 F800.000
G1 X281.050 Y-123.545 Z17.971 F800.000
G0 Z38.671
G0 X283.539 Z38.671
G0 X283.539 Z35.671
G1 X283.539 Y-123.545 Z17.971 F200.000
G1 X283.539 Y-86.390 Z17.971 F800.000
G2 X285.127 Y-84.802 Z17.971 I1.587 J0.000 K0.000 F800.000
G1 X345.127 Y-84.802 Z17.971 F800.000
G2 X346.714 Y-86.390 Z17.971 I0.000 J-1.587 K0.000 F800.000
G1 X346.714 Y-143.643 Z17.971 F800.000
G2 X345.127 Y-145.231 Z17.971 I-1.587 J-0.000 K0.000 F800.000
G1 X285.127 Y-145.231 Z17.971 F800.000
G2 X283.539 Y-143.643 Z17.971 I-0.000 J1.587 K0.000 F800.000
G1 X283.539 Y-123.545 Z17.971 F800.000
G0 Z38.671
G0 X347.444 Y-125.094 Z38.671
G0 X347.444 Y-125.094 Z35.671
G1 X347.444 Y-125.094 Z17.971 F200.000
G2 X349.031 Y-123.545 Z17.971 I1.587 J-0.038 K0.000 F800.000
G1 X409.031 Y-123.545 Z17.971 F800.000
G2 X410.619 Y-125.132 Z17.971 I0.000 J-1.587 K0.000 F800.000
G1 X410.619 Y-137.132 Z17.971 F800.000
G2 X409.031 Y-138.719 Z17.971 I-1.587 J-0.000 K0.000 F800.000
G1 X407.352 Y-138.719 Z17.971 F800.000
G2 X406.525 Y-138.487 Z17.971 I0.000 J1.588 K0.000 F800.000
G3 X351.538 Y-138.487 Z17.971 I-27.493 J-43.151 K0.000 F800.000
G2 X350.711 Y-138.719 Z17.971 I-0.827 J1.355 K0.000 F800.000
G1 X349.031 Y-138.719 Z17.971 F800.000
G2 X347.444 Y-137.132 Z17.971 I-0.000 J1.587 K0.000 F800.000
G1 X347.444 Y-125.132 Z17.971 F800.000
G2 X347.444 Y-125.094 Z17.971 I1.587 J0.000 K0.000 F800.000
G0 Z38.671
G0 X348.789 Y-119.893 Z38.671
G0 X348.789 Y-119.893 Z35.671
G1 X348.789 Y-119.893 Z17.971 F200.000
G2 X347.599 Y-118.356 Z17.971 I0.397 J1.537 K0.000 F800.000
G1 X347.599 Y-106.356 Z17.971 F800.000
G2 X349.186 Y-104.769 Z17.971 I1.587 J0.000 K0.000 F800.000
G1 X409.186 Y-104.769 Z17.971 F800.000
G2 X410.774 Y-106.356 Z17.971 I0.000 J-1.587 K0.000 F800.000
G1 X410.774 Y-118.356 Z17.971 F800.000
G2 X409.186 Y-119.944 Z17.971 I-1.587 J-0.000 K0.000 F800.000
G1 X407.507 Y-119.944 Z17.971 F800.000
G2 X406.680 Y-119.711 Z17.971 I-0.000 J1.587 K0.000 F800.000
G3 X351.693 Y-119.711 Z17.971 I-27.493 J-43.151 K0.000 F800.000
G2 X350.866 Y-119.944 Z17.971 I-0.827 J1.355 K0.000 F800.000
G1 X349.186 Y-119.944 Z17.971 F800.000
G2 X348.789 Y-119.893 Z17.971 I-0.000 J1.587 K0.000 F800.000
G0 Z38.671
G0 X349.178 Y-101.268 Z38.671
G0 X349.178 Y-101.268 Z35.671
G1 X349.178 Y-101.268 Z17.971 F200.000
G2 X347.624 Y-99.681 Z17.971 I0.033 J1.587 K0.000 F800.000
G1 X347.624 Y-87.681 Z17.971 F800.000
G2 X349.211 Y-86.094 Z17.971 I1.587 J0.000 K0.000 F800.000
G1 X409.211 Y-86.094 Z17.971 F800.000
G2 X410.799 Y-87.681 Z17.971 I0.000 J-1.587 K0.000 F800.000
G1 X410.799 Y-99.681 Z17.971 F800.000
G2 X409.211 Y-101.268 Z17.971 I-1.588 J0.000 K0.000 F800.000
G1 X407.532 Y-101.268 Z17.971 F800.000
G2 X406.705 Y-101.036 Z17.971 I0.000 J1.588 K0.000 F800.000
G3 X351.718 Y-101.036 Z17.971 I-27.493 J-43.151 K0.000 F800.000
G2 X350.891 Y-101.268 Z17.971 I-0.827 J1.355 K0.000 F800.000
G1 X349.211 Y-101.268 Z17.971 F800.000
G2 X349.178 Y-101.268 Z17.971 I-0.000 J1.587 K0.000 F800.000
G1 X349.178 Y-101.268 Z14.796 F200.000
G2 X347.624 Y-99.681 Z14.796 I0.033 J1.587 K0.000 F800.000
G1 X347.624 Y-87.681 Z14.796 F800.000
G2 X349.211 Y-86.094 Z14.796 I1.587 J0.000 K0.000 F800.000
G1 X409.211 Y-86.094 Z14.796 F800.000
G2 X410.799 Y-87.681 Z14.796 I0.000 J-1.587 K0.000 F800.000
G1 X410.799 Y-99.681 Z14.796 F800.000
G2 X409.211 Y-101.268 Z14.796 I-1.588 J0.000 K0.000 F800.000
G1 X407.532 Y-101.268 Z14.796 F800.000
G2 X406.705 Y-101.036 Z14.796 I0.000 J1.588 K0.000 F800.000
G3 X351.718 Y-101.036 Z14.796 I-27.493 J-43.151 K0.000 F800.000
G2 X350.891 Y-101.268 Z14.796 I-0.827 J1.355 K0.000 F800.000
G1 X349.211 Y-101.268 Z14.796 F800.000
G2 X349.178 Y-101.268 Z14.796 I-0.000 J1.587 K0.000 F800.000
G0 Z38.671
G0 X346.714 Z38.671
G0 X346.714 Z35.671
G1 X346.714 Y-101.268 Z14.796 F200.000
G1 X346.714 Y-143.643 Z14.796 F800.000
G2 X345.127 Y-145.231 Z14.796 I-1.587 J-0.000 K0.000 F800.000
G1 X285.127 Y-145.231 Z14.796 F800.000
G2 X283.539 Y-143.643 Z14.796 I-0.000 J1.587 K0.000 F800.000
G1 X283.539 Y-86.390 Z14.796 F800.000
G2 X285.127 Y-84.802 Z14.796 I1.587 J0.000 K0.000 F800.000
G1 X345.127 Y-84.802 Z14.796 F800.000
G2 X346.714 Y-86.390 Z14.796 I0.000 J-1.587 K0.000 F800.000
G1 X346.714 Y-101.268 Z14.796 F800.000
G0 Z38.671
G0 X348.492 Y-104.928 Z38.671
G0 X348.492 Y-104.928 Z35.671
G1 X348.492 Y-104.928 Z14.796 F200.000
G2 X349.186 Y-104.769 Z14.796 I0.694 J-1.428 K0.000 F800.000
G1 X409.186 Y-104.769 Z14.796 F800.000
G2 X410.774 Y-106.356 Z14.796 I0.000 J-1.587 K0.000 F800.000
G1 X410.774 Y-118.356 Z14.796 F800.000
G2 X409.186 Y-119.944 Z14.796 I-1.587 J-0.000 K0.000 F800.000
G1 X407.507 Y-119.944 Z14.796 F800.000
G2 X406.680 Y-119.711 Z14.796 I-0.000 J1.587 K0.000 F800.000
G3 X351.693 Y-119.711 Z14.796 I-27.493 J-43.151 K0.000 F800.000
G2 X350.866 Y-119.944 Z14.796 I-0.827 J1.355 K0.000 F800.000
G1 X349.186 Y-119.944 Z14.796 F800.000
G2 X347.599 Y-118.356 Z14.796 I-0.000 J1.587 K0.000 F800.000
G1 X347.599 Y-106.356 Z14.796 F800.000
G2 X348.492 Y-104.928 Z14.796 I1.587 J0.000 K0.000 F800.000
G0 Z38.671
G0 X348.989 Y-123.545 Z38.671
G0 X348.989 Y-123.545 Z35.671
G1 X348.989 Y-123.545 Z14.796 F200.000
G2 X349.031 Y-123.545 Z14.796 I0.042 J-1.587 K0.000 F800.000
G1 X409.031 Y-123.545 Z14.796 F800.000
G2 X410.619 Y-125.132 Z14.796 I0.000 J-1.587 K0.000 F800.000
G1 X410.619 Y-137.132 Z14.796 F800.000
G2 X409.031 Y-138.719 Z14.796 I-1.587 J-0.000 K0.000 F800.000
G1 X407.352 Y-138.719 Z14.796 F800.000
G2 X406.525 Y-138.487 Z14.796 I0.000 J1.588 K0.000 F800.000
G3 X351.538 Y-138.487 Z14.796 I-27.493 J-43.151 K0.000 F800.000
G2 X350.711 Y-138.719 Z14.796 I-0.827 J1.355 K0.000 F800.000
G1 X349.031 Y-138.719 Z14.796 F800.000
G2 X347.444 Y-137.132 Z14.796 I-0.000 J1.587 K0.000 F800.000
G1 X347.444 Y-125.132 Z14.796 F800.000
G2 X348.989 Y-123.545 Z14.796 I1.587 J0.000 K0.000 F800.000
G0 Z38.671
G0 X281.050 Z38.671
G0 X281.050 Z35.671
G1 X281.050 Y-123.545 Z14.796 F200.000
G1 X281.050 Y-143.190 Z14.796 F800.000
G2 X279.462 Y-144.777 Z14.796 I-1.587 J-0.000 K0.000 F800.000
G1 X219.462 Y-144.777 Z14.796 F800.000
G2 X217.875 Y-143.190 Z14.796 I-0.000 J1.587 K0.000 F800.000
G1 X217.875 Y-85.936 Z14.796 F800.000
G2 X219.462 Y-84.349 Z14.796 I1.587 J0.000 K0.000 F800.000
G1 X279.462 Y-84.349 Z14.796 F800.000
G2 X281.050 Y-85.936 Z14.796 I0.000 J-1.587 K0.000 F800.000
G1 X281.050 Y-123.545 Z14.796 F800.000
G1 X281.050 Y-123.545 Z11.621 F200.000
G1 X281.050 Y-143.190 Z11.621 F800.000
G2 X279.462 Y-144.777 Z11.621 I-1.587 J-0.000 K0.000 F800.000
G1 X219.462 Y-144.777 Z11.621 F800.000
G2 X217.875 Y-143.190 Z11.621 I-0.000 J1.587 K0.000 F800.000
G1 X217.875 Y-85.936 Z11.621 F800.000
G2 X219.462 Y-84.349 Z11.621 I1.587 J0.000 K0.000 F800.000
G1 X279.462 Y-84.349 Z11.621 F800.000
G2 X281.050 Y-85.936 Z11.621 I0.000 J-1.587 K0.000 F800.000
G1 X281.050 Y-123.545 Z11.621 F800.000
G0 Z38.671
G0 X283.539 Z38.671
G0 X283.539 Z35.671
G1 X283.539 Y-123.545 Z11.621 F200.000
G1 X283.539 Y-86.390 Z11.621 F800.000
G2 X285.127 Y-84.802 Z11.621 I1.587 J0.000 K0.000 F800.000
G1 X345.127 Y-84.802 Z11.621 F800.000
G2 X346.714 Y-86.390 Z11.621 I0.000 J-1.587 K0.000 F800.000
G1 X346.714 Y-143.643 Z11.621 F800.000
G2 X345.127 Y-145.231 Z11.621 I-1.587 J-0.000 K0.000 F800.000
G1 X285.127 Y-145.231 Z11.621 F800.000
G2 X283.539 Y-143.643 Z11.621 I-0.000 J1.587 K0.000 F800.000
G1 X283.539 Y-123.545 Z11.621 F800.000
G0 Z38.671
G0 X347.444 Y-125.094 Z38.671
G0 X347.444 Y-125.094 Z35.671
G1 X347.444 Y-125.094 Z11.621 F200.000
G2 X349.031 Y-123.545 Z11.621 I1.587 J-0.038 K0.000 F800.000
G1 X409.031 Y-123.545 Z11.621 F800.000
G2 X410.619 Y-125.132 Z11.621 I0.000 J-1.587 K0.000 F800.000
G1 X410.619 Y-137.132 Z11.621 F800.000
G2 X409.031 Y-138.719 Z11.621 I-1.587 J-0.000 K0.000 F800.000
G1 X407.352 Y-138.719 Z11.621 F800.000
G2 X406.525 Y-138.487 Z11.621 I0.000 J1.588 K0.000 F800.000
G3 X351.538 Y-138.487 Z11.621 I-27.493 J-43.151 K0.000 F800.000
G2 X350.711 Y-138.719 Z11.621 I-0.827 J1.355 K0.000 F800.000
G1 X349.031 Y-138.719 Z11.621 F800.000
G2 X347.444 Y-137.132 Z11.621 I-0.000 J1.587 K0.000 F800.000
G1 X347.444 Y-125.132 Z11.621 F800.000
G2 X347.444 Y-125.094 Z11.621 I1.587 J0.000 K0.000 F800.000
G0 Z38.671
G0 X348.789 Y-119.893 Z38.671
G0 X348.789 Y-119.893 Z35.671
G1 X348.789 Y-119.893 Z11.621 F200.000
G2 X347.599 Y-118.356 Z11.621 I0.397 J1.537 K0.000 F800.000
G1 X347.599 Y-106.356 Z11.621 F800.000
G2 X349.186 Y-104.769 Z11.621 I1.587 J0.000 K0.000 F800.000
G1 X409.186 Y-104.769 Z11.621 F800.000
G2 X410.774 Y-106.356 Z11.621 I0.000 J-1.587 K0.000 F800.000
G1 X410.774 Y-118.356 Z11.621 F800.000
G2 X409.186 Y-119.944 Z11.621 I-1.587 J-0.000 K0.000 F800.000
G1 X407.507 Y-119.944 Z11.621 F800.000
G2 X406.680 Y-119.711 Z11.621 I-0.000 J1.587 K0.000 F800.000
G3 X351.693 Y-119.711 Z11.621 I-27.493 J-43.151 K0.000 F800.000
G2 X350.866 Y-119.944 Z11.621 I-0.827 J1.355 K0.000 F800.000
G1 X349.186 Y-119.944 Z11.621 F800.000
G2 X348.789 Y-119.893 Z11.621 I-0.000 J1.587 K0.000 F800.000
G0 Z38.671
G0 X349.178 Y-101.268 Z38.671
G0 X349.178 Y-101.268 Z35.671
G1 X349.178 Y-101.268 Z11.621 F200.000
G2 X347.624 Y-99.681 Z11.621 I0.033 J1.587 K0.000 F800.000
G1 X347.624 Y-87.681 Z11.621 F800.000
G2 X349.211 Y-86.094 Z11.621 I1.587 J0.000 K0.000 F800.000
G1 X409.211 Y-86.094 Z11.621 F800.000
G2 X410.799 Y-87.681 Z11.621 I0.000 J-1.587 K0.000 F800.000
G1 X410.799 Y-99.681 Z11.621 F800.000
G2 X409.211 Y-101.268 Z11.621 I-1.588 J0.000 K0.000 F800.000
G1 X407.532 Y-101.268 Z11.621 F800.000
G2 X406.705 Y-101.036 Z11.621 I0.000 J1.588 K0.000 F800.000
G3 X351.718 Y-101.036 Z11.621 I-27.493 J-43.151 K0.000 F800.000
G2 X350.891 Y-101.268 Z11.621 I-0.827 J1.355 K0.000 F800.000
G1 X349.211 Y-101.268 Z11.621 F800.000
G2 X349.178 Y-101.268 Z11.621 I-0.000 J1.587 K0.000 F800.000
G1 X349.178 Y-101.268 Z8.446 F200.000
G2 X347.624 Y-99.681 Z8.446 I0.033 J1.587 K0.000 F800.000
G1 X347.624 Y-87.681 Z8.446 F800.000
G2 X349.211 Y-86.094 Z8.446 I1.587 J0.000 K0.000 F800.000
G1 X409.211 Y-86.094 Z8.446 F800.000
G2 X410.799 Y-87.681 Z8.446 I0.000 J-1.587 K0.000 F800.000
G1 X410.799 Y-99.681 Z8.446 F800.000
G2 X409.211 Y-101.268 Z8.446 I-1.588 J0.000 K0.000 F800.000
G1 X407.532 Y-101.268 Z8.446 F800.000
G2 X406.705 Y-101.036 Z8.446 I0.000 J1.588 K0.000 F800.000
G3 X351.718 Y-101.036 Z8.446 I-27.493 J-43.151 K0.000 F800.000
G2 X350.891 Y-101.268 Z8.446 I-0.827 J1.355 K0.000 F800.000
G1 X349.211 Y-101.268 Z8.446 F800.000
G2 X349.178 Y-101.268 Z8.446 I-0.000 J1.587 K0.000 F800.000
G0 Z38.671
G0 X346.714 Z38.671
G0 X346.714 Z35.671
G1 X346.714 Y-101.268 Z8.446 F200.000
G1 X346.714 Y-143.643 Z8.446 F800.000
G2 X345.127 Y-145.231 Z8.446 I-1.587 J-0.000 K0.000 F800.000
G1 X285.127 Y-145.231 Z8.446 F800.000
G2 X283.539 Y-143.643 Z8.446 I-0.000 J1.587 K0.000 F800.000
G1 X283.539 Y-86.390 Z8.446 F800.000
G2 X285.127 Y-84.802 Z8.446 I1.587 J0.000 K0.000 F800.000
G1 X345.127 Y-84.802 Z8.446 F800.000
G2 X346.714 Y-86.390 Z8.446 I0.000 J-1.587 K0.000 F800.000
G1 X346.714 Y-101.268 Z8.446 F800.000
G0 Z38.671
G0 X348.492 Y-104.928 Z38.671
G0 X348.492 Y-104.928 Z35.671
G1 X348.492 Y-104.928 Z8.446 F200.000
G2 X349.186 Y-104.769 Z8.446 I0.694 J-1.428 K0.000 F800.000
G1 X409.186 Y-104.769 Z8.446 F800.000
G2 X410.774 Y-106.356 Z8.446 I0.000 J-1.587 K0.000 F800.000
G1 X410.774 Y-118.356 Z8.446 F800.000
G2 X409.186 Y-119.944 Z8.446 I-1.587 J-0.000 K0.000 F800.000
G1 X407.507 Y-119.944 Z8.446 F800.000
G2 X406.680 Y-119.711 Z8.446 I-0.000 J1.587 K0.000 F800.000
G3 X351.693 Y-119.711 Z8.446 I-27.493 J-43.151 K0.000 F800.000
G2 X350.866 Y-119.944 Z8.446 I-0.827 J1.355 K0.000 F800.000
G1 X349.186 Y-119.944 Z8.446 F800.000
G2 X347.599 Y-118.356 Z8.446 I-0.000 J1.587 K0.000 F800.000
G1 X347.599 Y-106.356 Z8.446 F800.000
G2 X348.492 Y-104.928 Z8.446 I1.587 J0.000 K0.000 F800.000
G0 Z38.671
G0 X348.989 Y-123.545 Z38.671
G0 X348.989 Y-123.545 Z35.671
G1 X348.989 Y-123.545 Z8.446 F200.000
G2 X349.031 Y-123.545 Z8.446 I0.042 J-1.587 K0.000 F800.000
G1 X409.031 Y-123.545 Z8.446 F800.000
G2 X410.619 Y-125.132 Z8.446 I0.000 J-1.587 K0.000 F800.000
G1 X410.619 Y-137.132 Z8.446 F800.000
G2 X409.031 Y-138.719 Z8.446 I-1.587 J-0.000 K0.000 F800.000
G1 X407.352 Y-138.719 Z8.446 F800.000
G2 X406.525 Y-138.487 Z8.446 I0.000 J1.588 K0.000 F800.000
G3 X351.538 Y-138.487 Z8.446 I-27.493 J-43.151 K0.000 F800.000
G2 X350.711 Y-138.719 Z8.446 I-0.827 J1.355 K0.000 F800.000
G1 X349.031 Y-138.719 Z8.446 F800.000
G2 X347.444 Y-137.132 Z8.446 I-0.000 J1.587 K0.000 F800.000
G1 X347.444 Y-125.132 Z8.446 F800.000
G2 X348.989 Y-123.545 Z8.446 I1.587 J0.000 K0.000 F800.000
G0 Z38.671
G0 X281.050 Z38.671
G0 X281.050 Z35.671
G1 X281.050 Y-123.545 Z8.446 F200.000
G1 X281.050 Y-143.190 Z8.446 F800.000
G2 X279.462 Y-144.777 Z8.446 I-1.587 J-0.000 K0.000 F800.000
G1 X219.462 Y-144.777 Z8.446 F800.000
G2 X217.875 Y-143.190 Z8.446 I-0.000 J1.587 K0.000 F800.000
G1 X217.875 Y-85.936 Z8.446 F800.000
G2 X219.462 Y-84.349 Z8.446 I1.587 J0.000 K0.000 F800.000
G1 X279.462 Y-84.349 Z8.446 F800.000
G2 X281.050 Y-85.936 Z8.446 I0.000 J-1.587 K0.000 F800.000
G1 X281.050 Y-123.545 Z8.446 F800.000
G1 X281.050 Y-123.545 Z5.271 F200.000
G1 X281.050 Y-143.190 Z5.271 F800.000
G2 X279.462 Y-144.777 Z5.271 I-1.587 J-0.000 K0.000 F800.000
G1 X219.462 Y-144.777 Z5.271 F800.000
G2 X217.875 Y-143.190 Z5.271 I-0.000 J1.587 K0.000 F800.000
G1 X217.875 Y-85.936 Z5.271 F800.000
G2 X219.462 Y-84.349 Z5.271 I1.587 J0.000 K0.000 F800.000
G1 X279.462 Y-84.349 Z5.271 F800.000
G2 X281.050 Y-85.936 Z5.271 I0.000 J-1.587 K0.000 F800.000
G1 X281.050 Y-123.545 Z5.271 F800.000
G0 Z38.671
G0 X283.539 Z38.671
G0 X283.539 Z35.671
G1 X283.539 Y-123.545 Z5.271 F200.000
G1 X283.539 Y-86.390 Z5.271 F800.000
G2 X285.127 Y-84.802 Z5.271 I1.587 J0.000 K0.000 F800.000
G1 X345.127 Y-84.802 Z5.271 F800.000
G2 X346.714 Y-86.390 Z5.271 I0.000 J-1.587 K0.000 F800.000
G1 X346.714 Y-143.643 Z5.271 F800.000
G2 X345.127 Y-145.231 Z5.271 I-1.587 J-0.000 K0.000 F800.000
G1 X285.127 Y-145.231 Z5.271 F800.000
G2 X283.539 Y-143.643 Z5.271 I-0.000 J1.587 K0.000 F800.000
G1 X283.539 Y-123.545 Z5.271 F800.000
G0 Z38.671
G0 X347.444 Y-125.094 Z38.671
G0 X347.444 Y-125.094 Z35.671
G1 X347.444 Y-125.094 Z5.271 F200.000
G2 X349.031 Y-123.545 Z5.271 I1.587 J-0.038 K0.000 F800.000
G1 X409.031 Y-123.545 Z5.271 F800.000
G2 X410.619 Y-125.132 Z5.271 I0.000 J-1.587 K0.000 F800.000
G1 X410.619 Y-137.132 Z5.271 F800.000
G2 X409.031 Y-138.719 Z5.271 I-1.587 J-0.000 K0.000 F800.000
G1 X407.352 Y-138.719 Z5.271 F800.000
G2 X406.525 Y-138.487 Z5.271 I0.000 J1.588 K0.000 F800.000
G3 X351.538 Y-138.487 Z5.271 I-27.493 J-43.151 K0.000 F800.000
G2 X350.711 Y-138.719 Z5.271 I-0.827 J1.355 K0.000 F800.000
G1 X349.031 Y-138.719 Z5.271 F800.000
G2 X347.444 Y-137.132 Z5.271 I-0.000 J1.587 K0.000 F800.000
G1 X347.444 Y-125.132 Z5.271 F800.000
G2 X347.444 Y-125.094 Z5.271 I1.587 J0.000 K0.000 F800.000
G0 Z38.671
G0 X348.789 Y-119.893 Z38.671
G0 X348.789 Y-119.893 Z35.671
G1 X348.789 Y-119.893 Z5.271 F200.000
G2 X347.599 Y-118.356 Z5.271 I0.397 J1.537 K0.000 F800.000
G1 X347.599 Y-106.356 Z5.271 F800.000
G2 X349.186 Y-104.769 Z5.271 I1.587 J0.000 K0.000 F800.000
G1 X409.186 Y-104.769 Z5.271 F800.000
G2 X410.774 Y-106.356 Z5.271 I0.000 J-1.587 K0.000 F800.000
G1 X410.774 Y-118.356 Z5.271 F800.000
G2 X409.186 Y-119.944 Z5.271 I-1.587 J-0.000 K0.000 F800.000
G1 X407.507 Y-119.944 Z5.271 F800.000
G2 X406.680 Y-119.711 Z5.271 I-0.000 J1.587 K0.000 F800.000
G3 X351.693 Y-119.711 Z5.271 I-27.493 J-43.151 K0.000 F800.000
G2 X350.866 Y-119.944 Z5.271 I-0.827 J1.355 K0.000 F800.000
G1 X349.186 Y-119.944 Z5.271 F800.000
G2 X348.789 Y-119.893 Z5.271 I-0.000 J1.587 K0.000 F800.000
G0 Z38.671
G0 X349.178 Y-101.268 Z38.671
G0 X349.178 Y-101.268 Z35.671
G1 X349.178 Y-101.268 Z5.271 F200.000
G2 X347.624 Y-99.681 Z5.271 I0.033 J1.587 K0.000 F800.000
G1 X347.624 Y-87.681 Z5.271 F800.000
G2 X349.211 Y-86.094 Z5.271 I1.587 J0.000 K0.000 F800.000
G1 X409.211 Y-86.094 Z5.271 F800.000
G2 X410.799 Y-87.681 Z5.271 I0.000 J-1.587 K0.000 F800.000
G1 X410.799 Y-99.681 Z5.271 F800.000
G2 X409.211 Y-101.268 Z5.271 I-1.588 J0.000 K0.000 F800.000
G1 X407.532 Y-101.268 Z5.271 F800.000
G2 X406.705 Y-101.036 Z5.271 I0.000 J1.588 K0.000 F800.000
G3 X351.718 Y-101.036 Z5.271 I-27.493 J-43.151 K0.000 F800.000
G2 X350.891 Y-101.268 Z5.271 I-0.827 J1.355 K0.000 F800.000
G1 X349.211 Y-101.268 Z5.271 F800.000
G2 X349.178 Y-101.268 Z5.271 I-0.000 J1.587 K0.000 F800.000
G1 X349.178 Y-101.268 Z2.096 F200.000
G2 X347.624 Y-99.681 Z2.096 I0.033 J1.587 K0.000 F800.000
G1 X347.624 Y-87.681 Z2.096 F800.000
G2 X349.211 Y-86.094 Z2.096 I1.587 J0.000 K0.000 F800.000
G1 X409.211 Y-86.094 Z2.096 F800.000
G2 X410.799 Y-87.681 Z2.096 I0.000 J-1.587 K0.000 F800.000
G1 X410.799 Y-99.681 Z2.096 F800.000
G2 X409.211 Y-101.268 Z2.096 I-1.588 J0.000 K0.000 F800.000
G1 X407.532 Y-101.268 Z2.096 F800.000
G2 X406.705 Y-101.036 Z2.096 I0.000 J1.588 K0.000 F800.000
G3 X351.718 Y-101.036 Z2.096 I-27.493 J-43.151 K0.000 F800.000
G2 X350.891 Y-101.268 Z2.096 I-0.827 J1.355 K0.000 F800.000
G1 X349.211 Y-101.268 Z2.096 F800.000
G2 X349.178 Y-101.268 Z2.096 I-0.000 J1.587 K0.000 F800.000
G0 Z38.671
G0 X346.714 Z38.671
G0 X346.714 Z35.671
G1 X346.714 Y-101.268 Z2.096 F200.000
G1 X346.714 Y-143.643 Z2.096 F800.000
G2 X345.127 Y-145.231 Z2.096 I-1.587 J-0.000 K0.000 F800.000
G1 X285.127 Y-145.231 Z2.096 F800.000
G2 X283.539 Y-143.643 Z2.096 I-0.000 J1.587 K0.000 F800.000
G1 X283.539 Y-86.390 Z2.096 F800.000
G2 X285.127 Y-84.802 Z2.096 I1.587 J0.000 K0.000 F800.000
G1 X345.127 Y-84.802 Z2.096 F800.000
G2 X346.714 Y-86.390 Z2.096 I0.000 J-1.587 K0.000 F800.000
G1 X346.714 Y-101.268 Z2.096 F800.000
G0 Z38.671
G0 X348.492 Y-104.928 Z38.671
G0 X348.492 Y-104.928 Z35.671
G1 X348.492 Y-104.928 Z2.096 F200.000
G2 X349.186 Y-104.769 Z2.096 I0.694 J-1.428 K0.000 F800.000
G1 X409.186 Y-104.769 Z2.096 F800.000
G2 X410.774 Y-106.356 Z2.096 I0.000 J-1.587 K0.000 F800.000
G1 X410.774 Y-118.356 Z2.096 F800.000
G2 X409.186 Y-119.944 Z2.096 I-1.587 J-0.000 K0.000 F800.000
G1 X407.507 Y-119.944 Z2.096 F800.000
G2 X406.680 Y-119.711 Z2.096 I-0.000 J1.587 K0.000 F800.000
G3 X351.693 Y-119.711 Z2.096 I-27.493 J-43.151 K0.000 F800.000
G2 X350.866 Y-119.944 Z2.096 I-0.827 J1.355 K0.000 F800.000
G1 X349.186 Y-119.944 Z2.096 F800.000
G2 X347.599 Y-118.356 Z2.096 I-0.000 J1.587 K0.000 F800.000
G1 X347.599 Y-106.356 Z2.096 F800.000
G2 X348.492 Y-104.928 Z2.096 I1.587 J0.000 K0.000 F800.000
G0 Z38.671
G0 X348.989 Y-123.545 Z38.671
G0 X348.989 Y-123.545 Z35.671
G1 X348.989 Y-123.545 Z2.096 F200.000
G2 X349.031 Y-123.545 Z2.096 I0.042 J-1.587 K0.000 F800.000
G1 X409.031 Y-123.545 Z2.096 F800.000
G2 X410.619 Y-125.132 Z2.096 I0.000 J-1.587 K0.000 F800.000
G1 X410.619 Y-137.132 Z2.096 F800.000
G2 X409.031 Y-138.719 Z2.096 I-1.587 J-0.000 K0.000 F800.000
G1 X407.352 Y-138.719 Z2.096 F800.000
G2 X406.525 Y-138.487 Z2.096 I0.000 J1.588 K0.000 F800.000
G3 X351.538 Y-138.487 Z2.096 I-27.493 J-43.151 K0.000 F800.000
G2 X350.711 Y-138.719 Z2.096 I-0.827 J1.355 K0.000 F800.000
G1 X349.031 Y-138.719 Z2.096 F800.000
G2 X347.444 Y-137.132 Z2.096 I-0.000 J1.587 K0.000 F800.000
G1 X347.444 Y-125.132 Z2.096 F800.000
G2 X348.989 Y-123.545 Z2.096 I1.587 J0.000 K0.000 F800.000
G0 Z38.671
G0 X281.050 Z38.671
G0 X281.050 Z35.671
G1 X281.050 Y-123.545 Z2.096 F200.000
G1 X281.050 Y-143.190 Z2.096 F800.000
G2 X279.462 Y-144.777 Z2.096 I-1.587 J-0.000 K0.000 F800.000
G1 X219.462 Y-144.777 Z2.096 F800.000
G2 X217.875 Y-143.190 Z2.096 I-0.000 J1.587 K0.000 F800.000
G1 X217.875 Y-85.936 Z2.096 F800.000
G2 X219.462 Y-84.349 Z2.096 I1.587 J0.000 K0.000 F800.000
G1 X279.462 Y-84.349 Z2.096 F800.000
G2 X281.050 Y-85.936 Z2.096 I0.000 J-1.587 K0.000 F800.000
G1 X281.050 Y-123.545 Z2.096 F800.000
G1 X281.050 Y-123.545 Z-1.079 F200.000
G1 X281.050 Y-143.190 Z-1.079 F800.000
G2 X279.462 Y-144.777 Z-1.079 I-1.587 J-0.000 K0.000 F800.000
G1 X219.462 Y-144.777 Z-1.079 F800.000
G2 X217.875 Y-143.190 Z-1.079 I-0.000 J1.587 K0.000 F800.000
G1 X217.875 Y-85.936 Z-1.079 F800.000
G2 X219.462 Y-84.349 Z-1.079 I1.587 J0.000 K0.000 F800.000
G1 X279.462 Y-84.349 Z-1.079 F800.000
G2 X281.050 Y-85.936 Z-1.079 I0.000 J-1.587 K0.000 F800.000
G1 X281.050 Y-123.545 Z-1.079 F800.000
G0 Z38.671
G0 X283.539 Z38.671
G0 X283.539 Z35.671
G1 X283.539 Y-123.545 Z-1.079 F200.000
G1 X283.539 Y-86.390 Z-1.079 F800.000
G2 X285.127 Y-84.802 Z-1.079 I1.587 J0.000 K0.000 F800.000
G1 X345.127 Y-84.802 Z-1.079 F800.000
G2 X346.714 Y-86.390 Z-1.079 I0.000 J-1.587 K0.000 F800.000
G1 X346.714 Y-143.643 Z-1.079 F800.000
G2 X345.127 Y-145.231 Z-1.079 I-1.587 J-0.000 K0.000 F800.000
G1 X285.127 Y-145.231 Z-1.079 F800.000
G2 X283.539 Y-143.643 Z-1.079 I-0.000 J1.587 K0.000 F800.000
G1 X283.539 Y-123.545 Z-1.079 F800.000
G0 Z38.671
G0 X347.444 Y-125.094 Z38.671
G0 X347.444 Y-125.094 Z35.671
G1 X347.444 Y-125.094 Z-1.079 F200.000
G2 X349.031 Y-123.545 Z-1.079 I1.587 J-0.038 K0.000 F800.000
G1 X409.031 Y-123.545 Z-1.079 F800.000
G2 X410.619 Y-125.132 Z-1.079 I0.000 J-1.587 K0.000 F800.000
G1 X410.619 Y-137.132 Z-1.079 F800.000
G2 X409.031 Y-138.719 Z-1.079 I-1.587 J-0.000 K0.000 F800.000
G1 X407.352 Y-138.719 Z-1.079 F800.000
G2 X406.525 Y-138.487 Z-1.079 I0.000 J1.588 K0.000 F800.000
G3 X351.538 Y-138.487 Z-1.079 I-27.493 J-43.151 K0.000 F800.000
G2 X350.711 Y-138.719 Z-1.079 I-0.827 J1.355 K0.000 F800.000
G1 X349.031 Y-138.719 Z-1.079 F800.000
G2 X347.444 Y-137.132 Z-1.079 I-0.000 J1.587 K0.000 F800.000
G1 X347.444 Y-125.132 Z-1.079 F800.000
G2 X347.444 Y-125.094 Z-1.079 I1.587 J0.000 K0.000 F800.000
G0 Z38.671
G0 X348.789 Y-119.893 Z38.671
G0 X348.789 Y-119.893 Z35.671
G1 X348.789 Y-119.893 Z-1.079 F200.000
G2 X347.599 Y-118.356 Z-1.079 I0.397 J1.537 K0.000 F800.000
G1 X347.599 Y-106.356 Z-1.079 F800.000
G2 X349.186 Y-104.769 Z-1.079 I1.587 J0.000 K0.000 F800.000
G1 X409.186 Y-104.769 Z-1.079 F800.000
G2 X410.774 Y-106.356 Z-1.079 I0.000 J-1.587 K0.000 F800.000
G1 X410.774 Y-118.356 Z-1.079 F800.000
G2 X409.186 Y-119.944 Z-1.079 I-1.587 J-0.000 K0.000 F800.000
G1 X407.507 Y-119.944 Z-1.079 F800.000
G2 X406.680 Y-119.711 Z-1.079 I-0.000 J1.587 K0.000 F800.000
G3 X351.693 Y-119.711 Z-1.079 I-27.493 J-43.151 K0.000 F800.000
G2 X350.866 Y-119.944 Z-1.079 I-0.827 J1.355 K0.000 F800.000
G1 X349.186 Y-119.944 Z-1.079 F800.000
G2 X348.789 Y-119.893 Z-1.079 I-0.000 J1.587 K0.000 F800.000
G0 Z38.671
G0 X349.178 Y-101.268 Z38.671
G0 X349.178 Y-101.268 Z35.671
G1 X349.178 Y-101.268 Z-1.079 F200.000
G2 X347.624 Y-99.681 Z-1.079 I0.033 J1.587 K0.000 F800.000
G1 X347.624 Y-87.681 Z-1.079 F800.000
G2 X349.211 Y-86.094 Z-1.079 I1.587 J0.000 K0.000 F800.000
G1 X409.211 Y-86.094 Z-1.079 F800.000
G2 X410.799 Y-87.681 Z-1.079 I0.000 J-1.587 K0.000 F800.000
G1 X410.799 Y-99.681 Z-1.079 F800.000
G2 X409.211 Y-101.268 Z-1.079 I-1.588 J0.000 K0.000 F800.000
G1 X407.532 Y-101.268 Z-1.079 F800.000
G2 X406.705 Y-101.036 Z-1.079 I0.000 J1.588 K0.000 F800.000
G3 X351.718 Y-101.036 Z-1.079 I-27.493 J-43.151 K0.000 F800.000
G2 X350.891 Y-101.268 Z-1.079 I-0.827 J1.355 K0.000 F800.000
G1 X349.211 Y-101.268 Z-1.079 F800.000
G2 X349.178 Y-101.268 Z-1.079 I-0.000 J1.587 K0.000 F800.000
G1 X349.178 Y-101.268 Z-4.254 F200.000
G2 X347.624 Y-99.681 Z-4.254 I0.033 J1.587 K0.000 F800.000
G1 X347.624 Y-87.681 Z-4.254 F800.000
G2 X349.211 Y-86.094 Z-4.254 I1.587 J0.000 K0.000 F800.000
G1 X409.211 Y-86.094 Z-4.254 F800.000
G2 X410.799 Y-87.681 Z-4.254 I0.000 J-1.587 K0.000 F800.000
G1 X410.799 Y-99.681 Z-4.254 F800.000
G2 X409.211 Y-101.268 Z-4.254 I-1.588 J0.000 K0.000 F800.000
G1 X407.532 Y-101.268 Z-4.254 F800.000
G2 X406.705 Y-101.036 Z-4.254 I0.000 J1.588 K0.000 F800.000
G3 X351.718 Y-101.036 Z-4.254 I-27.493 J-43.151 K0.000 F800.000
G2 X350.891 Y-101.268 Z-4.254 I-0.827 J1.355 K0.000 F800.000
G1 X349.211 Y-101.268 Z-4.254 F800.000
G2 X349.178 Y-101.268 Z-4.254 I-0.000 J1.587 K0.000 F800.000
G0 Z38.671
G0 X346.714 Z38.671
G0 X346.714 Z35.671
G1 X346.714 Y-101.268 Z-4.254 F200.000
G1 X346.714 Y-143.643 Z-4.254 F800.000
G2 X345.127 Y-145.231 Z-4.254 I-1.587 J-0.000 K0.000 F800.000
G1 X285.127 Y-145.231 Z-4.254 F800.000
G2 X283.539 Y-143.643 Z-4.254 I-0.000 J1.587 K0.000 F800.000
G1 X283.539 Y-86.390 Z-4.254 F800.000
G2 X285.127 Y-84.802 Z-4.254 I1.587 J0.000 K0.000 F800.000
G1 X345.127 Y-84.802 Z-4.254 F800.000
G2 X346.714 Y-86.390 Z-4.254 I0.000 J-1.587 K0.000 F800.000
G1 X346.714 Y-101.268 Z-4.254 F800.000
G0 Z38.671
G0 X348.492 Y-104.928 Z38.671
G0 X348.492 Y-104.928 Z35.671
G1 X348.492 Y-104.928 Z-4.254 F200.000
G2 X349.186 Y-104.769 Z-4.254 I0.694 J-1.428 K0.000 F800.000
G1 X409.186 Y-104.769 Z-4.254 F800.000
G2 X410.774 Y-106.356 Z-4.254 I0.000 J-1.587 K0.000 F800.000
G1 X410.774 Y-118.356 Z-4.254 F800.000
G2 X409.186 Y-119.944 Z-4.254 I-1.587 J-0.000 K0.000 F800.000
G1 X407.507 Y-119.944 Z-4.254 F800.000
G2 X406.680 Y-119.711 Z-4.254 I-0.000 J1.587 K0.000 F800.000
G3 X351.693 Y-119.711 Z-4.254 I-27.493 J-43.151 K0.000 F800.000
G2 X350.866 Y-119.944 Z-4.254 I-0.827 J1.355 K0.000 F800.000
G1 X349.186 Y-119.944 Z-4.254 F800.000
G2 X347.599 Y-118.356 Z-4.254 I-0.000 J1.587 K0.000 F800.000
G1 X347.599 Y-106.356 Z-4.254 F800.000
G2 X348.492 Y-104.928 Z-4.254 I1.587 J0.000 K0.000 F800.000
G0 Z38.671
G0 X348.989 Y-123.545 Z38.671
G0 X348.989 Y-123.545 Z35.671
G1 X348.989 Y-123.545 Z-4.254 F200.000
G2 X349.031 Y-123.545 Z-4.254 I0.042 J-1.587 K0.000 F800.000
G1 X409.031 Y-123.545 Z-4.254 F800.000
G2 X410.619 Y-125.132 Z-4.254 I0.000 J-1.587 K0.000 F800.000
G1 X410.619 Y-137.132 Z-4.254 F800.000
G2 X409.031 Y-138.719 Z-4.254 I-1.587 J-0.000 K0.000 F800.000
G1 X407.352 Y-138.719 Z-4.254 F800.000
G2 X406.525 Y-138.487 Z-4.254 I0.000 J1.588 K0.000 F800.000
G3 X351.538 Y-138.487 Z-4.254 I-27.493 J-43.151 K0.000 F800.000
G2 X350.711 Y-138.719 Z-4.254 I-0.827 J1.355 K0.000 F800.000
G1 X349.031 Y-138.719 Z-4.254 F800.000
G2 X347.444 Y-137.132 Z-4.254 I-0.000 J1.587 K0.000 F800.000
G1 X347.444 Y-125.132 Z-4.254 F800.000
G2 X348.989 Y-123.545 Z-4.254 I1.587 J0.000 K0.000 F800.000
G0 Z38.671
G0 X281.050 Z38.671
G0 X281.050 Z35.671
G1 X281.050 Y-123.545 Z-4.254 F200.000
G1 X281.050 Y-143.190 Z-4.254 F800.000
G2 X279.462 Y-144.777 Z-4.254 I-1.587 J-0.000 K0.000 F800.000
G1 X219.462 Y-144.777 Z-4.254 F800.000
G2 X217.875 Y-143.190 Z-4.254 I-0.000 J1.587 K0.000 F800.000
G1 X217.875 Y-85.936 Z-4.254 F800.000
G2 X219.462 Y-84.349 Z-4.254 I1.587 J0.000 K0.000 F800.000
G1 X279.462 Y-84.349 Z-4.254 F800.000
G2 X281.050 Y-85.936 Z-4.254 I0.000 J-1.587 K0.000 F800.000
G1 X281.050 Y-123.545 Z-4.254 F800.000
G1 X281.050 Y-123.545 Z-7.429 F200.000
G1 X281.050 Y-143.190 Z-7.429 F800.000
G2 X279.462 Y-144.777 Z-7.429 I-1.587 J-0.000 K0.000 F800.000
G1 X219.462 Y-144.777 Z-7.429 F800.000
G2 X217.875 Y-143.190 Z-7.429 I-0.000 J1.587 K0.000 F800.000
G1 X217.875 Y-85.936 Z-7.429 F800.000
G2 X219.462 Y-84.349 Z-7.429 I1.587 J0.000 K0.000 F800.000
G1 X279.462 Y-84.349 Z-7.429 F800.000
G2 X281.050 Y-85.936 Z-7.429 I0.000 J-1.587 K0.000 F800.000
G1 X281.050 Y-123.545 Z-7.429 F800.000
G0 Z38.671
G0 X283.539 Z38.671
G0 X283.539 Z35.671
G1 X283.539 Y-123.545 Z-7.429 F200.000
G1 X283.539 Y-86.390 Z-7.429 F800.000
G2 X285.127 Y-84.802 Z-7.429 I1.587 J0.000 K0.000 F800.000
G1 X345.127 Y-84.802 Z-7.429 F800.000
G2 X346.714 Y-86.390 Z-7.429 I0.000 J-1.587 K0.000 F800.000
G1 X346.714 Y-143.643 Z-7.429 F800.000
G2 X345.127 Y-145.231 Z-7.429 I-1.587 J-0.000 K0.000 F800.000
G1 X285.127 Y-145.231 Z-7.429 F800.000
G2 X283.539 Y-143.643 Z-7.429 I-0.000 J1.587 K0.000 F800.000
G1 X283.539 Y-123.545 Z-7.429 F800.000
G0 Z38.671
G0 X347.444 Y-125.094 Z38.671
G0 X347.444 Y-125.094 Z35.671
G1 X347.444 Y-125.094 Z-7.429 F200.000
G2 X349.031 Y-123.545 Z-7.429 I1.587 J-0.038 K0.000 F800.000
G1 X409.031 Y-123.545 Z-7.429 F800.000
G2 X410.619 Y-125.132 Z-7.429 I0.000 J-1.587 K0.000 F800.000
G1 X410.619 Y-137.132 Z-7.429 F800.000
G2 X409.031 Y-138.719 Z-7.429 I-1.587 J-0.000 K0.000 F800.000
G1 X407.352 Y-138.719 Z-7.429 F800.000
G2 X406.525 Y-138.487 Z-7.429 I0.000 J1.588 K0.000 F800.000
G3 X351.538 Y-138.487 Z-7.429 I-27.493 J-43.151 K0.000 F800.000
G2 X350.711 Y-138.719 Z-7.429 I-0.827 J1.355 K0.000 F800.000
G1 X349.031 Y-138.719 Z-7.429 F800.000
G2 X347.444 Y-137.132 Z-7.429 I-0.000 J1.587 K0.000 F800.000
G1 X347.444 Y-125.132 Z-7.429 F800.000
G2 X347.444 Y-125.094 Z-7.429 I1.587 J0.000 K0.000 F800.000
G0 Z38.671
G0 X348.789 Y-119.893 Z38.671
G0 X348.789 Y-119.893 Z35.671
G1 X348.789 Y-119.893 Z-7.429 F200.000
G2 X347.599 Y-118.356 Z-7.429 I0.397 J1.537 K0.000 F800.000
G1 X347.599 Y-106.356 Z-7.429 F800.000
G2 X349.186 Y-104.769 Z-7.429 I1.587 J0.000 K0.000 F800.000
G1 X409.186 Y-104.769 Z-7.429 F800.000
G2 X410.774 Y-106.356 Z-7.429 I0.000 J-1.587 K0.000 F800.000
G1 X410.774 Y-118.356 Z-7.429 F800.000
G2 X409.186 Y-119.944 Z-7.429 I-1.587 J-0.000 K0.000 F800.000
G1 X407.507 Y-119.944 Z-7.429 F800.000
G2 X406.680 Y-119.711 Z-7.429 I-0.000 J1.587 K0.000 F800.000
G3 X351.693 Y-119.711 Z-7.429 I-27.493 J-43.151 K0.000 F800.000
G2 X350.866 Y-119.944 Z-7.429 I-0.827 J1.355 K0.000 F800.000
G1 X349.186 Y-119.944 Z-7.429 F800.000
G2 X348.789 Y-119.893 Z-7.429 I-0.000 J1.587 K0.000 F800.000
G0 Z38.671
G0 X349.178 Y-101.268 Z38.671
G0 X349.178 Y-101.268 Z35.671
G1 X349.178 Y-101.268 Z-7.429 F200.000
G2 X347.624 Y-99.681 Z-7.429 I0.033 J1.587 K0.000 F800.000
G1 X347.624 Y-87.681 Z-7.429 F800.000
G2 X349.211 Y-86.094 Z-7.429 I1.587 J0.000 K0.000 F800.000
G1 X409.211 Y-86.094 Z-7.429 F800.000
G2 X410.799 Y-87.681 Z-7.429 I0.000 J-1.587 K0.000 F800.000
G1 X410.799 Y-99.681 Z-7.429 F800.000
G2 X409.211 Y-101.268 Z-7.429 I-1.588 J0.000 K0.000 F800.000
G1 X407.532 Y-101.268 Z-7.429 F800.000
G2 X406.705 Y-101.036 Z-7.429 I0.000 J1.588 K0.000 F800.000
G3 X351.718 Y-101.036 Z-7.429 I-27.493 J-43.151 K0.000 F800.000
G2 X350.891 Y-101.268 Z-7.429 I-0.827 J1.355 K0.000 F800.000
G1 X349.211 Y-101.268 Z-7.429 F800.000
G2 X349.178 Y-101.268 Z-7.429 I-0.000 J1.587 K0.000 F800.000
G1 X349.178 Y-101.268 Z-10.604 F200.000
G2 X347.624 Y-99.681 Z-10.604 I0.033 J1.587 K0.000 F800.000
G1 X347.624 Y-87.681 Z-10.604 F800.000
G2 X349.211 Y-86.094 Z-10.604 I1.587 J0.000 K0.000 F800.000
G1 X409.211 Y-86.094 Z-10.604 F800.000
G2 X410.799 Y-87.681 Z-10.604 I0.000 J-1.587 K0.000 F800.000
G1 X410.799 Y-99.681 Z-10.604 F800.000
G2 X409.211 Y-101.268 Z-10.604 I-1.588 J0.000 K0.000 F800.000
G1 X407.532 Y-101.268 Z-10.604 F800.000
G2 X406.705 Y-101.036 Z-10.604 I0.000 J1.588 K0.000 F800.000
G3 X351.718 Y-101.036 Z-10.604 I-27.493 J-43.151 K0.000 F800.000
G2 X350.891 Y-101.268 Z-10.604 I-0.827 J1.355 K0.000 F800.000
G1 X349.211 Y-101.268 Z-10.604 F800.000
G2 X349.178 Y-101.268 Z-10.604 I-0.000 J1.587 K0.000 F800.000
G0 Z38.671
G0 X346.714 Z38.671
G0 X346.714 Z35.671
G1 X346.714 Y-101.268 Z-10.604 F200.000
G1 X346.714 Y-143.643 Z-10.604 F800.000
G2 X345.127 Y-145.231 Z-10.604 I-1.587 J-0.000 K0.000 F800.000
G1 X285.127 Y-145.231 Z-10.604 F800.000
G2 X283.539 Y-143.643 Z-10.604 I-0.000 J1.587 K0.000 F800.000
G1 X283.539 Y-86.390 Z-10.604 F800.000
G2 X285.127 Y-84.802 Z-10.604 I1.587 J0.000 K0.000 F800.000
G1 X345.127 Y-84.802 Z-10.604 F800.000
G2 X346.714 Y-86.390 Z-10.604 I0.000 J-1.587 K0.000 F800.000
G1 X346.714 Y-101.268 Z-10.604 F800.000
G0 Z38.671
G0 X348.492 Y-104.928 Z38.671
G0 X348.492 Y-104.928 Z35.671
G1 X348.492 Y-104.928 Z-10.604 F200.000
G2 X349.186 Y-104.769 Z-10.604 I0.694 J-1.428 K0.000 F800.000
G1 X409.186 Y-104.769 Z-10.604 F800.000
G2 X410.774 Y-106.356 Z-10.604 I0.000 J-1.587 K0.000 F800.000
G1 X410.774 Y-118.356 Z-10.604 F800.000
G2 X409.186 Y-119.944 Z-10.604 I-1.587 J-0.000 K0.000 F800.000
G1 X407.507 Y-119.944 Z-10.604 F800.000
G2 X406.680 Y-119.711 Z-10.604 I-0.000 J1.587 K0.000 F800.000
G3 X351.693 Y-119.711 Z-10.604 I-27.493 J-43.151 K0.000 F800.000
G2 X350.866 Y-119.944 Z-10.604 I-0.827 J1.355 K0.000 F800.000
G1 X349.186 Y-119.944 Z-10.604 F800.000
G2 X347.599 Y-118.356 Z-10.604 I-0.000 J1.587 K0.000 F800.000
G1 X347.599 Y-106.356 Z-10.604 F800.000
G2 X348.492 Y-104.928 Z-10.604 I1.587 J0.000 K0.000 F800.000
G0 Z38.671
G0 X348.989 Y-123.545 Z38.671
G0 X348.989 Y-123.545 Z35.671
G1 X348.989 Y-123.545 Z-10.604 F200.000
G2 X349.031 Y-123.545 Z-10.604 I0.042 J-1.587 K0.000 F800.000
G1 X409.031 Y-123.545 Z-10.604 F800.000
G2 X410.619 Y-125.132 Z-10.604 I0.000 J-1.587 K0.000 F800.000
G1 X410.619 Y-137.132 Z-10.604 F800.000
G2 X409.031 Y-138.719 Z-10.604 I-1.587 J-0.000 K0.000 F800.000
G1 X407.352 Y-138.719 Z-10.604 F800.000
G2 X406.525 Y-138.487 Z-10.604 I0.000 J1.588 K0.000 F800.000
G3 X351.538 Y-138.487 Z-10.604 I-27.493 J-43.151 K0.000 F800.000
G2 X350.711 Y-138.719 Z-10.604 I-0.827 J1.355 K0.000 F800.000
G1 X349.031 Y-138.719 Z-10.604 F800.000
G2 X347.444 Y-137.132 Z-10.604 I-0.000 J1.587 K0.000 F800.000
G1 X347.444 Y-125.132 Z-10.604 F800.000
G2 X348.989 Y-123.545 Z-10.604 I1.587 J0.000 K0.000 F800.000
G0 Z38.671
G0 X281.050 Z38.671
G0 X281.050 Z35.671
G1 X281.050 Y-123.545 Z-10.604 F200.000
G1 X281.050 Y-143.190 Z-10.604 F800.000
G2 X279.462 Y-144.777 Z-10.604 I-1.587 J-0.000 K0.000 F800.000
G1 X219.462 Y-144.777 Z-10.604 F800.000
G2 X217.875 Y-143.190 Z-10.604 I-0.000 J1.587 K0.000 F800.000
G1 X217.875 Y-85.936 Z-10.604 F800.000
G2 X219.462 Y-84.349 Z-10.604 I1.587 J0.000 K0.000 F800.000
G1 X279.462 Y-84.349 Z-10.604 F800.000
G2 X281.050 Y-85.936 Z-10.604 I0.000 J-1.587 K0.000 F800.000
G1 X281.050 Y-123.545 Z-10.604 F800.000
G1 X281.050 Y-123.545 Z-13.779 F200.000
G1 X281.050 Y-143.190 Z-13.779 F800.000
G2 X279.462 Y-144.777 Z-13.779 I-1.587 J-0.000 K0.000 F800.000
G1 X219.462 Y-144.777 Z-13.779 F800.000
G2 X217.875 Y-143.190 Z-13.779 I-0.000 J1.587 K0.000 F800.000
G1 X217.875 Y-85.936 Z-13.779 F800.000
G2 X219.462 Y-84.349 Z-13.779 I1.587 J0.000 K0.000 F800.000
G1 X279.462 Y-84.349 Z-13.779 F800.000
G2 X281.050 Y-85.936 Z-13.779 I0.000 J-1.587 K0.000 F800.000
G1 X281.050 Y-123.545 Z-13.779 F800.000
G0 Z38.671
G0 X283.539 Z38.671
G0 X283.539 Z35.671
G1 X283.539 Y-123.545 Z-13.779 F200.000
G1 X283.539 Y-86.390 Z-13.779 F800.000
G2 X285.127 Y-84.802 Z-13.779 I1.587 J0.000 K0.000 F800.000
G1 X345.127 Y-84.802 Z-13.779 F800.000
G2 X346.714 Y-86.390 Z-13.779 I0.000 J-1.587 K0.000 F800.000
G1 X346.714 Y-143.643 Z-13.779 F800.000
G2 X345.127 Y-145.231 Z-13.779 I-1.587 J-0.000 K0.000 F800.000
G1 X285.127 Y-145.231 Z-13.779 F800.000
G2 X283.539 Y-143.643 Z-13.779 I-0.000 J1.587 K0.000 F800.000
G1 X283.539 Y-123.545 Z-13.779 F800.000
G0 Z38.671
G0 X347.444 Y-125.094 Z38.671
G0 X347.444 Y-125.094 Z35.671
G1 X347.444 Y-125.094 Z-13.779 F200.000
G2 X349.031 Y-123.545 Z-13.779 I1.587 J-0.038 K0.000 F800.000
G1 X409.031 Y-123.545 Z-13.779 F800.000
G2 X410.619 Y-125.132 Z-13.779 I0.000 J-1.587 K0.000 F800.000
G1 X410.619 Y-137.132 Z-13.779 F800.000
G2 X409.031 Y-138.719 Z-13.779 I-1.587 J-0.000 K0.000 F800.000
G1 X407.352 Y-138.719 Z-13.779 F800.000
G2 X406.525 Y-138.487 Z-13.779 I0.000 J1.588 K0.000 F800.000
G3 X351.538 Y-138.487 Z-13.779 I-27.493 J-43.151 K0.000 F800.000
G2 X350.711 Y-138.719 Z-13.779 I-0.827 J1.355 K0.000 F800.000
G1 X349.031 Y-138.719 Z-13.779 F800.000
G2 X347.444 Y-137.132 Z-13.779 I-0.000 J1.587 K0.000 F800.000
G1 X347.444 Y-125.132 Z-13.779 F800.000
G2 X347.444 Y-125.094 Z-13.779 I1.587 J0.000 K0.000 F800.000
G0 Z38.671
G0 X348.789 Y-119.893 Z38.671
G0 X348.789 Y-119.893 Z35.671
G1 X348.789 Y-119.893 Z-13.779 F200.000
G2 X347.599 Y-118.356 Z-13.779 I0.397 J1.537 K0.000 F800.000
G1 X347.599 Y-106.356 Z-13.779 F800.000
G2 X349.186 Y-104.769 Z-13.779 I1.587 J0.000 K0.000 F800.000
G1 X409.186 Y-104.769 Z-13.779 F800.000
G2 X410.774 Y-106.356 Z-13.779 I0.000 J-1.587 K0.000 F800.000
G1 X410.774 Y-118.356 Z-13.779 F800.000
G2 X409.186 Y-119.944 Z-13.779 I-1.587 J-0.000 K0.000 F800.000
G1 X407.507 Y-119.944 Z-13.779 F800.000
G2 X406.680 Y-119.711 Z-13.779 I-0.000 J1.587 K0.000 F800.000
G3 X351.693 Y-119.711 Z-13.779 I-27.493 J-43.151 K0.000 F800.000
G2 X350.866 Y-119.944 Z-13.779 I-0.827 J1.355 K0.000 F800.000
G1 X349.186 Y-119.944 Z-13.779 F800.000
G2 X348.789 Y-119.893 Z-13.779 I-0.000 J1.587 K0.000 F800.000
G0 Z38.671
G0 X349.178 Y-101.268 Z38.671
G0 X349.178 Y-101.268 Z35.671
G1 X349.178 Y-101.268 Z-13.779 F200.000
G2 X347.624 Y-99.681 Z-13.779 I0.033 J1.587 K0.000 F800.000
G1 X347.624 Y-87.681 Z-13.779 F800.000
G2 X349.211 Y-86.094 Z-13.779 I1.587 J0.000 K0.000 F800.000
G1 X409.211 Y-86.094 Z-13.779 F800.000
G2 X410.799 Y-87.681 Z-13.779 I0.000 J-1.587 K0.000 F800.000
G1 X410.799 Y-99.681 Z-13.779 F800.000
G2 X409.211 Y-101.268 Z-13.779 I-1.588 J0.000 K0.000 F800.000
G1 X407.532 Y-101.268 Z-13.779 F800.000
G2 X406.705 Y-101.036 Z-13.779 I0.000 J1.588 K0.000 F800.000
G3 X351.718 Y-101.036 Z-13.779 I-27.493 J-43.151 K0.000 F800.000
G2 X350.891 Y-101.268 Z-13.779 I-0.827 J1.355 K0.000 F800.000
G1 X349.211 Y-101.268 Z-13.779 F800.000
G2 X349.178 Y-101.268 Z-13.779 I-0.000 J1.587 K0.000 F800.000
G1 X349.178 Y-101.268 Z-16.954 F200.000
G2 X347.624 Y-99.681 Z-16.954 I0.033 J1.587 K0.000 F800.000
G1 X347.624 Y-87.681 Z-16.954 F800.000
G2 X349.211 Y-86.094 Z-16.954 I1.587 J0.000 K0.000 F800.000
G1 X409.211 Y-86.094 Z-16.954 F800.000
G2 X410.799 Y-87.681 Z-16.954 I0.000 J-1.587 K0.000 F800.000
G1 X410.799 Y-99.681 Z-16.954 F800.000
G2 X409.211 Y-101.268 Z-16.954 I-1.588 J0.000 K0.000 F800.000
G1 X407.532 Y-101.268 Z-16.954 F800.000
G2 X406.705 Y-101.036 Z-16.954 I0.000 J1.588 K0.000 F800.000
G3 X351.718 Y-101.036 Z-16.954 I-27.493 J-43.151 K0.000 F800.000
G2 X350.891 Y-101.268 Z-16.954 I-0.827 J1.355 K0.000 F800.000
G1 X349.211 Y-101.268 Z-16.954 F800.000
G2 X349.178 Y-101.268 Z-16.954 I-0.000 J1.587 K0.000 F800.000
G0 Z38.671
G0 X346.714 Z38.671
G0 X346.714 Z35.671
G1 X346.714 Y-101.268 Z-16.954 F200.000
G1 X346.714 Y-143.643 Z-16.954 F800.000
G2 X345.127 Y-145.231 Z-16.954 I-1.587 J-0.000 K0.000 F800.000
G1 X285.127 Y-145.231 Z-16.954 F800.000
G2 X283.539 Y-143.643 Z-16.954 I-0.000 J1.587 K0.000 F800.000
G1 X283.539 Y-86.390 Z-16.954 F800.000
G2 X285.127 Y-84.802 Z-16.954 I1.587 J0.000 K0.000 F800.000
G1 X345.127 Y-84.802 Z-16.954 F800.000
G2 X346.714 Y-86.390 Z-16.954 I0.000 J-1.587 K0.000 F800.000
G1 X346.714 Y-101.268 Z-16.954 F800.000
G0 Z38.671
G0 X348.492 Y-104.928 Z38.671
G0 X348.492 Y-104.928 Z35.671
G1 X348.492 Y-104.928 Z-16.954 F200.000
G2 X349.186 Y-104.769 Z-16.954 I0.694 J-1.428 K0.000 F800.000
G1 X409.186 Y-104.769 Z-16.954 F800.000
G2 X410.774 Y-106.356 Z-16.954 I0.000 J-1.587 K0.000 F800.000
G1 X410.774 Y-118.356 Z-16.954 F800.000
G2 X409.186 Y-119.944 Z-16.954 I-1.587 J-0.000 K0.000 F800.000
G1 X407.507 Y-119.944 Z-16.954 F800.000
G2 X406.680 Y-119.711 Z-16.954 I-0.000 J1.587 K0.000 F800.000
G3 X351.693 Y-119.711 Z-16.954 I-27.493 J-43.151 K0.000 F800.000
G2 X350.866 Y-119.944 Z-16.954 I-0.827 J1.355 K0.000 F800.000
G1 X349.186 Y-119.944 Z-16.954 F800.000
G2 X347.599 Y-118.356 Z-16.954 I-0.000 J1.587 K0.000 F800.000
G1 X347.599 Y-106.356 Z-16.954 F800.000
G2 X348.492 Y-104.928 Z-16.954 I1.587 J0.000 K0.000 F800.000
G0 Z38.671
G0 X348.989 Y-123.545 Z38.671
G0 X348.989 Y-123.545 Z35.671
G1 X348.989 Y-123.545 Z-16.954 F200.000
G2 X349.031 Y-123.545 Z-16.954 I0.042 J-1.587 K0.000 F800.000
G1 X409.031 Y-123.545 Z-16.954 F800.000
G2 X410.619 Y-125.132 Z-16.954 I0.000 J-1.587 K0.000 F800.000
G1 X410.619 Y-137.132 Z-16.954 F800.000
G2 X409.031 Y-138.719 Z-16.954 I-1.587 J-0.000 K0.000 F800.000
G1 X407.352 Y-138.719 Z-16.954 F800.000
G2 X406.525 Y-138.487 Z-16.954 I0.000 J1.588 K0.000 F800.000
G3 X351.538 Y-138.487 Z-16.954 I-27.493 J-43.151 K0.000 F800.000
G2 X350.711 Y-138.719 Z-16.954 I-0.827 J1.355 K0.000 F800.000
G1 X349.031 Y-138.719 Z-16.954 F800.000
G2 X347.444 Y-137.132 Z-16.954 I-0.000 J1.587 K0.000 F800.000
G1 X347.444 Y-125.132 Z-16.954 F800.000
G2 X348.989 Y-123.545 Z-16.954 I1.587 J0.000 K0.000 F800.000
G0 Z38.671
G0 X281.050 Z38.671
G0 X281.050 Z35.671
G1 X281.050 Y-123.545 Z-16.954 F200.000
G1 X281.050 Y-143.190 Z-16.954 F800.000
G2 X279.462 Y-144.777 Z-16.954 I-1.587 J-0.000 K0.000 F800.000
G1 X219.462 Y-144.777 Z-16.954 F800.000
G2 X217.875 Y-143.190 Z-16.954 I-0.000 J1.587 K0.000 F800.000
G1 X217.875 Y-85.936 Z-16.954 F800.000
G2 X219.462 Y-84.349 Z-16.954 I1.587 J0.000 K0.000 F800.000
G1 X279.462 Y-84.349 Z-16.954 F800.000
G2 X281.050 Y-85.936 Z-16.954 I0.000 J-1.587 K0.000 F800.000
G1 X281.050 Y-123.545 Z-16.954 F800.000
G1 X281.050 Y-123.545 Z-20.129 F200.000
G1 X281.050 Y-143.190 Z-20.129 F800.000
G2 X279.462 Y-144.777 Z-20.129 I-1.587 J-0.000 K0.000 F800.000
G1 X219.462 Y-144.777 Z-20.129 F800.000
G2 X217.875 Y-143.190 Z-20.129 I-0.000 J1.587 K0.000 F800.000
G1 X217.875 Y-85.936 Z-20.129 F800.000
G2 X219.462 Y-84.349 Z-20.129 I1.587 J0.000 K0.000 F800.000
G1 X279.462 Y-84.349 Z-20.129 F800.000
G2 X281.050 Y-85.936 Z-20.129 I0.000 J-1.587 K0.000 F800.000
G1 X281.050 Y-123.545 Z-20.129 F800.000
G0 Z38.671
G0 X283.539 Z38.671
G0 X283.539 Z35.671
G1 X283.539 Y-123.545 Z-20.129 F200.000
G1 X283.539 Y-86.390 Z-20.129 F800.000
G2 X285.127 Y-84.802 Z-20.129 I1.587 J0.000 K0.000 F800.000
G1 X345.127 Y-84.802 Z-20.129 F800.000
G2 X346.714 Y-86.390 Z-20.129 I0.000 J-1.587 K0.000 F800.000
G1 X346.714 Y-143.643 Z-20.129 F800.000
G2 X345.127 Y-145.231 Z-20.129 I-1.587 J-0.000 K0.000 F800.000
G1 X285.127 Y-145.231 Z-20.129 F800.000
G2 X283.539 Y-143.643 Z-20.129 I-0.000 J1.587 K0.000 F800.000
G1 X283.539 Y-123.545 Z-20.129 F800.000
G0 Z38.671
G0 X347.444 Y-125.094 Z38.671
G0 X347.444 Y-125.094 Z35.671
G1 X347.444 Y-125.094 Z-20.129 F200.000
G2 X349.031 Y-123.545 Z-20.129 I1.587 J-0.038 K0.000 F800.000
G1 X409.031 Y-123.545 Z-20.129 F800.000
G2 X410.619 Y-125.132 Z-20.129 I0.000 J-1.587 K0.000 F800.000
G1 X410.619 Y-137.132 Z-20.129 F800.000
G2 X409.031 Y-138.719 Z-20.129 I-1.587 J-0.000 K0.000 F800.000
G1 X407.352 Y-138.719 Z-20.129 F800.000
G2 X406.525 Y-138.487 Z-20.129 I0.000 J1.588 K0.000 F800.000
G3 X351.538 Y-138.487 Z-20.129 I-27.493 J-43.151 K0.000 F800.000
G2 X350.711 Y-138.719 Z-20.129 I-0.827 J1.355 K0.000 F800.000
G1 X349.031 Y-138.719 Z-20.129 F800.000
G2 X347.444 Y-137.132 Z-20.129 I-0.000 J1.587 K0.000 F800.000
G1 X347.444 Y-125.132 Z-20.129 F800.000
G2 X347.444 Y-125.094 Z-20.129 I1.587 J0.000 K0.000 F800.000
G0 Z38.671
G0 X348.789 Y-119.893 Z38.671
G0 X348.789 Y-119.893 Z35.671
G1 X348.789 Y-119.893 Z-20.129 F200.000
G2 X347.599 Y-118.356 Z-20.129 I0.397 J1.537 K0.000 F800.000
G1 X347.599 Y-106.356 Z-20.129 F800.000
G2 X349.186 Y-104.769 Z-20.129 I1.587 J0.000 K0.000 F800.000
G1 X409.186 Y-104.769 Z-20.129 F800.000
G2 X410.774 Y-106.356 Z-20.129 I0.000 J-1.587 K0.000 F800.000
G1 X410.774 Y-118.356 Z-20.129 F800.000
G2 X409.186 Y-119.944 Z-20.129 I-1.587 J-0.000 K0.000 F800.000
G1 X407.507 Y-119.944 Z-20.129 F800.000
G2 X406.680 Y-119.711 Z-20.129 I-0.000 J1.587 K0.000 F800.000
G3 X351.693 Y-119.711 Z-20.129 I-27.493 J-43.151 K0.000 F800.000
G2 X350.866 Y-119.944 Z-20.129 I-0.827 J1.355 K0.000 F800.000
G1 X349.186 Y-119.944 Z-20.129 F800.000
G2 X348.789 Y-119.893 Z-20.129 I-0.000 J1.587 K0.000 F800.000
G0 Z38.671
G0 X349.178 Y-101.268 Z38.671
G0 X349.178 Y-101.268 Z35.671
G1 X349.178 Y-101.268 Z-20.129 F200.000
G2 X347.624 Y-99.681 Z-20.129 I0.033 J1.587 K0.000 F800.000
G1 X347.624 Y-87.681 Z-20.129 F800.000
G2 X349.211 Y-86.094 Z-20.129 I1.587 J0.000 K0.000 F800.000
G1 X409.211 Y-86.094 Z-20.129 F800.000
G2 X410.799 Y-87.681 Z-20.129 I0.000 J-1.587 K0.000 F800.000
G1 X410.799 Y-99.681 Z-20.129 F800.000
G2 X409.211 Y-101.268 Z-20.129 I-1.588 J0.000 K0.000 F800.000
G1 X407.532 Y-101.268 Z-20.129 F800.000
G2 X406.705 Y-101.036 Z-20.129 I0.000 J1.588 K0.000 F800.000
G3 X351.718 Y-101.036 Z-20.129 I-27.493 J-43.151 K0.000 F800.000
G2 X350.891 Y-101.268 Z-20.129 I-0.827 J1.355 K0.000 F800.000
G1 X349.211 Y-101.268 Z-20.129 F800.000
G2 X349.178 Y-101.268 Z-20.129 I-0.000 J1.587 K0.000 F800.000
G1 X349.178 Y-101.268 Z-23.304 F200.000
G2 X347.624 Y-99.681 Z-23.304 I0.033 J1.587 K0.000 F800.000
G1 X347.624 Y-87.681 Z-23.304 F800.000
G2 X349.211 Y-86.094 Z-23.304 I1.587 J0.000 K0.000 F800.000
G1 X409.211 Y-86.094 Z-23.304 F800.000
G2 X410.799 Y-87.681 Z-23.304 I0.000 J-1.587 K0.000 F800.000
G1 X410.799 Y-99.681 Z-23.304 F800.000
G2 X409.211 Y-101.268 Z-23.304 I-1.588 J0.000 K0.000 F800.000
G1 X407.532 Y-101.268 Z-23.304 F800.000
G2 X406.705 Y-101.036 Z-23.304 I0.000 J1.588 K0.000 F800.000
G3 X351.718 Y-101.036 Z-23.304 I-27.493 J-43.151 K0.000 F800.000
G2 X350.891 Y-101.268 Z-23.304 I-0.827 J1.355 K0.000 F800.000
G1 X349.211 Y-101.268 Z-23.304 F800.000
G2 X349.178 Y-101.268 Z-23.304 I-0.000 J1.587 K0.000 F800.000
G0 Z38.671
G0 X346.714 Z38.671
G0 X346.714 Z35.671
G1 X346.714 Y-101.268 Z-23.304 F200.000
G1 X346.714 Y-143.643 Z-23.304 F800.000
G2 X345.127 Y-145.231 Z-23.304 I-1.587 J-0.000 K0.000 F800.000
G1 X285.127 Y-145.231 Z-23.304 F800.000
G2 X283.539 Y-143.643 Z-23.304 I-0.000 J1.587 K0.000 F800.000
G1 X283.539 Y-86.390 Z-23.304 F800.000
G2 X285.127 Y-84.802 Z-23.304 I1.587 J0.000 K0.000 F800.000
G1 X345.127 Y-84.802 Z-23.304 F800.000
G2 X346.714 Y-86.390 Z-23.304 I0.000 J-1.587 K0.000 F800.000
G1 X346.714 Y-101.268 Z-23.304 F800.000
G0 Z38.671
G0 X348.492 Y-104.928 Z38.671
G0 X348.492 Y-104.928 Z35.671
G1 X348.492 Y-104.928 Z-23.304 F200.000
G2 X349.186 Y-104.769 Z-23.304 I0.694 J-1.428 K0.000 F800.000
G1 X409.186 Y-104.769 Z-23.304 F800.000
G2 X410.774 Y-106.356 Z-23.304 I0.000 J-1.587 K0.000 F800.000
G1 X410.774 Y-118.356 Z-23.304 F800.000
G2 X409.186 Y-119.944 Z-23.304 I-1.587 J-0.000 K0.000 F800.000
G1 X407.507 Y-119.944 Z-23.304 F800.000
G2 X406.680 Y-119.711 Z-23.304 I-0.000 J1.587 K0.000 F800.000
G3 X351.693 Y-119.711 Z-23.304 I-27.493 J-43.151 K0.000 F800.000
G2 X350.866 Y-119.944 Z-23.304 I-0.827 J1.355 K0.000 F800.000
G1 X349.186 Y-119.944 Z-23.304 F800.000
G2 X347.599 Y-118.356 Z-23.304 I-0.000 J1.587 K0.000 F800.000
G1 X347.599 Y-106.356 Z-23.304 F800.000
G2 X348.492 Y-104.928 Z-23.304 I1.587 J0.000 K0.000 F800.000
G0 Z38.671
G0 X348.989 Y-123.545 Z38.671
G0 X348.989 Y-123.545 Z35.671
G1 X348.989 Y-123.545 Z-23.304 F200.000
G2 X349.031 Y-123.545 Z-23.304 I0.042 J-1.587 K0.000 F800.000
G1 X409.031 Y-123.545 Z-23.304 F800.000
G2 X410.619 Y-125.132 Z-23.304 I0.000 J-1.587 K0.000 F800.000
G1 X410.619 Y-137.132 Z-23.304 F800.000
G2 X409.031 Y-138.719 Z-23.304 I-1.587 J-0.000 K0.000 F800.000
G1 X407.352 Y-138.719 Z-23.304 F800.000
G2 X406.525 Y-138.487 Z-23.304 I0.000 J1.588 K0.000 F800.000
G3 X351.538 Y-138.487 Z-23.304 I-27.493 J-43.151 K0.000 F800.000
G2 X350.711 Y-138.719 Z-23.304 I-0.827 J1.355 K0.000 F800.000
G1 X349.031 Y-138.719 Z-23.304 F800.000
G2 X347.444 Y-137.132 Z-23.304 I-0.000 J1.587 K0.000 F800.000
G1 X347.444 Y-125.132 Z-23.304 F800.000
G2 X348.989 Y-123.545 Z-23.304 I1.587 J0.000 K0.000 F800.000
G0 Z38.671
G0 X281.050 Z38.671
G0 X281.050 Z35.671
G1 X281.050 Y-123.545 Z-23.304 F200.000
G1 X281.050 Y-143.190 Z-23.304 F800.000
G2 X279.462 Y-144.777 Z-23.304 I-1.587 J-0.000 K0.000 F800.000
G1 X219.462 Y-144.777 Z-23.304 F800.000
G2 X217.875 Y-143.190 Z-23.304 I-0.000 J1.587 K0.000 F800.000
G1 X217.875 Y-85.936 Z-23.304 F800.000
G2 X219.462 Y-84.349 Z-23.304 I1.587 J0.000 K0.000 F800.000
G1 X279.462 Y-84.349 Z-23.304 F800.000
G2 X281.050 Y-85.936 Z-23.304 I0.000 J-1.587 K0.000 F800.000
G1 X281.050 Y-123.545 Z-23.304 F800.000
G1 X281.050 Y-123.545 Z-26.479 F200.000
G1 X281.050 Y-143.190 Z-26.479 F800.000
G2 X279.462 Y-144.777 Z-26.479 I-1.587 J-0.000 K0.000 F800.000
G1 X219.462 Y-144.777 Z-26.479 F800.000
G2 X217.875 Y-143.190 Z-26.479 I-0.000 J1.587 K0.000 F800.000
G1 X217.875 Y-85.936 Z-26.479 F800.000
G2 X219.462 Y-84.349 Z-26.479 I1.587 J0.000 K0.000 F800.000
G1 X279.462 Y-84.349 Z-26.479 F800.000
G2 X281.050 Y-85.936 Z-26.479 I0.000 J-1.587 K0.000 F800.000
G1 X281.050 Y-123.545 Z-26.479 F800.000
G0 Z38.671
G0 X283.539 Z38.671
G0 X283.539 Z35.671
G1 X283.539 Y-123.545 Z-26.479 F200.000
G1 X283.539 Y-86.390 Z-26.479 F800.000
G2 X285.127 Y-84.802 Z-26.479 I1.587 J0.000 K0.000 F800.000
G1 X345.127 Y-84.802 Z-26.479 F800.000
G2 X346.714 Y-86.390 Z-26.479 I0.000 J-1.587 K0.000 F800.000
G1 X346.714 Y-143.643 Z-26.479 F800.000
G2 X345.127 Y-145.231 Z-26.479 I-1.587 J-0.000 K0.000 F800.000
G1 X285.127 Y-145.231 Z-26.479 F800.000
G2 X283.539 Y-143.643 Z-26.479 I-0.000 J1.587 K0.000 F800.000
G1 X283.539 Y-123.545 Z-26.479 F800.000
G0 Z38.671
G0 X347.444 Y-125.094 Z38.671
G0 X347.444 Y-125.094 Z35.671
G1 X347.444 Y-125.094 Z-26.479 F200.000
G2 X349.031 Y-123.545 Z-26.479 I1.587 J-0.038 K0.000 F800.000
G1 X409.031 Y-123.545 Z-26.479 F800.000
G2 X410.619 Y-125.132 Z-26.479 I0.000 J-1.587 K0.000 F800.000
G1 X410.619 Y-137.132 Z-26.479 F800.000
G2 X409.031 Y-138.719 Z-26.479 I-1.587 J-0.000 K0.000 F800.000
G1 X407.352 Y-138.719 Z-26.479 F800.000
G2 X406.525 Y-138.487 Z-26.479 I0.000 J1.588 K0.000 F800.000
G3 X351.538 Y-138.487 Z-26.479 I-27.493 J-43.151 K0.000 F800.000
G2 X350.711 Y-138.719 Z-26.479 I-0.827 J1.355 K0.000 F800.000
G1 X349.031 Y-138.719 Z-26.479 F800.000
G2 X347.444 Y-137.132 Z-26.479 I-0.000 J1.587 K0.000 F800.000
G1 X347.444 Y-125.132 Z-26.479 F800.000
G2 X347.444 Y-125.094 Z-26.479 I1.587 J0.000 K0.000 F800.000
G0 Z38.671
G0 X348.789 Y-119.893 Z38.671
G0 X348.789 Y-119.893 Z35.671
G1 X348.789 Y-119.893 Z-26.479 F200.000
G2 X347.599 Y-118.356 Z-26.479 I0.397 J1.537 K0.000 F800.000
G1 X347.599 Y-106.356 Z-26.479 F800.000
G2 X349.186 Y-104.769 Z-26.479 I1.587 J0.000 K0.000 F800.000
G1 X409.186 Y-104.769 Z-26.479 F800.000
G2 X410.774 Y-106.356 Z-26.479 I0.000 J-1.587 K0.000 F800.000
G1 X410.774 Y-118.356 Z-26.479 F800.000
G2 X409.186 Y-119.944 Z-26.479 I-1.587 J-0.000 K0.000 F800.000
G1 X407.507 Y-119.944 Z-26.479 F800.000
G2 X406.680 Y-119.711 Z-26.479 I-0.000 J1.587 K0.000 F800.000
G3 X351.693 Y-119.711 Z-26.479 I-27.493 J-43.151 K0.000 F800.000
G2 X350.866 Y-119.944 Z-26.479 I-0.827 J1.355 K0.000 F800.000
G1 X349.186 Y-119.944 Z-26.479 F800.000
G2 X348.789 Y-119.893 Z-26.479 I-0.000 J1.587 K0.000 F800.000
G0 Z38.671
G0 X349.178 Y-101.268 Z38.671
G0 X349.178 Y-101.268 Z35.671
G1 X349.178 Y-101.268 Z-26.479 F200.000
G2 X347.624 Y-99.681 Z-26.479 I0.033 J1.587 K0.000 F800.000
G1 X347.624 Y-87.681 Z-26.479 F800.000
G2 X349.211 Y-86.094 Z-26.479 I1.587 J0.000 K0.000 F800.000
G1 X409.211 Y-86.094 Z-26.479 F800.000
G2 X410.799 Y-87.681 Z-26.479 I0.000 J-1.587 K0.000 F800.000
G1 X410.799 Y-99.681 Z-26.479 F800.000
G2 X409.211 Y-101.268 Z-26.479 I-1.588 J0.000 K0.000 F800.000
G1 X407.532 Y-101.268 Z-26.479 F800.000
G2 X406.705 Y-101.036 Z-26.479 I0.000 J1.588 K0.000 F800.000
G3 X351.718 Y-101.036 Z-26.479 I-27.493 J-43.151 K0.000 F800.000
G2 X350.891 Y-101.268 Z-26.479 I-0.827 J1.355 K0.000 F800.000
G1 X349.211 Y-101.268 Z-26.479 F800.000
G2 X349.178 Y-101.268 Z-26.479 I-0.000 J1.587 K0.000 F800.000
G1 X349.178 Y-101.268 Z-29.654 F200.000
G2 X347.624 Y-99.681 Z-29.654 I0.033 J1.587 K0.000 F800.000
G1 X347.624 Y-87.681 Z-29.654 F800.000
G2 X349.211 Y-86.094 Z-29.654 I1.587 J0.000 K0.000 F800.000
G1 X409.211 Y-86.094 Z-29.654 F800.000
G2 X410.799 Y-87.681 Z-29.654 I0.000 J-1.587 K0.000 F800.000
G1 X410.799 Y-99.681 Z-29.654 F800.000
G2 X409.211 Y-101.268 Z-29.654 I-1.588 J0.000 K0.000 F800.000
G1 X407.532 Y-101.268 Z-29.654 F800.000
G2 X406.705 Y-101.036 Z-29.654 I0.000 J1.588 K0.000 F800.000
G3 X351.718 Y-101.036 Z-29.654 I-27.493 J-43.151 K0.000 F800.000
G2 X350.891 Y-101.268 Z-29.654 I-0.827 J1.355 K0.000 F800.000
G1 X349.211 Y-101.268 Z-29.654 F800.000
G2 X349.178 Y-101.268 Z-29.654 I-0.000 J1.587 K0.000 F800.000
G0 Z38.671
G0 X346.714 Z38.671
G0 X346.714 Z35.671
G1 X346.714 Y-101.268 Z-29.654 F200.000
G1 X346.714 Y-143.643 Z-29.654 F800.000
G2 X345.127 Y-145.231 Z-29.654 I-1.587 J-0.000 K0.000 F800.000
G1 X285.127 Y-145.231 Z-29.654 F800.000
G2 X283.539 Y-143.643 Z-29.654 I-0.000 J1.587 K0.000 F800.000
G1 X283.539 Y-86.390 Z-29.654 F800.000
G2 X285.127 Y-84.802 Z-29.654 I1.587 J0.000 K0.000 F800.000
G1 X345.127 Y-84.802 Z-29.654 F800.000
G2 X346.714 Y-86.390 Z-29.654 I0.000 J-1.587 K0.000 F800.000
G1 X346.714 Y-101.268 Z-29.654 F800.000
G0 Z38.671
G0 X348.492 Y-104.928 Z38.671
G0 X348.492 Y-104.928 Z35.671
G1 X348.492 Y-104.928 Z-29.654 F200.000
G2 X349.186 Y-104.769 Z-29.654 I0.694 J-1.428 K0.000 F800.000
G1 X409.186 Y-104.769 Z-29.654 F800.000
G2 X410.774 Y-106.356 Z-29.654 I0.000 J-1.587 K0.000 F800.000
G1 X410.774 Y-118.356 Z-29.654 F800.000
G2 X409.186 Y-119.944 Z-29.654 I-1.587 J-0.000 K0.000 F800.000
G1 X407.507 Y-119.944 Z-29.654 F800.000
G2 X406.680 Y-119.711 Z-29.654 I-0.000 J1.587 K0.000 F800.000
G3 X351.693 Y-119.711 Z-29.654 I-27.493 J-43.151 K0.000 F800.000
G2 X350.866 Y-119.944 Z-29.654 I-0.827 J1.355 K0.000 F800.000
G1 X349.186 Y-119.944 Z-29.654 F800.000
G2 X347.599 Y-118.356 Z-29.654 I-0.000 J1.587 K0.000 F800.000
G1 X347.599 Y-106.356 Z-29.654 F800.000
G2 X348.492 Y-104.928 Z-29.654 I1.587 J0.000 K0.000 F800.000
G0 Z38.671
G0 X348.989 Y-123.545 Z38.671
G0 X348.989 Y-123.545 Z35.671
G1 X348.989 Y-123.545 Z-29.654 F200.000
G2 X349.031 Y-123.545 Z-29.654 I0.042 J-1.587 K0.000 F800.000
G1 X409.031 Y-123.545 Z-29.654 F800.000
G2 X410.619 Y-125.132 Z-29.654 I0.000 J-1.587 K0.000 F800.000
G1 X410.619 Y-137.132 Z-29.654 F800.000
G2 X409.031 Y-138.719 Z-29.654 I-1.587 J-0.000 K0.000 F800.000
G1 X407.352 Y-138.719 Z-29.654 F800.000
G2 X406.525 Y-138.487 Z-29.654 I0.000 J1.588 K0.000 F800.000
G3 X351.538 Y-138.487 Z-29.654 I-27.493 J-43.151 K0.000 F800.000
G2 X350.711 Y-138.719 Z-29.654 I-0.827 J1.355 K0.000 F800.000
G1 X349.031 Y-138.719 Z-29.654 F800.000
G2 X347.444 Y-137.132 Z-29.654 I-0.000 J1.587 K0.000 F800.000
G1 X347.444 Y-125.132 Z-29.654 F800.000
G2 X348.989 Y-123.545 Z-29.654 I1.587 J0.000 K0.000 F800.000
G0 Z38.671
G0 X281.050 Z38.671
G0 X281.050 Z35.671
G1 X281.050 Y-123.545 Z-29.654 F200.000
G1 X281.050 Y-143.190 Z-29.654 F800.000
G2 X279.462 Y-144.777 Z-29.654 I-1.587 J-0.000 K0.000 F800.000
G1 X219.462 Y-144.777 Z-29.654 F800.000
G2 X217.875 Y-143.190 Z-29.654 I-0.000 J1.587 K0.000 F800.000
G1 X217.875 Y-85.936 Z-29.654 F800.000
G2 X219.462 Y-84.349 Z-29.654 I1.587 J0.000 K0.000 F800.000
G1 X279.462 Y-84.349 Z-29.654 F800.000
G2 X281.050 Y-85.936 Z-29.654 I0.000 J-1.587 K0.000 F800.000
G1 X281.050 Y-123.545 Z-29.654 F800.000
G1 X281.050 Y-123.545 Z-32.829 F200.000
G1 X281.050 Y-143.190 Z-32.829 F800.000
G2 X279.462 Y-144.777 Z-32.829 I-1.587 J-0.000 K0.000 F800.000
G1 X219.462 Y-144.777 Z-32.829 F800.000
G2 X217.875 Y-143.190 Z-32.829 I-0.000 J1.587 K0.000 F800.000
G1 X217.875 Y-85.936 Z-32.829 F800.000
G2 X219.462 Y-84.349 Z-32.829 I1.587 J0.000 K0.000 F800.000
G1 X279.462 Y-84.349 Z-32.829 F800.000
G2 X281.050 Y-85.936 Z-32.829 I0.000 J-1.587 K0.000 F800.000
G1 X281.050 Y-123.545 Z-32.829 F800.000
G0 Z38.671
G0 X283.539 Z38.671
G0 X283.539 Z35.671
G1 X283.539 Y-123.545 Z-32.829 F200.000
G1 X283.539 Y-86.390 Z-32.829 F800.000
G2 X285.127 Y-84.802 Z-32.829 I1.587 J0.000 K0.000 F800.000
G1 X345.127 Y-84.802 Z-32.829 F800.000
G2 X346.714 Y-86.390 Z-32.829 I0.000 J-1.587 K0.000 F800.000
G1 X346.714 Y-143.643 Z-32.829 F800.000
G2 X345.127 Y-145.231 Z-32.829 I-1.587 J-0.000 K0.000 F800.000
G1 X285.127 Y-145.231 Z-32.829 F800.000
G2 X283.539 Y-143.643 Z-32.829 I-0.000 J1.587 K0.000 F800.000
G1 X283.539 Y-123.545 Z-32.829 F800.000
G0 Z38.671
G0 X347.444 Y-125.094 Z38.671
G0 X347.444 Y-125.094 Z35.671
G1 X347.444 Y-125.094 Z-32.829 F200.000
G2 X349.031 Y-123.545 Z-32.829 I1.587 J-0.038 K0.000 F800.000
G1 X409.031 Y-123.545 Z-32.829 F800.000
G2 X410.619 Y-125.132 Z-32.829 I0.000 J-1.587 K0.000 F800.000
G1 X410.619 Y-137.132 Z-32.829 F800.000
G2 X409.031 Y-138.719 Z-32.829 I-1.587 J-0.000 K0.000 F800.000
G1 X407.352 Y-138.719 Z-32.829 F800.000
G2 X406.525 Y-138.487 Z-32.829 I0.000 J1.588 K0.000 F800.000
G3 X351.538 Y-138.487 Z-32.829 I-27.493 J-43.151 K0.000 F800.000
G2 X350.711 Y-138.719 Z-32.829 I-0.827 J1.355 K0.000 F800.000
G1 X349.031 Y-138.719 Z-32.829 F800.000
G2 X347.444 Y-137.132 Z-32.829 I-0.000 J1.587 K0.000 F800.000
G1 X347.444 Y-125.132 Z-32.829 F800.000
G2 X347.444 Y-125.094 Z-32.829 I1.587 J0.000 K0.000 F800.000
G0 Z38.671
G0 X348.789 Y-119.893 Z38.671
G0 X348.789 Y-119.893 Z35.671
G1 X348.789 Y-119.893 Z-32.829 F200.000
G2 X347.599 Y-118.356 Z-32.829 I0.397 J1.537 K0.000 F800.000
G1 X347.599 Y-106.356 Z-32.829 F800.000
G2 X349.186 Y-104.769 Z-32.829 I1.587 J0.000 K0.000 F800.000
G1 X409.186 Y-104.769 Z-32.829 F800.000
G2 X410.774 Y-106.356 Z-32.829 I0.000 J-1.587 K0.000 F800.000
G1 X410.774 Y-118.356 Z-32.829 F800.000
G2 X409.186 Y-119.944 Z-32.829 I-1.587 J-0.000 K0.000 F800.000
G1 X407.507 Y-119.944 Z-32.829 F800.000
G2 X406.680 Y-119.711 Z-32.829 I-0.000 J1.587 K0.000 F800.000
G3 X351.693 Y-119.711 Z-32.829 I-27.493 J-43.151 K0.000 F800.000
G2 X350.866 Y-119.944 Z-32.829 I-0.827 J1.355 K0.000 F800.000
G1 X349.186 Y-119.944 Z-32.829 F800.000
G2 X348.789 Y-119.893 Z-32.829 I-0.000 J1.587 K0.000 F800.000
G0 Z38.671
G0 X349.178 Y-101.268 Z38.671
G0 X349.178 Y-101.268 Z35.671
G1 X349.178 Y-101.268 Z-32.829 F200.000
G2 X347.624 Y-99.681 Z-32.829 I0.033 J1.587 K0.000 F800.000
G1 X347.624 Y-87.681 Z-32.829 F800.000
G2 X349.211 Y-86.094 Z-32.829 I1.587 J0.000 K0.000 F800.000
G1 X409.211 Y-86.094 Z-32.829 F800.000
G2 X410.799 Y-87.681 Z-32.829 I0.000 J-1.587 K0.000 F800.000
G1 X410.799 Y-99.681 Z-32.829 F800.000
G2 X409.211 Y-101.268 Z-32.829 I-1.588 J0.000 K0.000 F800.000
G1 X407.532 Y-101.268 Z-32.829 F800.000
G2 X406.705 Y-101.036 Z-32.829 I0.000 J1.588 K0.000 F800.000
G3 X351.718 Y-101.036 Z-32.829 I-27.493 J-43.151 K0.000 F800.000
G2 X350.891 Y-101.268 Z-32.829 I-0.827 J1.355 K0.000 F800.000
G1 X349.211 Y-101.268 Z-32.829 F800.000
G2 X349.178 Y-101.268 Z-32.829 I-0.000 J1.587 K0.000 F800.000
G1 X349.178 Y-101.268 Z-36.004 F200.000
G2 X347.624 Y-99.681 Z-36.004 I0.033 J1.587 K0.000 F800.000
G1 X347.624 Y-87.681 Z-36.004 F800.000
G2 X349.211 Y-86.094 Z-36.004 I1.587 J0.000 K0.000 F800.000
G1 X409.211 Y-86.094 Z-36.004 F800.000
G2 X410.799 Y-87.681 Z-36.004 I0.000 J-1.587 K0.000 F800.000
G1 X410.799 Y-99.681 Z-36.004 F800.000
G2 X409.211 Y-101.268 Z-36.004 I-1.588 J0.000 K0.000 F800.000
G1 X407.532 Y-101.268 Z-36.004 F800.000
G2 X406.705 Y-101.036 Z-36.004 I0.000 J1.588 K0.000 F800.000
G3 X351.718 Y-101.036 Z-36.004 I-27.493 J-43.151 K0.000 F800.000
G2 X350.891 Y-101.268 Z-36.004 I-0.827 J1.355 K0.000 F800.000
G1 X349.211 Y-101.268 Z-36.004 F800.000
G2 X349.178 Y-101.268 Z-36.004 I-0.000 J1.587 K0.000 F800.000
G0 Z38.671
G0 X346.714 Z38.671
G0 X346.714 Z35.671
G1 X346.714 Y-101.268 Z-36.004 F200.000
G1 X346.714 Y-143.643 Z-36.004 F800.000
G2 X345.127 Y-145.231 Z-36.004 I-1.587 J-0.000 K0.000 F800.000
G1 X285.127 Y-145.231 Z-36.004 F800.000
G2 X283.539 Y-143.643 Z-36.004 I-0.000 J1.587 K0.000 F800.000
G1 X283.539 Y-86.390 Z-36.004 F800.000
G2 X285.127 Y-84.802 Z-36.004 I1.587 J0.000 K0.000 F800.000
G1 X345.127 Y-84.802 Z-36.004 F800.000
G2 X346.714 Y-86.390 Z-36.004 I0.000 J-1.587 K0.000 F800.000
G1 X346.714 Y-101.268 Z-36.004 F800.000
G0 Z38.671
G0 X348.492 Y-104.928 Z38.671
G0 X348.492 Y-104.928 Z35.671
G1 X348.492 Y-104.928 Z-36.004 F200.000
G2 X349.186 Y-104.769 Z-36.004 I0.694 J-1.428 K0.000 F800.000
G1 X409.186 Y-104.769 Z-36.004 F800.000
G2 X410.774 Y-106.356 Z-36.004 I0.000 J-1.587 K0.000 F800.000
G1 X410.774 Y-118.356 Z-36.004 F800.000
G2 X409.186 Y-119.944 Z-36.004 I-1.587 J-0.000 K0.000 F800.000
G1 X407.507 Y-119.944 Z-36.004 F800.000
G2 X406.680 Y-119.711 Z-36.004 I-0.000 J1.587 K0.000 F800.000
G3 X351.693 Y-119.711 Z-36.004 I-27.493 J-43.151 K0.000 F800.000
G2 X350.866 Y-119.944 Z-36.004 I-0.827 J1.355 K0.000 F800.000
G1 X349.186 Y-119.944 Z-36.004 F800.000
G2 X347.599 Y-118.356 Z-36.004 I-0.000 J1.587 K0.000 F800.000
G1 X347.599 Y-106.356 Z-36.004 F800.000
G2 X348.492 Y-104.928 Z-36.004 I1.587 J0.000 K0.000 F800.000
G0 Z38.671
G0 X348.989 Y-123.545 Z38.671
G0 X348.989 Y-123.545 Z35.671
G1 X348.989 Y-123.545 Z-36.004 F200.000
G2 X349.031 Y-123.545 Z-36.004 I0.042 J-1.587 K0.000 F800.000
G1 X409.031 Y-123.545 Z-36.004 F800.000
G2 X410.619 Y-125.132 Z-36.004 I0.000 J-1.587 K0.000 F800.000
G1 X410.619 Y-137.132 Z-36.004 F800.000
G2 X409.031 Y-138.719 Z-36.004 I-1.587 J-0.000 K0.000 F800.000
G1 X407.352 Y-138.719 Z-36.004 F800.000
G2 X406.525 Y-138.487 Z-36.004 I0.000 J1.588 K0.000 F800.000
G3 X351.538 Y-138.487 Z-36.004 I-27.493 J-43.151 K0.000 F800.000
G2 X350.711 Y-138.719 Z-36.004 I-0.827 J1.355 K0.000 F800.000
G1 X349.031 Y-138.719 Z-36.004 F800.000
G2 X347.444 Y-137.132 Z-36.004 I-0.000 J1.587 K0.000 F800.000
G1 X347.444 Y-125.132 Z-36.004 F800.000
G2 X348.989 Y-123.545 Z-36.004 I1.587 J0.000 K0.000 F800.000
G0 Z38.671
G0 X281.050 Z38.671
G0 X281.050 Z35.671
G1 X281.050 Y-123.545 Z-36.004 F200.000
G1 X281.050 Y-143.190 Z-36.004 F800.000
G2 X279.462 Y-144.777 Z-36.004 I-1.587 J-0.000 K0.000 F800.000
G1 X219.462 Y-144.777 Z-36.004 F800.000
G2 X217.875 Y-143.190 Z-36.004 I-0.000 J1.587 K0.000 F800.000
G1 X217.875 Y-85.936 Z-36.004 F800.000
G2 X219.462 Y-84.349 Z-36.004 I1.587 J0.000 K0.000 F800.000
G1 X279.462 Y-84.349 Z-36.004 F800.000
G2 X281.050 Y-85.936 Z-36.004 I0.000 J-1.587 K0.000 F800.000
G1 X281.050 Y-123.545 Z-36.004 F800.000
G1 X281.050 Y-123.545 Z-39.179 F200.000
G1 X281.050 Y-143.190 Z-39.179 F800.000
G2 X279.462 Y-144.777 Z-39.179 I-1.587 J-0.000 K0.000 F800.000
G1 X219.462 Y-144.777 Z-39.179 F800.000
G2 X217.875 Y-143.190 Z-39.179 I-0.000 J1.587 K0.000 F800.000
G1 X217.875 Y-85.936 Z-39.179 F800.000
G2 X219.462 Y-84.349 Z-39.179 I1.587 J0.000 K0.000 F800.000
G1 X279.462 Y-84.349 Z-39.179 F800.000
G2 X281.050 Y-85.936 Z-39.179 I0.000 J-1.587 K0.000 F800.000
G1 X281.050 Y-123.545 Z-39.179 F800.000
G0 Z38.671
G0 X283.539 Z38.671
G0 X283.539 Z35.671
G1 X283.539 Y-123.545 Z-39.179 F200.000
G1 X283.539 Y-86.390 Z-39.179 F800.000
G2 X285.127 Y-84.802 Z-39.179 I1.587 J0.000 K0.000 F800.000
G1 X345.127 Y-84.802 Z-39.179 F800.000
G2 X346.714 Y-86.390 Z-39.179 I0.000 J-1.587 K0.000 F800.000
G1 X346.714 Y-143.643 Z-39.179 F800.000
G2 X345.127 Y-145.231 Z-39.179 I-1.587 J-0.000 K0.000 F800.000
G1 X285.127 Y-145.231 Z-39.179 F800.000
G2 X283.539 Y-143.643 Z-39.179 I-0.000 J1.587 K0.000 F800.000
G1 X283.539 Y-123.545 Z-39.179 F800.000
G0 Z38.671
G0 X347.444 Y-125.094 Z38.671
G0 X347.444 Y-125.094 Z35.671
G1 X347.444 Y-125.094 Z-39.179 F200.000
G2 X349.031 Y-123.545 Z-39.179 I1.587 J-0.038 K0.000 F800.000
G1 X409.031 Y-123.545 Z-39.179 F800.000
G2 X410.619 Y-125.132 Z-39.179 I0.000 J-1.587 K0.000 F800.000
G1 X410.619 Y-137.132 Z-39.179 F800.000
G2 X409.031 Y-138.719 Z-39.179 I-1.587 J-0.000 K0.000 F800.000
G1 X407.352 Y-138.719 Z-39.179 F800.000
G2 X406.525 Y-138.487 Z-39.179 I0.000 J1.588 K0.000 F800.000
G3 X351.538 Y-138.487 Z-39.179 I-27.493 J-43.151 K0.000 F800.000
G2 X350.711 Y-138.719 Z-39.179 I-0.827 J1.355 K0.000 F800.000
G1 X349.031 Y-138.719 Z-39.179 F800.000
G2 X347.444 Y-137.132 Z-39.179 I-0.000 J1.587 K0.000 F800.000
G1 X347.444 Y-125.132 Z-39.179 F800.000
G2 X347.444 Y-125.094 Z-39.179 I1.587 J0.000 K0.000 F800.000
G0 Z38.671
G0 X348.789 Y-119.893 Z38.671
G0 X348.789 Y-119.893 Z35.671
G1 X348.789 Y-119.893 Z-39.179 F200.000
G2 X347.599 Y-118.356 Z-39.179 I0.397 J1.537 K0.000 F800.000
G1 X347.599 Y-106.356 Z-39.179 F800.000
G2 X349.186 Y-104.769 Z-39.179 I1.587 J0.000 K0.000 F800.000
G1 X409.186 Y-104.769 Z-39.179 F800.000
G2 X410.774 Y-106.356 Z-39.179 I0.000 J-1.587 K0.000 F800.000
G1 X410.774 Y-118.356 Z-39.179 F800.000
G2 X409.186 Y-119.944 Z-39.179 I-1.587 J-0.000 K0.000 F800.000
G1 X407.507 Y-119.944 Z-39.179 F800.000
G2 X406.680 Y-119.711 Z-39.179 I-0.000 J1.587 K0.000 F800.000
G3 X351.693 Y-119.711 Z-39.179 I-27.493 J-43.151 K0.000 F800.000
G2 X350.866 Y-119.944 Z-39.179 I-0.827 J1.355 K0.000 F800.000
G1 X349.186 Y-119.944 Z-39.179 F800.000
G2 X348.789 Y-119.893 Z-39.179 I-0.000 J1.587 K0.000 F800.000
G0 Z38.671
G0 X349.178 Y-101.268 Z38.671
G0 X349.178 Y-101.268 Z35.671
G1 X349.178 Y-101.268 Z-39.179 F200.000
G2 X347.624 Y-99.681 Z-39.179 I0.033 J1.587 K0.000 F800.000
G1 X347.624 Y-87.681 Z-39.179 F800.000
G2 X349.211 Y-86.094 Z-39.179 I1.587 J0.000 K0.000 F800.000
G1 X409.211 Y-86.094 Z-39.179 F800.000
G2 X410.799 Y-87.681 Z-39.179 I0.000 J-1.587 K0.000 F800.000
G1 X410.799 Y-99.681 Z-39.179 F800.000
G2 X409.211 Y-101.268 Z-39.179 I-1.588 J0.000 K0.000 F800.000
G1 X407.532 Y-101.268 Z-39.179 F800.000
G2 X406.705 Y-101.036 Z-39.179 I0.000 J1.588 K0.000 F800.000
G3 X351.718 Y-101.036 Z-39.179 I-27.493 J-43.151 K0.000 F800.000
G2 X350.891 Y-101.268 Z-39.179 I-0.827 J1.355 K0.000 F800.000
G1 X349.211 Y-101.268 Z-39.179 F800.000
G2 X349.178 Y-101.268 Z-39.179 I-0.000 J1.587 K0.000 F800.000
G1 X349.178 Y-101.268 Z-42.354 F200.000
G2 X347.624 Y-99.681 Z-42.354 I0.033 J1.587 K0.000 F800.000
G1 X347.624 Y-87.681 Z-42.354 F800.000
G2 X349.211 Y-86.094 Z-42.354 I1.587 J0.000 K0.000 F800.000
G1 X409.211 Y-86.094 Z-42.354 F800.000
G2 X410.799 Y-87.681 Z-42.354 I0.000 J-1.587 K0.000 F800.000
G1 X410.799 Y-99.681 Z-42.354 F800.000
G2 X409.211 Y-101.268 Z-42.354 I-1.588 J0.000 K0.000 F800.000
G1 X407.532 Y-101.268 Z-42.354 F800.000
G2 X406.705 Y-101.036 Z-42.354 I0.000 J1.588 K0.000 F800.000
G3 X351.718 Y-101.036 Z-42.354 I-27.493 J-43.151 K0.000 F800.000
G2 X350.891 Y-101.268 Z-42.354 I-0.827 J1.355 K0.000 F800.000
G1 X349.211 Y-101.268 Z-42.354 F800.000
G2 X349.178 Y-101.268 Z-42.354 I-0.000 J1.587 K0.000 F800.000
G0 Z38.671
G0 X346.714 Z38.671
G0 X346.714 Z35.671
G1 X346.714 Y-101.268 Z-42.354 F200.000
G1 X346.714 Y-143.643 Z-42.354 F800.000
G2 X345.127 Y-145.231 Z-42.354 I-1.587 J-0.000 K0.000 F800.000
G1 X285.127 Y-145.231 Z-42.354 F800.000
G2 X283.539 Y-143.643 Z-42.354 I-0.000 J1.587 K0.000 F800.000
G1 X283.539 Y-86.390 Z-42.354 F800.000
G2 X285.127 Y-84.802 Z-42.354 I1.587 J0.000 K0.000 F800.000
G1 X345.127 Y-84.802 Z-42.354 F800.000
G2 X346.714 Y-86.390 Z-42.354 I0.000 J-1.587 K0.000 F800.000
G1 X346.714 Y-101.268 Z-42.354 F800.000
G0 Z38.671
G0 X348.492 Y-104.928 Z38.671
G0 X348.492 Y-104.928 Z35.671
G1 X348.492 Y-104.928 Z-42.354 F200.000
G2 X349.186 Y-104.769 Z-42.354 I0.694 J-1.428 K0.000 F800.000
G1 X409.186 Y-104.769 Z-42.354 F800.000
G2 X410.774 Y-106.356 Z-42.354 I0.000 J-1.587 K0.000 F800.000
G1 X410.774 Y-118.356 Z-42.354 F800.000
G2 X409.186 Y-119.944 Z-42.354 I-1.587 J-0.000 K0.000 F800.000
G1 X407.507 Y-119.944 Z-42.354 F800.000
G2 X406.680 Y-119.711 Z-42.354 I-0.000 J1.587 K0.000 F800.000
G3 X351.693 Y-119.711 Z-42.354 I-27.493 J-43.151 K0.000 F800.000
G2 X350.866 Y-119.944 Z-42.354 I-0.827 J1.355 K0.000 F800.000
G1 X349.186 Y-119.944 Z-42.354 F800.000
G2 X347.599 Y-118.356 Z-42.354 I-0.000 J1.587 K0.000 F800.000
G1 X347.599 Y-106.356 Z-42.354 F800.000
G2 X348.492 Y-104.928 Z-42.354 I1.587 J0.000 K0.000 F800.000
G0 Z38.671
G0 X348.989 Y-123.545 Z38.671
G0 X348.989 Y-123.545 Z35.671
G1 X348.989 Y-123.545 Z-42.354 F200.000
G2 X349.031 Y-123.545 Z-42.354 I0.042 J-1.587 K0.000 F800.000
G1 X409.031 Y-123.545 Z-42.354 F800.000
G2 X410.619 Y-125.132 Z-42.354 I0.000 J-1.587 K0.000 F800.000
G1 X410.619 Y-137.132 Z-42.354 F800.000
G2 X409.031 Y-138.719 Z-42.354 I-1.587 J-0.000 K0.000 F800.000
G1 X407.352 Y-138.719 Z-42.354 F800.000
G2 X406.525 Y-138.487 Z-42.354 I0.000 J1.588 K0.000 F800.000
G3 X351.538 Y-138.487 Z-42.354 I-27.493 J-43.151 K0.000 F800.000
G2 X350.711 Y-138.719 Z-42.354 I-0.827 J1.355 K0.000 F800.000
G1 X349.031 Y-138.719 Z-42.354 F800.000
G2 X347.444 Y-137.132 Z-42.354 I-0.000 J1.587 K0.000 F800.000
G1 X347.444 Y-125.132 Z-42.354 F800.000
G2 X348.989 Y-123.545 Z-42.354 I1.587 J0.000 K0.000 F800.000
G0 Z38.671
G0 X281.050 Z38.671
G0 X281.050 Z35.671
G1 X281.050 Y-123.545 Z-42.354 F200.000
G1 X281.050 Y-143.190 Z-42.354 F800.000
G2 X279.462 Y-144.777 Z-42.354 I-1.587 J-0.000 K0.000 F800.000
G1 X219.462 Y-144.777 Z-42.354 F800.000
G2 X217.875 Y-143.190 Z-42.354 I-0.000 J1.587 K0.000 F800.000
G1 X217.875 Y-85.936 Z-42.354 F800.000
G2 X219.462 Y-84.349 Z-42.354 I1.587 J0.000 K0.000 F800.000
G1 X279.462 Y-84.349 Z-42.354 F800.000
G2 X281.050 Y-85.936 Z-42.354 I0.000 J-1.587 K0.000 F800.000
G1 X281.050 Y-123.545 Z-42.354 F800.000
G1 X281.050 Y-123.545 Z-45.529 F200.000
G1 X281.050 Y-143.190 Z-45.529 F800.000
G2 X279.462 Y-144.777 Z-45.529 I-1.587 J-0.000 K0.000 F800.000
G1 X219.462 Y-144.777 Z-45.529 F800.000
G2 X217.875 Y-143.190 Z-45.529 I-0.000 J1.587 K0.000 F800.000
G1 X217.875 Y-85.936 Z-45.529 F800.000
G2 X219.462 Y-84.349 Z-45.529 I1.587 J0.000 K0.000 F800.000
G1 X279.462 Y-84.349 Z-45.529 F800.000
G2 X281.050 Y-85.936 Z-45.529 I0.000 J-1.587 K0.000 F800.000
G1 X281.050 Y-123.545 Z-45.529 F800.000
G0 Z38.671
G0 X283.539 Z38.671
G0 X283.539 Z35.671
G1 X283.539 Y-123.545 Z-45.529 F200.000
G1 X283.539 Y-86.390 Z-45.529 F800.000
G2 X285.127 Y-84.802 Z-45.529 I1.587 J0.000 K0.000 F800.000
G1 X345.127 Y-84.802 Z-45.529 F800.000
G2 X346.714 Y-86.390 Z-45.529 I0.000 J-1.587 K0.000 F800.000
G1 X346.714 Y-143.643 Z-45.529 F800.000
G2 X345.127 Y-145.231 Z-45.529 I-1.587 J-0.000 K0.000 F800.000
G1 X285.127 Y-145.231 Z-45.529 F800.000
G2 X283.539 Y-143.643 Z-45.529 I-0.000 J1.587 K0.000 F800.000
G1 X283.539 Y-123.545 Z-45.529 F800.000
G0 Z38.671
G0 X347.444 Y-125.094 Z38.671
G0 X347.444 Y-125.094 Z35.671
G1 X347.444 Y-125.094 Z-45.529 F200.000
G2 X349.031 Y-123.545 Z-45.529 I1.587 J-0.038 K0.000 F800.000
G1 X409.031 Y-123.545 Z-45.529 F800.000
G2 X410.619 Y-125.132 Z-45.529 I0.000 J-1.587 K0.000 F800.000
G1 X410.619 Y-137.132 Z-45.529 F800.000
G2 X409.031 Y-138.719 Z-45.529 I-1.587 J-0.000 K0.000 F800.000
G1 X407.352 Y-138.719 Z-45.529 F800.000
G2 X406.525 Y-138.487 Z-45.529 I0.000 J1.588 K0.000 F800.000
G3 X351.538 Y-138.487 Z-45.529 I-27.493 J-43.151 K0.000 F800.000
G2 X350.711 Y-138.719 Z-45.529 I-0.827 J1.355 K0.000 F800.000
G1 X349.031 Y-138.719 Z-45.529 F800.000
G2 X347.444 Y-137.132 Z-45.529 I-0.000 J1.587 K0.000 F800.000
G1 X347.444 Y-125.132 Z-45.529 F800.000
G2 X347.444 Y-125.094 Z-45.529 I1.587 J0.000 K0.000 F800.000
G0 Z38.671
G0 X348.789 Y-119.893 Z38.671
G0 X348.789 Y-119.893 Z35.671
G1 X348.789 Y-119.893 Z-45.529 F200.000
G2 X347.599 Y-118.356 Z-45.529 I0.397 J1.537 K0.000 F800.000
G1 X347.599 Y-106.356 Z-45.529 F800.000
G2 X349.186 Y-104.769 Z-45.529 I1.587 J0.000 K0.000 F800.000
G1 X409.186 Y-104.769 Z-45.529 F800.000
G2 X410.774 Y-106.356 Z-45.529 I0.000 J-1.587 K0.000 F800.000
G1 X410.774 Y-118.356 Z-45.529 F800.000
G2 X409.186 Y-119.944 Z-45.529 I-1.587 J-0.000 K0.000 F800.000
G1 X407.507 Y-119.944 Z-45.529 F800.000
G2 X406.680 Y-119.711 Z-45.529 I-0.000 J1.587 K0.000 F800.000
G3 X351.693 Y-119.711 Z-45.529 I-27.493 J-43.151 K0.000 F800.000
G2 X350.866 Y-119.944 Z-45.529 I-0.827 J1.355 K0.000 F800.000
G1 X349.186 Y-119.944 Z-45.529 F800.000
G2 X348.789 Y-119.893 Z-45.529 I-0.000 J1.587 K0.000 F800.000
G0 Z38.671
G0 X349.178 Y-101.268 Z38.671
G0 X349.178 Y-101.268 Z35.671
G1 X349.178 Y-101.268 Z-45.529 F200.000
G2 X347.624 Y-99.681 Z-45.529 I0.033 J1.587 K0.000 F800.000
G1 X347.624 Y-87.681 Z-45.529 F800.000
G2 X349.211 Y-86.094 Z-45.529 I1.587 J0.000 K0.000 F800.000
G1 X409.211 Y-86.094 Z-45.529 F800.000
G2 X410.799 Y-87.681 Z-45.529 I0.000 J-1.587 K0.000 F800.000
G1 X410.799 Y-99.681 Z-45.529 F800.000
G2 X409.211 Y-101.268 Z-45.529 I-1.588 J0.000 K0.000 F800.000
G1 X407.532 Y-101.268 Z-45.529 F800.000
G2 X406.705 Y-101.036 Z-45.529 I0.000 J1.588 K0.000 F800.000
G3 X351.718 Y-101.036 Z-45.529 I-27.493 J-43.151 K0.000 F800.000
G2 X350.891 Y-101.268 Z-45.529 I-0.827 J1.355 K0.000 F800.000
G1 X349.211 Y-101.268 Z-45.529 F800.000
G2 X349.178 Y-101.268 Z-45.529 I-0.000 J1.587 K0.000 F800.000
G1 X349.178 Y-101.268 Z-48.704 F200.000
G2 X347.624 Y-99.681 Z-48.704 I0.033 J1.587 K0.000 F800.000
G1 X347.624 Y-87.681 Z-48.704 F800.000
G2 X349.211 Y-86.094 Z-48.704 I1.587 J0.000 K0.000 F800.000
G1 X409.211 Y-86.094 Z-48.704 F800.000
G2 X410.799 Y-87.681 Z-48.704 I0.000 J-1.587 K0.000 F800.000
G1 X410.799 Y-99.681 Z-48.704 F800.000
G2 X409.211 Y-101.268 Z-48.704 I-1.588 J0.000 K0.000 F800.000
G1 X407.532 Y-101.268 Z-48.704 F800.000
G2 X406.705 Y-101.036 Z-48.704 I0.000 J1.588 K0.000 F800.000
G3 X351.718 Y-101.036 Z-48.704 I-27.493 J-43.151 K0.000 F800.000
G2 X350.891 Y-101.268 Z-48.704 I-0.827 J1.355 K0.000 F800.000
G1 X349.211 Y-101.268 Z-48.704 F800.000
G2 X349.178 Y-101.268 Z-48.704 I-0.000 J1.587 K0.000 F800.000
G0 Z38.671
G0 X346.714 Z38.671
G0 X346.714 Z35.671
G1 X346.714 Y-101.268 Z-48.704 F200.000
G1 X346.714 Y-143.643 Z-48.704 F800.000
G2 X345.127 Y-145.231 Z-48.704 I-1.587 J-0.000 K0.000 F800.000
G1 X285.127 Y-145.231 Z-48.704 F800.000
G2 X283.539 Y-143.643 Z-48.704 I-0.000 J1.587 K0.000 F800.000
G1 X283.539 Y-86.390 Z-48.704 F800.000
G2 X285.127 Y-84.802 Z-48.704 I1.587 J0.000 K0.000 F800.000
G1 X345.127 Y-84.802 Z-48.704 F800.000
G2 X346.714 Y-86.390 Z-48.704 I0.000 J-1.587 K0.000 F800.000
G1 X346.714 Y-101.268 Z-48.704 F800.000
G0 Z38.671
G0 X348.492 Y-104.928 Z38.671
G0 X348.492 Y-104.928 Z35.671
G1 X348.492 Y-104.928 Z-48.704 F200.000
G2 X349.186 Y-104.769 Z-48.704 I0.694 J-1.428 K0.000 F800.000
G1 X409.186 Y-104.769 Z-48.704 F800.000
G2 X410.774 Y-106.356 Z-48.704 I0.000 J-1.587 K0.000 F800.000
G1 X410.774 Y-118.356 Z-48.704 F800.000
G2 X409.186 Y-119.944 Z-48.704 I-1.587 J-0.000 K0.000 F800.000
G1 X407.507 Y-119.944 Z-48.704 F800.000
G2 X406.680 Y-119.711 Z-48.704 I-0.000 J1.587 K0.000 F800.000
G3 X351.693 Y-119.711 Z-48.704 I-27.493 J-43.151 K0.000 F800.000
G2 X350.866 Y-119.944 Z-48.704 I-0.827 J1.355 K0.000 F800.000
G1 X349.186 Y-119.944 Z-48.704 F800.000
G2 X347.599 Y-118.356 Z-48.704 I-0.000 J1.587 K0.000 F800.000
G1 X347.599 Y-106.356 Z-48.704 F800.000
G2 X348.492 Y-104.928 Z-48.704 I1.587 J0.000 K0.000 F800.000
G0 Z38.671
G0 X348.989 Y-123.545 Z38.671
G0 X348.989 Y-123.545 Z35.671
G1 X348.989 Y-123.545 Z-48.704 F200.000
G2 X349.031 Y-123.545 Z-48.704 I0.042 J-1.587 K0.000 F800.000
G1 X409.031 Y-123.545 Z-48.704 F800.000
G2 X410.619 Y-125.132 Z-48.704 I0.000 J-1.587 K0.000 F800.000
G1 X410.619 Y-137.132 Z-48.704 F800.000
G2 X409.031 Y-138.719 Z-48.704 I-1.587 J-0.000 K0.000 F800.000
G1 X407.352 Y-138.719 Z-48.704 F800.000
G2 X406.525 Y-138.487 Z-48.704 I0.000 J1.588 K0.000 F800.000
G3 X351.538 Y-138.487 Z-48.704 I-27.493 J-43.151 K0.000 F800.000
G2 X350.711 Y-138.719 Z-48.704 I-0.827 J1.355 K0.000 F800.000
G1 X349.031 Y-138.719 Z-48.704 F800.000
G2 X347.444 Y-137.132 Z-48.704 I-0.000 J1.587 K0.000 F800.000
G1 X347.444 Y-125.132 Z-48.704 F800.000
G2 X348.989 Y-123.545 Z-48.704 I1.587 J0.000 K0.000 F800.000
G0 Z38.671
G0 X281.050 Z38.671
G0 X281.050 Z35.671
G1 X281.050 Y-123.545 Z-48.704 F200.000
G1 X281.050 Y-143.190 Z-48.704 F800.000
G2 X279.462 Y-144.777 Z-48.704 I-1.587 J-0.000 K0.000 F800.000
G1 X219.462 Y-144.777 Z-48.704 F800.000
G2 X217.875 Y-143.190 Z-48.704 I-0.000 J1.587 K0.000 F800.000
G1 X217.875 Y-85.936 Z-48.704 F800.000
G2 X219.462 Y-84.349 Z-48.704 I1.587 J0.000 K0.000 F800.000
G1 X279.462 Y-84.349 Z-48.704 F800.000
G2 X281.050 Y-85.936 Z-48.704 I0.000 J-1.587 K0.000 F800.000
G1 X281.050 Y-123.545 Z-48.704 F800.000
G1 X281.050 Y-123.545 Z-51.879 F200.000
G1 X281.050 Y-143.190 Z-51.879 F800.000
G2 X279.462 Y-144.777 Z-51.879 I-1.587 J-0.000 K0.000 F800.000
G1 X219.462 Y-144.777 Z-51.879 F800.000
G2 X217.875 Y-143.190 Z-51.879 I-0.000 J1.587 K0.000 F800.000
G1 X217.875 Y-85.936 Z-51.879 F800.000
G2 X219.462 Y-84.349 Z-51.879 I1.587 J0.000 K0.000 F800.000
G1 X279.462 Y-84.349 Z-51.879 F800.000
G2 X281.050 Y-85.936 Z-51.879 I0.000 J-1.587 K0.000 F800.000
G1 X281.050 Y-123.545 Z-51.879 F800.000
G0 Z38.671
G0 X283.539 Z38.671
G0 X283.539 Z35.671
G1 X283.539 Y-123.545 Z-51.879 F200.000
G1 X283.539 Y-86.390 Z-51.879 F800.000
G2 X285.127 Y-84.802 Z-51.879 I1.587 J0.000 K0.000 F800.000
G1 X345.127 Y-84.802 Z-51.879 F800.000
G2 X346.714 Y-86.390 Z-51.879 I0.000 J-1.587 K0.000 F800.000
G1 X346.714 Y-143.643 Z-51.879 F800.000
G2 X345.127 Y-145.231 Z-51.879 I-1.587 J-0.000 K0.000 F800.000
G1 X285.127 Y-145.231 Z-51.879 F800.000
G2 X283.539 Y-143.643 Z-51.879 I-0.000 J1.587 K0.000 F800.000
G1 X283.539 Y-123.545 Z-51.879 F800.000
G0 Z38.671
G0 X347.444 Y-125.094 Z38.671
G0 X347.444 Y-125.094 Z35.671
G1 X347.444 Y-125.094 Z-51.879 F200.000
G2 X349.031 Y-123.545 Z-51.879 I1.587 J-0.038 K0.000 F800.000
G1 X409.031 Y-123.545 Z-51.879 F800.000
G2 X410.619 Y-125.132 Z-51.879 I0.000 J-1.587 K0.000 F800.000
G1 X410.619 Y-137.132 Z-51.879 F800.000
G2 X409.031 Y-138.719 Z-51.879 I-1.587 J-0.000 K0.000 F800.000
G1 X407.352 Y-138.719 Z-51.879 F800.000
G2 X406.525 Y-138.487 Z-51.879 I0.000 J1.588 K0.000 F800.000
G3 X351.538 Y-138.487 Z-51.879 I-27.493 J-43.151 K0.000 F800.000
G2 X350.711 Y-138.719 Z-51.879 I-0.827 J1.355 K0.000 F800.000
G1 X349.031 Y-138.719 Z-51.879 F800.000
G2 X347.444 Y-137.132 Z-51.879 I-0.000 J1.587 K0.000 F800.000
G1 X347.444 Y-125.132 Z-51.879 F800.000
G2 X347.444 Y-125.094 Z-51.879 I1.587 J0.000 K0.000 F800.000
G0 Z38.671
G0 X348.789 Y-119.893 Z38.671
G0 X348.789 Y-119.893 Z35.671
G1 X348.789 Y-119.893 Z-51.879 F200.000
G2 X347.599 Y-118.356 Z-51.879 I0.397 J1.537 K0.000 F800.000
G1 X347.599 Y-106.356 Z-51.879 F800.000
G2 X349.186 Y-104.769 Z-51.879 I1.587 J0.000 K0.000 F800.000
G1 X409.186 Y-104.769 Z-51.879 F800.000
G2 X410.774 Y-106.356 Z-51.879 I0.000 J-1.587 K0.000 F800.000
G1 X410.774 Y-118.356 Z-51.879 F800.000
G2 X409.186 Y-119.944 Z-51.879 I-1.587 J-0.000 K0.000 F800.000
G1 X407.507 Y-119.944 Z-51.879 F800.000
G2 X406.680 Y-119.711 Z-51.879 I-0.000 J1.587 K0.000 F800.000
G3 X351.693 Y-119.711 Z-51.879 I-27.493 J-43.151 K0.000 F800.000
G2 X350.866 Y-119.944 Z-51.879 I-0.827 J1.355 K0.000 F800.000
G1 X349.186 Y-119.944 Z-51.879 F800.000
G2 X348.789 Y-119.893 Z-51.879 I-0.000 J1.587 K0.000 F800.000
G0 Z38.671
G0 X349.178 Y-101.268 Z38.671
G0 X349.178 Y-101.268 Z35.671
G1 X349.178 Y-101.268 Z-51.879 F200.000
G2 X347.624 Y-99.681 Z-51.879 I0.033 J1.587 K0.000 F800.000
G1 X347.624 Y-87.681 Z-51.879 F800.000
G2 X349.211 Y-86.094 Z-51.879 I1.587 J0.000 K0.000 F800.000
G1 X409.211 Y-86.094 Z-51.879 F800.000
G2 X410.799 Y-87.681 Z-51.879 I0.000 J-1.587 K0.000 F800.000
G1 X410.799 Y-99.681 Z-51.879 F800.000
G2 X409.211 Y-101.268 Z-51.879 I-1.588 J0.000 K0.000 F800.000
G1 X407.532 Y-101.268 Z-51.879 F800.000
G2 X406.705 Y-101.036 Z-51.879 I0.000 J1.588 K0.000 F800.000
G3 X351.718 Y-101.036 Z-51.879 I-27.493 J-43.151 K0.000 F800.000
G2 X350.891 Y-101.268 Z-51.879 I-0.827 J1.355 K0.000 F800.000
G1 X349.211 Y-101.268 Z-51.879 F800.000
G2 X349.178 Y-101.268 Z-51.879 I-0.000 J1.587 K0.000 F800.000
G1 X349.178 Y-101.268 Z-55.054 F200.000
G2 X347.624 Y-99.681 Z-55.054 I0.033 J1.587 K0.000 F800.000
G1 X347.624 Y-87.681 Z-55.054 F800.000
G2 X349.211 Y-86.094 Z-55.054 I1.587 J0.000 K0.000 F800.000
G1 X409.211 Y-86.094 Z-55.054 F800.000
G2 X410.799 Y-87.681 Z-55.054 I0.000 J-1.587 K0.000 F800.000
G1 X410.799 Y-99.681 Z-55.054 F800.000
G2 X409.211 Y-101.268 Z-55.054 I-1.588 J0.000 K0.000 F800.000
G1 X407.532 Y-101.268 Z-55.054 F800.000
G2 X406.705 Y-101.036 Z-55.054 I0.000 J1.588 K0.000 F800.000
G3 X351.718 Y-101.036 Z-55.054 I-27.493 J-43.151 K0.000 F800.000
G2 X350.891 Y-101.268 Z-55.054 I-0.827 J1.355 K0.000 F800.000
G1 X349.211 Y-101.268 Z-55.054 F800.000
G2 X349.178 Y-101.268 Z-55.054 I-0.000 J1.587 K0.000 F800.000
G0 Z38.671
G0 X346.714 Z38.671
G0 X346.714 Z35.671
G1 X346.714 Y-101.268 Z-55.054 F200.000
G1 X346.714 Y-143.643 Z-55.054 F800.000
G2 X345.127 Y-145.231 Z-55.054 I-1.587 J-0.000 K0.000 F800.000
G1 X285.127 Y-145.231 Z-55.054 F800.000
G2 X283.539 Y-143.643 Z-55.054 I-0.000 J1.587 K0.000 F800.000
G1 X283.539 Y-86.390 Z-55.054 F800.000
G2 X285.127 Y-84.802 Z-55.054 I1.587 J0.000 K0.000 F800.000
G1 X345.127 Y-84.802 Z-55.054 F800.000
G2 X346.714 Y-86.390 Z-55.054 I0.000 J-1.587 K0.000 F800.000
G1 X346.714 Y-101.268 Z-55.054 F800.000
G0 Z38.671
G0 X348.492 Y-104.928 Z38.671
G0 X348.492 Y-104.928 Z35.671
G1 X348.492 Y-104.928 Z-55.054 F200.000
G2 X349.186 Y-104.769 Z-55.054 I0.694 J-1.428 K0.000 F800.000
G1 X409.186 Y-104.769 Z-55.054 F800.000
G2 X410.774 Y-106.356 Z-55.054 I0.000 J-1.587 K0.000 F800.000
G1 X410.774 Y-118.356 Z-55.054 F800.000
G2 X409.186 Y-119.944 Z-55.054 I-1.587 J-0.000 K0.000 F800.000
G1 X407.507 Y-119.944 Z-55.054 F800.000
G2 X406.680 Y-119.711 Z-55.054 I-0.000 J1.587 K0.000 F800.000
G3 X351.693 Y-119.711 Z-55.054 I-27.493 J-43.151 K0.000 F800.000
G2 X350.866 Y-119.944 Z-55.054 I-0.827 J1.355 K0.000 F800.000
G1 X349.186 Y-119.944 Z-55.054 F800.000
G2 X347.599 Y-118.356 Z-55.054 I-0.000 J1.587 K0.000 F800.000
G1 X347.599 Y-106.356 Z-55.054 F800.000
G2 X348.492 Y-104.928 Z-55.054 I1.587 J0.000 K0.000 F800.000
G0 Z38.671
G0 X348.989 Y-123.545 Z38.671
G0 X348.989 Y-123.545 Z35.671
G1 X348.989 Y-123.545 Z-55.054 F200.000
G2 X349.031 Y-123.545 Z-55.054 I0.042 J-1.587 K0.000 F800.000
G1 X409.031 Y-123.545 Z-55.054 F800.000
G2 X410.619 Y-125.132 Z-55.054 I0.000 J-1.587 K0.000 F800.000
G1 X410.619 Y-137.132 Z-55.054 F800.000
G2 X409.031 Y-138.719 Z-55.054 I-1.587 J-0.000 K0.000 F800.000
G1 X407.352 Y-138.719 Z-55.054 F800.000
G2 X406.525 Y-138.487 Z-55.054 I0.000 J1.588 K0.000 F800.000
G3 X351.538 Y-138.487 Z-55.054 I-27.493 J-43.151 K0.000 F800.000
G2 X350.711 Y-138.719 Z-55.054 I-0.827 J1.355 K0.000 F800.000
G1 X349.031 Y-138.719 Z-55.054 F800.000
G2 X347.444 Y-137.132 Z-55.054 I-0.000 J1.587 K0.000 F800.000
G1 X347.444 Y-125.132 Z-55.054 F800.000
G2 X348.989 Y-123.545 Z-55.054 I1.587 J0.000 K0.000 F800.000
G0 Z38.671
G0 X281.050 Z38.671
G0 X281.050 Z35.671
G1 X281.050 Y-123.545 Z-55.054 F200.000
G1 X281.050 Y-143.190 Z-55.054 F800.000
G2 X279.462 Y-144.777 Z-55.054 I-1.587 J-0.000 K0.000 F800.000
G1 X219.462 Y-144.777 Z-55.054 F800.000
G2 X217.875 Y-143.190 Z-55.054 I-0.000 J1.587 K0.000 F800.000
G1 X217.875 Y-85.936 Z-55.054 F800.000
G2 X219.462 Y-84.349 Z-55.054 I1.587 J0.000 K0.000 F800.000
G1 X279.462 Y-84.349 Z-55.054 F800.000
G2 X281.050 Y-85.936 Z-55.054 I0.000 J-1.587 K0.000 F800.000
G1 X281.050 Y-123.545 Z-55.054 F800.000
G1 X281.050 Y-123.545 Z-58.229 F200.000
G1 X281.050 Y-143.190 Z-58.229 F800.000
G2 X279.462 Y-144.777 Z-58.229 I-1.587 J-0.000 K0.000 F800.000
G1 X219.462 Y-144.777 Z-58.229 F800.000
G2 X217.875 Y-143.190 Z-58.229 I-0.000 J1.587 K0.000 F800.000
G1 X217.875 Y-85.936 Z-58.229 F800.000
G2 X219.462 Y-84.349 Z-58.229 I1.587 J0.000 K0.000 F800.000
G1 X279.462 Y-84.349 Z-58.229 F800.000
G2 X281.050 Y-85.936 Z-58.229 I0.000 J-1.587 K0.000 F800.000
G1 X281.050 Y-123.545 Z-58.229 F800.000
G0 Z38.671
G0 X283.539 Z38.671
G0 X283.539 Z35.671
G1 X283.539 Y-123.545 Z-58.229 F200.000
G1 X283.539 Y-86.390 Z-58.229 F800.000
G2 X285.127 Y-84.802 Z-58.229 I1.587 J0.000 K0.000 F800.000
G1 X345.127 Y-84.802 Z-58.229 F800.000
G2 X346.714 Y-86.390 Z-58.229 I0.000 J-1.587 K0.000 F800.000
G1 X346.714 Y-143.643 Z-58.229 F800.000
G2 X345.127 Y-145.231 Z-58.229 I-1.587 J-0.000 K0.000 F800.000
G1 X285.127 Y-145.231 Z-58.229 F800.000
G2 X283.539 Y-143.643 Z-58.229 I-0.000 J1.587 K0.000 F800.000
G1 X283.539 Y-123.545 Z-58.229 F800.000
G0 Z38.671
G0 X347.444 Y-125.094 Z38.671
G0 X347.444 Y-125.094 Z35.671
G1 X347.444 Y-125.094 Z-58.229 F200.000
G2 X349.031 Y-123.545 Z-58.229 I1.587 J-0.038 K0.000 F800.000
G1 X409.031 Y-123.545 Z-58.229 F800.000
G2 X410.619 Y-125.132 Z-58.229 I0.000 J-1.587 K0.000 F800.000
G1 X410.619 Y-137.132 Z-58.229 F800.000
G2 X409.031 Y-138.719 Z-58.229 I-1.587 J-0.000 K0.000 F800.000
G1 X407.352 Y-138.719 Z-58.229 F800.000
G2 X406.525 Y-138.487 Z-58.229 I0.000 J1.588 K0.000 F800.000
G3 X351.538 Y-138.487 Z-58.229 I-27.493 J-43.151 K0.000 F800.000
G2 X350.711 Y-138.719 Z-58.229 I-0.827 J1.355 K0.000 F800.000
G1 X349.031 Y-138.719 Z-58.229 F800.000
G2 X347.444 Y-137.132 Z-58.229 I-0.000 J1.587 K0.000 F800.000
G1 X347.444 Y-125.132 Z-58.229 F800.000
G2 X347.444 Y-125.094 Z-58.229 I1.587 J0.000 K0.000 F800.000
G0 Z38.671
G0 X348.789 Y-119.893 Z38.671
G0 X348.789 Y-119.893 Z35.671
G1 X348.789 Y-119.893 Z-58.229 F200.000
G2 X347.599 Y-118.356 Z-58.229 I0.397 J1.537 K0.000 F800.000
G1 X347.599 Y-106.356 Z-58.229 F800.000
G2 X349.186 Y-104.769 Z-58.229 I1.587 J0.000 K0.000 F800.000
G1 X409.186 Y-104.769 Z-58.229 F800.000
G2 X410.774 Y-106.356 Z-58.229 I0.000 J-1.587 K0.000 F800.000
G1 X410.774 Y-118.356 Z-58.229 F800.000
G2 X409.186 Y-119.944 Z-58.229 I-1.587 J-0.000 K0.000 F800.000
G1 X407.507 Y-119.944 Z-58.229 F800.000
G2 X406.680 Y-119.711 Z-58.229 I-0.000 J1.587 K0.000 F800.000
G3 X351.693 Y-119.711 Z-58.229 I-27.493 J-43.151 K0.000 F800.000
G2 X350.866 Y-119.944 Z-58.229 I-0.827 J1.355 K0.000 F800.000
G1 X349.186 Y-119.944 Z-58.229 F800.000
G2 X348.789 Y-119.893 Z-58.229 I-0.000 J1.587 K0.000 F800.000
G0 Z38.671
G0 X349.178 Y-101.268 Z38.671
G0 X349.178 Y-101.268 Z35.671
G1 X349.178 Y-101.268 Z-58.229 F200.000
G2 X347.624 Y-99.681 Z-58.229 I0.033 J1.587 K0.000 F800.000
G1 X347.624 Y-87.681 Z-58.229 F800.000
G2 X349.211 Y-86.094 Z-58.229 I1.587 J0.000 K0.000 F800.000
G1 X409.211 Y-86.094 Z-58.229 F800.000
G2 X410.799 Y-87.681 Z-58.229 I0.000 J-1.587 K0.000 F800.000
G1 X410.799 Y-99.681 Z-58.229 F800.000
G2 X409.211 Y-101.268 Z-58.229 I-1.588 J0.000 K0.000 F800.000
G1 X407.532 Y-101.268 Z-58.229 F800.000
G2 X406.705 Y-101.036 Z-58.229 I0.000 J1.588 K0.000 F800.000
G3 X351.718 Y-101.036 Z-58.229 I-27.493 J-43.151 K0.000 F800.000
G2 X350.891 Y-101.268 Z-58.229 I-0.827 J1.355 K0.000 F800.000
G1 X349.211 Y-101.268 Z-58.229 F800.000
G2 X349.178 Y-101.268 Z-58.229 I-0.000 J1.587 K0.000 F800.000
G1 X349.178 Y-101.268 Z-61.404 F200.000
G2 X347.624 Y-99.681 Z-61.404 I0.033 J1.587 K0.000 F800.000
G1 X347.624 Y-87.681 Z-61.404 F800.000
G2 X349.211 Y-86.094 Z-61.404 I1.587 J0.000 K0.000 F800.000
G1 X409.211 Y-86.094 Z-61.404 F800.000
G2 X410.799 Y-87.681 Z-61.404 I0.000 J-1.587 K0.000 F800.000
G1 X410.799 Y-99.681 Z-61.404 F800.000
G2 X409.211 Y-101.268 Z-61.404 I-1.588 J0.000 K0.000 F800.000
G1 X407.532 Y-101.268 Z-61.404 F800.000
G2 X406.705 Y-101.036 Z-61.404 I0.000 J1.588 K0.000 F800.000
G3 X351.718 Y-101.036 Z-61.404 I-27.493 J-43.151 K0.000 F800.000
G2 X350.891 Y-101.268 Z-61.404 I-0.827 J1.355 K0.000 F800.000
G1 X349.211 Y-101.268 Z-61.404 F800.000
G2 X349.178 Y-101.268 Z-61.404 I-0.000 J1.587 K0.000 F800.000
G0 Z38.671
G0 X346.714 Z38.671
G0 X346.714 Z35.671
G1 X346.714 Y-101.268 Z-61.404 F200.000
G1 X346.714 Y-143.643 Z-61.404 F800.000
G2 X345.127 Y-145.231 Z-61.404 I-1.587 J-0.000 K0.000 F800.000
G1 X285.127 Y-145.231 Z-61.404 F800.000
G2 X283.539 Y-143.643 Z-61.404 I-0.000 J1.587 K0.000 F800.000
G1 X283.539 Y-86.390 Z-61.404 F800.000
G2 X285.127 Y-84.802 Z-61.404 I1.587 J0.000 K0.000 F800.000
G1 X345.127 Y-84.802 Z-61.404 F800.000
G2 X346.714 Y-86.390 Z-61.404 I0.000 J-1.587 K0.000 F800.000
G1 X346.714 Y-101.268 Z-61.404 F800.000
G0 Z38.671
G0 X348.492 Y-104.928 Z38.671
G0 X348.492 Y-104.928 Z35.671
G1 X348.492 Y-104.928 Z-61.404 F200.000
G2 X349.186 Y-104.769 Z-61.404 I0.694 J-1.428 K0.000 F800.000
G1 X409.186 Y-104.769 Z-61.404 F800.000
G2 X410.774 Y-106.356 Z-61.404 I0.000 J-1.587 K0.000 F800.000
G1 X410.774 Y-118.356 Z-61.404 F800.000
G2 X409.186 Y-119.944 Z-61.404 I-1.587 J-0.000 K0.000 F800.000
G1 X407.507 Y-119.944 Z-61.404 F800.000
G2 X406.680 Y-119.711 Z-61.404 I-0.000 J1.587 K0.000 F800.000
G3 X351.693 Y-119.711 Z-61.404 I-27.493 J-43.151 K0.000 F800.000
G2 X350.866 Y-119.944 Z-61.404 I-0.827 J1.355 K0.000 F800.000
G1 X349.186 Y-119.944 Z-61.404 F800.000
G2 X347.599 Y-118.356 Z-61.404 I-0.000 J1.587 K0.000 F800.000
G1 X347.599 Y-106.356 Z-61.404 F800.000
G2 X348.492 Y-104.928 Z-61.404 I1.587 J0.000 K0.000 F800.000
G0 Z38.671
G0 X348.989 Y-123.545 Z38.671
G0 X348.989 Y-123.545 Z35.671
G1 X348.989 Y-123.545 Z-61.404 F200.000
G2 X349.031 Y-123.545 Z-61.404 I0.042 J-1.587 K0.000 F800.000
G1 X409.031 Y-123.545 Z-61.404 F800.000
G2 X410.619 Y-125.132 Z-61.404 I0.000 J-1.587 K0.000 F800.000
G1 X410.619 Y-137.132 Z-61.404 F800.000
G2 X409.031 Y-138.719 Z-61.404 I-1.587 J-0.000 K0.000 F800.000
G1 X407.352 Y-138.719 Z-61.404 F800.000
G2 X406.525 Y-138.487 Z-61.404 I0.000 J1.588 K0.000 F800.000
G3 X351.538 Y-138.487 Z-61.404 I-27.493 J-43.151 K0.000 F800.000
G2 X350.711 Y-138.719 Z-61.404 I-0.827 J1.355 K0.000 F800.000
G1 X349.031 Y-138.719 Z-61.404 F800.000
G2 X347.444 Y-137.132 Z-61.404 I-0.000 J1.587 K0.000 F800.000
G1 X347.444 Y-125.132 Z-61.404 F800.000
G2 X348.989 Y-123.545 Z-61.404 I1.587 J0.000 K0.000 F800.000
G0 Z38.671
G0 X281.050 Z38.671
G0 X281.050 Z35.671
G1 X281.050 Y-123.545 Z-61.404 F200.000
G1 X281.050 Y-143.190 Z-61.404 F800.000
G2 X279.462 Y-144.777 Z-61.404 I-1.587 J-0.000 K0.000 F800.000
G1 X219.462 Y-144.777 Z-61.404 F800.000
G2 X217.875 Y-143.190 Z-61.404 I-0.000 J1.587 K0.000 F800.000
G1 X217.875 Y-85.936 Z-61.404 F800.000
G2 X219.462 Y-84.349 Z-61.404 I1.587 J0.000 K0.000 F800.000
G1 X279.462 Y-84.349 Z-61.404 F800.000
G2 X281.050 Y-85.936 Z-61.404 I0.000 J-1.587 K0.000 F800.000
G1 X281.050 Y-123.545 Z-61.404 F800.000
G1 X281.050 Y-123.545 Z-64.579 F200.000
G1 X281.050 Y-143.190 Z-64.579 F800.000
G2 X279.462 Y-144.777 Z-64.579 I-1.587 J-0.000 K0.000 F800.000
G1 X219.462 Y-144.777 Z-64.579 F800.000
G2 X217.875 Y-143.190 Z-64.579 I-0.000 J1.587 K0.000 F800.000
G1 X217.875 Y-85.936 Z-64.579 F800.000
G2 X219.462 Y-84.349 Z-64.579 I1.587 J0.000 K0.000 F800.000
G1 X279.462 Y-84.349 Z-64.579 F800.000
G2 X281.050 Y-85.936 Z-64.579 I0.000 J-1.587 K0.000 F800.000
G1 X281.050 Y-123.545 Z-64.579 F800.000
G0 Z38.671
G0 X283.539 Z38.671
G0 X283.539 Z35.671
G1 X283.539 Y-123.545 Z-64.579 F200.000
G1 X283.539 Y-86.390 Z-64.579 F800.000
G2 X285.127 Y-84.802 Z-64.579 I1.587 J0.000 K0.000 F800.000
G1 X345.127 Y-84.802 Z-64.579 F800.000
G2 X346.714 Y-86.390 Z-64.579 I0.000 J-1.587 K0.000 F800.000
G1 X346.714 Y-143.643 Z-64.579 F800.000
G2 X345.127 Y-145.231 Z-64.579 I-1.587 J-0.000 K0.000 F800.000
G1 X285.127 Y-145.231 Z-64.579 F800.000
G2 X283.539 Y-143.643 Z-64.579 I-0.000 J1.587 K0.000 F800.000
