(Exported by FreeCAD)
(Post Processor: grbl_post)
(Output Time:2022-05-23 18:44:05.453495)
(Begin preamble)
G17 G90
G21
(Begin operation: Fixture)
(Path: Fixture)
G54
(Finish operation: Fixture)
(Begin operation: TC: 25degree_Vbit007)
(Path: TC: 25degree_Vbit007)
(TC: 25degree_Vbit007)
(Begin toolchange)
( M6 T2.0 )
M3 S12000.0
(Finish operation: TC: 25degree_Vbit007)
(Begin operation: Profile004)
(Path: Profile004)
(Profile004)
(Compensated Tool Path. Diameter: 3.175)
G0 Z8.000
G0 X409.894 Y-86.248
G0 Z5.000
G1 X409.894 Y-86.248 Z0.000 F200.000
G2 X410.799 Y-87.681 Z0.000 I-0.683 J-1.433 K0.000 F800.000
G1 X410.799 Y-99.681 Z0.000 F800.000
G2 X409.211 Y-101.268 Z0.000 I-1.588 J0.000 K0.000 F800.000
G1 X407.532 Y-101.268 Z0.000 F800.000
G2 X406.705 Y-101.036 Z0.000 I0.000 J1.588 K0.000 F800.000
G3 X351.718 Y-101.036 Z0.000 I-27.493 J-43.151 K0.000 F800.000
G2 X350.891 Y-101.268 Z0.000 I-0.827 J1.355 K0.000 F800.000
G1 X349.211 Y-101.268 Z0.000 F800.000
G2 X347.624 Y-99.681 Z0.000 I-0.000 J1.587 K0.000 F800.000
G1 X347.624 Y-87.681 Z0.000 F800.000
G2 X349.211 Y-86.094 Z0.000 I1.587 J0.000 K0.000 F800.000
G1 X409.211 Y-86.094 Z0.000 F800.000
G2 X409.894 Y-86.248 Z0.000 I0.000 J-1.587 K0.000 F800.000
G0 Z8.000
G0 X409.242 Y-104.770 Z8.000
G0 X409.242 Y-104.770 Z5.000
G1 X409.242 Y-104.770 Z0.000 F200.000
G2 X410.774 Y-106.356 Z0.000 I-0.056 J-1.587 K0.000 F800.000
G1 X410.774 Y-118.356 Z0.000 F800.000
G2 X409.186 Y-119.944 Z0.000 I-1.587 J-0.000 K0.000 F800.000
G1 X407.507 Y-119.944 Z0.000 F800.000
G2 X406.680 Y-119.711 Z0.000 I-0.000 J1.587 K0.000 F800.000
G3 X351.693 Y-119.711 Z0.000 I-27.493 J-43.151 K0.000 F800.000
G2 X350.866 Y-119.944 Z0.000 I-0.827 J1.355 K0.000 F800.000
G1 X349.186 Y-119.944 Z0.000 F800.000
G2 X347.599 Y-118.356 Z0.000 I-0.000 J1.587 K0.000 F800.000
G1 X347.599 Y-106.356 Z0.000 F800.000
G2 X349.186 Y-104.769 Z0.000 I1.587 J0.000 K0.000 F800.000
G1 X409.186 Y-104.769 Z0.000 F800.000
G2 X409.242 Y-104.770 Z0.000 I0.000 J-1.587 K0.000 F800.000
G0 Z8.000
G0 X409.048 Y-123.545 Z8.000
G0 X409.048 Y-123.545 Z5.000
G1 X409.048 Y-123.545 Z0.000 F200.000
G2 X410.619 Y-125.132 Z0.000 I-0.016 J-1.587 K0.000 F800.000
G1 X410.619 Y-137.132 Z0.000 F800.000
G2 X409.031 Y-138.719 Z0.000 I-1.587 J-0.000 K0.000 F800.000
G1 X407.352 Y-138.719 Z0.000 F800.000
G2 X406.525 Y-138.487 Z0.000 I0.000 J1.588 K0.000 F800.000
G3 X351.538 Y-138.487 Z0.000 I-27.493 J-43.151 K0.000 F800.000
G2 X350.711 Y-138.719 Z0.000 I-0.827 J1.355 K0.000 F800.000
G1 X349.031 Y-138.719 Z0.000 F800.000
G2 X347.444 Y-137.132 Z0.000 I-0.000 J1.587 K0.000 F800.000
G1 X347.444 Y-125.132 Z0.000 F800.000
G2 X349.031 Y-123.545 Z0.000 I1.587 J0.000 K0.000 F800.000
G1 X409.031 Y-123.545 Z0.000 F800.000
G2 X409.048 Y-123.545 Z0.000 I0.000 J-1.587 K0.000 F800.000
G0 Z8.000
G0 X346.714 Z8.000
G0 X346.714 Z5.000
G1 X346.714 Y-123.545 Z0.000 F200.000
G1 X346.714 Y-143.643 Z0.000 F800.000
G2 X345.127 Y-145.231 Z0.000 I-1.587 J-0.000 K0.000 F800.000
G1 X285.127 Y-145.231 Z0.000 F800.000
G2 X283.539 Y-143.643 Z0.000 I-0.000 J1.587 K0.000 F800.000
G1 X283.539 Y-86.390 Z0.000 F800.000
G2 X285.127 Y-84.802 Z0.000 I1.587 J0.000 K0.000 F800.000
G1 X345.127 Y-84.802 Z0.000 F800.000
G2 X346.714 Y-86.390 Z0.000 I0.000 J-1.587 K0.000 F800.000
G1 X346.714 Y-123.545 Z0.000 F800.000
G0 Z8.000
G0 X281.050 Z8.000
G0 X281.050 Z5.000
G1 X281.050 Y-123.545 Z0.000 F200.000
G1 X281.050 Y-143.190 Z0.000 F800.000
G2 X279.462 Y-144.777 Z0.000 I-1.587 J-0.000 K0.000 F800.000
G1 X219.462 Y-144.777 Z0.000 F800.000
G2 X217.875 Y-143.190 Z0.000 I-0.000 J1.587 K0.000 F800.000
G1 X217.875 Y-85.936 Z0.000 F800.000
G2 X219.462 Y-84.349 Z0.000 I1.587 J0.000 K0.000 F800.000
G1 X279.462 Y-84.349 Z0.000 F800.000
G2 X281.050 Y-85.936 Z0.000 I0.000 J-1.587 K0.000 F800.000
G1 X281.050 Y-123.545 Z0.000 F800.000
G1 X281.050 Y-123.545 Z0.000 F200.000
G1 X281.050 Y-143.190 Z0.000 F800.000
G2 X279.462 Y-144.777 Z0.000 I-1.587 J-0.000 K0.000 F800.000
G1 X219.462 Y-144.777 Z0.000 F800.000
G2 X217.875 Y-143.190 Z0.000 I-0.000 J1.587 K0.000 F800.000
G1 X217.875 Y-85.936 Z0.000 F800.000
G2 X219.462 Y-84.349 Z0.000 I1.587 J0.000 K0.000 F800.000
G1 X279.462 Y-84.349 Z0.000 F800.000
G2 X281.050 Y-85.936 Z0.000 I0.000 J-1.587 K0.000 F800.000
G1 X281.050 Y-123.545 Z0.000 F800.000
G0 Z8.000
G0 X283.539 Z8.000
G0 X283.539 Z5.000
G1 X283.539 Y-123.545 Z0.000 F200.000
G1 X283.539 Y-86.390 Z0.000 F800.000
G2 X285.127 Y-84.802 Z0.000 I1.587 J0.000 K0.000 F800.000
G1 X345.127 Y-84.802 Z0.000 F800.000
G2 X346.714 Y-86.390 Z0.000 I0.000 J-1.587 K0.000 F800.000
G1 X346.714 Y-143.643 Z0.000 F800.000
G2 X345.127 Y-145.231 Z0.000 I-1.587 J-0.000 K0.000 F800.000
G1 X285.127 Y-145.231 Z0.000 F800.000
G2 X283.539 Y-143.643 Z0.000 I-0.000 J1.587 K0.000 F800.000
G1 X283.539 Y-123.545 Z0.000 F800.000
G0 Z8.000
G0 X347.444 Y-125.094 Z8.000
G0 X347.444 Y-125.094 Z5.000
G1 X347.444 Y-125.094 Z0.000 F200.000
G2 X349.031 Y-123.545 Z0.000 I1.587 J-0.038 K0.000 F800.000
G1 X409.031 Y-123.545 Z0.000 F800.000
G2 X410.619 Y-125.132 Z0.000 I0.000 J-1.587 K0.000 F800.000
G1 X410.619 Y-137.132 Z0.000 F800.000
G2 X409.031 Y-138.719 Z0.000 I-1.587 J-0.000 K0.000 F800.000
G1 X407.352 Y-138.719 Z0.000 F800.000
G2 X406.525 Y-138.487 Z0.000 I0.000 J1.588 K0.000 F800.000
G3 X351.538 Y-138.487 Z0.000 I-27.493 J-43.151 K0.000 F800.000
G2 X350.711 Y-138.719 Z0.000 I-0.827 J1.355 K0.000 F800.000
G1 X349.031 Y-138.719 Z0.000 F800.000
G2 X347.444 Y-137.132 Z0.000 I-0.000 J1.587 K0.000 F800.000
G1 X347.444 Y-125.132 Z0.000 F800.000
G2 X347.444 Y-125.094 Z0.000 I1.587 J0.000 K0.000 F800.000
G0 Z8.000
G0 X348.789 Y-119.893 Z8.000
G0 X348.789 Y-119.893 Z5.000
G1 X348.789 Y-119.893 Z0.000 F200.000
G2 X347.599 Y-118.356 Z0.000 I0.397 J1.537 K0.000 F800.000
G1 X347.599 Y-106.356 Z0.000 F800.000
G2 X349.186 Y-104.769 Z0.000 I1.587 J0.000 K0.000 F800.000
G1 X409.186 Y-104.769 Z0.000 F800.000
G2 X410.774 Y-106.356 Z0.000 I0.000 J-1.587 K0.000 F800.000
G1 X410.774 Y-118.356 Z0.000 F800.000
G2 X409.186 Y-119.944 Z0.000 I-1.587 J-0.000 K0.000 F800.000
G1 X407.507 Y-119.944 Z0.000 F800.000
G2 X406.680 Y-119.711 Z0.000 I-0.000 J1.587 K0.000 F800.000
G3 X351.693 Y-119.711 Z0.000 I-27.493 J-43.151 K0.000 F800.000
G2 X350.866 Y-119.944 Z0.000 I-0.827 J1.355 K0.000 F800.000
G1 X349.186 Y-119.944 Z0.000 F800.000
G2 X348.789 Y-119.893 Z0.000 I-0.000 J1.587 K0.000 F800.000
G0 Z8.000
G0 X349.178 Y-101.268 Z8.000
G0 X349.178 Y-101.268 Z5.000
G1 X349.178 Y-101.268 Z0.000 F200.000
G2 X347.624 Y-99.681 Z0.000 I0.033 J1.587 K0.000 F800.000
G1 X347.624 Y-87.681 Z0.000 F800.000
G2 X349.211 Y-86.094 Z0.000 I1.587 J0.000 K0.000 F800.000
G1 X409.211 Y-86.094 Z0.000 F800.000
G2 X410.799 Y-87.681 Z0.000 I0.000 J-1.587 K0.000 F800.000
G1 X410.799 Y-99.681 Z0.000 F800.000
G2 X409.211 Y-101.268 Z0.000 I-1.588 J0.000 K0.000 F800.000
G1 X407.532 Y-101.268 Z0.000 F800.000
G2 X406.705 Y-101.036 Z0.000 I0.000 J1.588 K0.000 F800.000
G3 X351.718 Y-101.036 Z0.000 I-27.493 J-43.151 K0.000 F800.000
G2 X350.891 Y-101.268 Z0.000 I-0.827 J1.355 K0.000 F800.000
G1 X349.211 Y-101.268 Z0.000 F800.000
G2 X349.178 Y-101.268 Z0.000 I-0.000 J1.587 K0.000 F800.000
G1 X349.178 Y-101.268 Z0.000 F200.000
G2 X347.624 Y-99.681 Z0.000 I0.033 J1.587 K0.000 F800.000
G1 X347.624 Y-87.681 Z0.000 F800.000
G2 X349.211 Y-86.094 Z0.000 I1.587 J0.000 K0.000 F800.000
G1 X409.211 Y-86.094 Z0.000 F800.000
G2 X410.799 Y-87.681 Z0.000 I0.000 J-1.587 K0.000 F800.000
G1 X410.799 Y-99.681 Z0.000 F800.000
G2 X409.211 Y-101.268 Z0.000 I-1.588 J0.000 K0.000 F800.000
G1 X407.532 Y-101.268 Z0.000 F800.000
G2 X406.705 Y-101.036 Z0.000 I0.000 J1.588 K0.000 F800.000
G3 X351.718 Y-101.036 Z0.000 I-27.493 J-43.151 K0.000 F800.000
G2 X350.891 Y-101.268 Z0.000 I-0.827 J1.355 K0.000 F800.000
G1 X349.211 Y-101.268 Z0.000 F800.000
G2 X349.178 Y-101.268 Z0.000 I-0.000 J1.587 K0.000 F800.000
G0 Z8.000
G0 X346.714 Z8.000
G0 X346.714 Z5.000
G1 X346.714 Y-101.268 Z0.000 F200.000
G1 X346.714 Y-143.643 Z0.000 F800.000
G2 X345.127 Y-145.231 Z0.000 I-1.587 J-0.000 K0.000 F800.000
G1 X285.127 Y-145.231 Z0.000 F800.000
G2 X283.539 Y-143.643 Z0.000 I-0.000 J1.587 K0.000 F800.000
G1 X283.539 Y-86.390 Z0.000 F800.000
G2 X285.127 Y-84.802 Z0.000 I1.587 J0.000 K0.000 F800.000
G1 X345.127 Y-84.802 Z0.000 F800.000
G2 X346.714 Y-86.390 Z0.000 I0.000 J-1.587 K0.000 F800.000
G1 X346.714 Y-101.268 Z0.000 F800.000
G0 Z8.000
G0 X348.492 Y-104.928 Z8.000
G0 X348.492 Y-104.928 Z5.000
G1 X348.492 Y-104.928 Z0.000 F200.000
G2 X349.186 Y-104.769 Z0.000 I0.694 J-1.428 K0.000 F800.000
G1 X409.186 Y-104.769 Z0.000 F800.000
G2 X410.774 Y-106.356 Z0.000 I0.000 J-1.587 K0.000 F800.000
G1 X410.774 Y-118.356 Z0.000 F800.000
G2 X409.186 Y-119.944 Z0.000 I-1.587 J-0.000 K0.000 F800.000
G1 X407.507 Y-119.944 Z0.000 F800.000
G2 X406.680 Y-119.711 Z0.000 I-0.000 J1.587 K0.000 F800.000
G3 X351.693 Y-119.711 Z0.000 I-27.493 J-43.151 K0.000 F800.000
G2 X350.866 Y-119.944 Z0.000 I-0.827 J1.355 K0.000 F800.000
G1 X349.186 Y-119.944 Z0.000 F800.000
G2 X347.599 Y-118.356 Z0.000 I-0.000 J1.587 K0.000 F800.000
G1 X347.599 Y-106.356 Z0.000 F800.000
G2 X348.492 Y-104.928 Z0.000 I1.587 J0.000 K0.000 F800.000
G0 Z8.000
G0 X348.989 Y-123.545 Z8.000
G0 X348.989 Y-123.545 Z5.000
G1 X348.989 Y-123.545 Z0.000 F200.000
G2 X349.031 Y-123.545 Z0.000 I0.042 J-1.587 K0.000 F800.000
G1 X409.031 Y-123.545 Z0.000 F800.000
G2 X410.619 Y-125.132 Z0.000 I0.000 J-1.587 K0.000 F800.000
G1 X410.619 Y-137.132 Z0.000 F800.000
G2 X409.031 Y-138.719 Z0.000 I-1.587 J-0.000 K0.000 F800.000
G1 X407.352 Y-138.719 Z0.000 F800.000
G2 X406.525 Y-138.487 Z0.000 I0.000 J1.588 K0.000 F800.000
G3 X351.538 Y-138.487 Z0.000 I-27.493 J-43.151 K0.000 F800.000
G2 X350.711 Y-138.719 Z0.000 I-0.827 J1.355 K0.000 F800.000
G1 X349.031 Y-138.719 Z0.000 F800.000
G2 X347.444 Y-137.132 Z0.000 I-0.000 J1.587 K0.000 F800.000
G1 X347.444 Y-125.132 Z0.000 F800.000
G2 X348.989 Y-123.545 Z0.000 I1.587 J0.000 K0.000 F800.000
G0 Z8.000
G0 X281.050 Z8.000
G0 X281.050 Z5.000
G1 X281.050 Y-123.545 Z0.000 F200.000
G1 X281.050 Y-143.190 Z0.000 F800.000
G2 X279.462 Y-144.777 Z0.000 I-1.587 J-0.000 K0.000 F800.000
G1 X219.462 Y-144.777 Z0.000 F800.000
G2 X217.875 Y-143.190 Z0.000 I-0.000 J1.587 K0.000 F800.000
G1 X217.875 Y-85.936 Z0.000 F800.000
G2 X219.462 Y-84.349 Z0.000 I1.587 J0.000 K0.000 F800.000
G1 X279.462 Y-84.349 Z0.000 F800.000
G2 X281.050 Y-85.936 Z0.000 I0.000 J-1.587 K0.000 F800.000
G1 X281.050 Y-123.545 Z0.000 F800.000
G1 X281.050 Y-123.545 Z0.000 F200.000
G1 X281.050 Y-143.190 Z0.000 F800.000
G2 X279.462 Y-144.777 Z0.000 I-1.587 J-0.000 K0.000 F800.000
G1 X219.462 Y-144.777 Z0.000 F800.000
G2 X217.875 Y-143.190 Z0.000 I-0.000 J1.587 K0.000 F800.000
G1 X217.875 Y-85.936 Z0.000 F800.000
G2 X219.462 Y-84.349 Z0.000 I1.587 J0.000 K0.000 F800.000
G1 X279.462 Y-84.349 Z0.000 F800.000
G2 X281.050 Y-85.936 Z0.000 I0.000 J-1.587 K0.000 F800.000
G1 X281.050 Y-123.545 Z0.000 F800.000
G0 Z8.000
G0 X283.539 Z8.000
G0 X283.539 Z5.000
G1 X283.539 Y-123.545 Z0.000 F200.000
G1 X283.539 Y-86.390 Z0.000 F800.000
G2 X285.127 Y-84.802 Z0.000 I1.587 J0.000 K0.000 F800.000
G1 X345.127 Y-84.802 Z0.000 F800.000
G2 X346.714 Y-86.390 Z0.000 I0.000 J-1.587 K0.000 F800.000
G1 X346.714 Y-143.643 Z0.000 F800.000
G2 X345.127 Y-145.231 Z0.000 I-1.587 J-0.000 K0.000 F800.000
G1 X285.127 Y-145.231 Z0.000 F800.000
G2 X283.539 Y-143.643 Z0.000 I-0.000 J1.587 K0.000 F800.000
G1 X283.539 Y-123.545 Z0.000 F800.000
G0 Z8.000
G0 X347.444 Y-125.094 Z8.000
G0 X347.444 Y-125.094 Z5.000
G1 X347.444 Y-125.094 Z0.000 F200.000
G2 X349.031 Y-123.545 Z0.000 I1.587 J-0.038 K0.000 F800.000
G1 X409.031 Y-123.545 Z0.000 F800.000
G2 X410.619 Y-125.132 Z0.000 I0.000 J-1.587 K0.000 F800.000
G1 X410.619 Y-137.132 Z0.000 F800.000
G2 X409.031 Y-138.719 Z0.000 I-1.587 J-0.000 K0.000 F800.000
G1 X407.352 Y-138.719 Z0.000 F800.000
G2 X406.525 Y-138.487 Z0.000 I0.000 J1.588 K0.000 F800.000
G3 X351.538 Y-138.487 Z0.000 I-27.493 J-43.151 K0.000 F800.000
G2 X350.711 Y-138.719 Z0.000 I-0.827 J1.355 K0.000 F800.000
G1 X349.031 Y-138.719 Z0.000 F800.000
G2 X347.444 Y-137.132 Z0.000 I-0.000 J1.587 K0.000 F800.000
G1 X347.444 Y-125.132 Z0.000 F800.000
G2 X347.444 Y-125.094 Z0.000 I1.587 J0.000 K0.000 F800.000
G0 Z8.000
G0 X348.789 Y-119.893 Z8.000
G0 X348.789 Y-119.893 Z5.000
G1 X348.789 Y-119.893 Z0.000 F200.000
G2 X347.599 Y-118.356 Z0.000 I0.397 J1.537 K0.000 F800.000
G1 X347.599 Y-106.356 Z0.000 F800.000
G2 X349.186 Y-104.769 Z0.000 I1.587 J0.000 K0.000 F800.000
G1 X409.186 Y-104.769 Z0.000 F800.000
G2 X410.774 Y-106.356 Z0.000 I0.000 J-1.587 K0.000 F800.000
G1 X410.774 Y-118.356 Z0.000 F800.000
G2 X409.186 Y-119.944 Z0.000 I-1.587 J-0.000 K0.000 F800.000
G1 X407.507 Y-119.944 Z0.000 F800.000
G2 X406.680 Y-119.711 Z0.000 I-0.000 J1.587 K0.000 F800.000
G3 X351.693 Y-119.711 Z0.000 I-27.493 J-43.151 K0.000 F800.000
G2 X350.866 Y-119.944 Z0.000 I-0.827 J1.355 K0.000 F800.000
G1 X349.186 Y-119.944 Z0.000 F800.000
G2 X348.789 Y-119.893 Z0.000 I-0.000 J1.587 K0.000 F800.000
G0 Z8.000
G0 X349.178 Y-101.268 Z8.000
G0 X349.178 Y-101.268 Z5.000
G1 X349.178 Y-101.268 Z0.000 F200.000
G2 X347.624 Y-99.681 Z0.000 I0.033 J1.587 K0.000 F800.000
G1 X347.624 Y-87.681 Z0.000 F800.000
G2 X349.211 Y-86.094 Z0.000 I1.587 J0.000 K0.000 F800.000
G1 X409.211 Y-86.094 Z0.000 F800.000
G2 X410.799 Y-87.681 Z0.000 I0.000 J-1.587 K0.000 F800.000
G1 X410.799 Y-99.681 Z0.000 F800.000
G2 X409.211 Y-101.268 Z0.000 I-1.588 J0.000 K0.000 F800.000
G1 X407.532 Y-101.268 Z0.000 F800.000
G2 X406.705 Y-101.036 Z0.000 I0.000 J1.588 K0.000 F800.000
G3 X351.718 Y-101.036 Z0.000 I-27.493 J-43.151 K0.000 F800.000
G2 X350.891 Y-101.268 Z0.000 I-0.827 J1.355 K0.000 F800.000
G1 X349.211 Y-101.268 Z0.000 F800.000
G2 X349.178 Y-101.268 Z0.000 I-0.000 J1.587 K0.000 F800.000
G1 X349.178 Y-101.268 Z0.000 F200.000
G2 X347.624 Y-99.681 Z0.000 I0.033 J1.587 K0.000 F800.000
G1 X347.624 Y-87.681 Z0.000 F800.000
G2 X349.211 Y-86.094 Z0.000 I1.587 J0.000 K0.000 F800.000
G1 X409.211 Y-86.094 Z0.000 F800.000
G2 X410.799 Y-87.681 Z0.000 I0.000 J-1.587 K0.000 F800.000
G1 X410.799 Y-99.681 Z0.000 F800.000
G2 X409.211 Y-101.268 Z0.000 I-1.588 J0.000 K0.000 F800.000
G1 X407.532 Y-101.268 Z0.000 F800.000
G2 X406.705 Y-101.036 Z0.000 I0.000 J1.588 K0.000 F800.000
G3 X351.718 Y-101.036 Z0.000 I-27.493 J-43.151 K0.000 F800.000
G2 X350.891 Y-101.268 Z0.000 I-0.827 J1.355 K0.000 F800.000
G1 X349.211 Y-101.268 Z0.000 F800.000
G2 X349.178 Y-101.268 Z0.000 I-0.000 J1.587 K0.000 F800.000
G0 Z8.000
G0 X346.714 Z8.000
G0 X346.714 Z5.000
G1 X346.714 Y-101.268 Z0.000 F200.000
G1 X346.714 Y-143.643 Z0.000 F800.000
G2 X345.127 Y-145.231 Z0.000 I-1.587 J-0.000 K0.000 F800.000
G1 X285.127 Y-145.231 Z0.000 F800.000
G2 X283.539 Y-143.643 Z0.000 I-0.000 J1.587 K0.000 F800.000
G1 X283.539 Y-86.390 Z0.000 F800.000
G2 X285.127 Y-84.802 Z0.000 I1.587 J0.000 K0.000 F800.000
G1 X345.127 Y-84.802 Z0.000 F800.000
G2 X346.714 Y-86.390 Z0.000 I0.000 J-1.587 K0.000 F800.000
G1 X346.714 Y-101.268 Z0.000 F800.000
G0 Z8.000
G0 X348.492 Y-104.928 Z8.000
G0 X348.492 Y-104.928 Z5.000
G1 X348.492 Y-104.928 Z0.000 F200.000
G2 X349.186 Y-104.769 Z0.000 I0.694 J-1.428 K0.000 F800.000
G1 X409.186 Y-104.769 Z0.000 F800.000
G2 X410.774 Y-106.356 Z0.000 I0.000 J-1.587 K0.000 F800.000
G1 X410.774 Y-118.356 Z0.000 F800.000
G2 X409.186 Y-119.944 Z0.000 I-1.587 J-0.000 K0.000 F800.000
G1 X407.507 Y-119.944 Z0.000 F800.000
G2 X406.680 Y-119.711 Z0.000 I-0.000 J1.587 K0.000 F800.000
G3 X351.693 Y-119.711 Z0.000 I-27.493 J-43.151 K0.000 F800.000
G2 X350.866 Y-119.944 Z0.000 I-0.827 J1.355 K0.000 F800.000
G1 X349.186 Y-119.944 Z0.000 F800.000
G2 X347.599 Y-118.356 Z0.000 I-0.000 J1.587 K0.000 F800.000
G1 X347.599 Y-106.356 Z0.000 F800.000
G2 X348.492 Y-104.928 Z0.000 I1.587 J0.000 K0.000 F800.000
G0 Z8.000
G0 X348.989 Y-123.545 Z8.000
G0 X348.989 Y-123.545 Z5.000
G1 X348.989 Y-123.545 Z0.000 F200.000
G2 X349.031 Y-123.545 Z0.000 I0.042 J-1.587 K0.000 F800.000
G1 X409.031 Y-123.545 Z0.000 F800.000
G2 X410.619 Y-125.132 Z0.000 I0.000 J-1.587 K0.000 F800.000
G1 X410.619 Y-137.132 Z0.000 F800.000
G2 X409.031 Y-138.719 Z0.000 I-1.587 J-0.000 K0.000 F800.000
G1 X407.352 Y-138.719 Z0.000 F800.000
G2 X406.525 Y-138.487 Z0.000 I0.000 J1.588 K0.000 F800.000
G3 X351.538 Y-138.487 Z0.000 I-27.493 J-43.151 K0.000 F800.000
G2 X350.711 Y-138.719 Z0.000 I-0.827 J1.355 K0.000 F800.000
G1 X349.031 Y-138.719 Z0.000 F800.000
G2 X347.444 Y-137.132 Z0.000 I-0.000 J1.587 K0.000 F800.000
G1 X347.444 Y-125.132 Z0.000 F800.000
G2 X348.989 Y-123.545 Z0.000 I1.587 J0.000 K0.000 F800.000
G0 Z8.000
G0 X281.050 Z8.000
G0 X281.050 Z5.000
G1 X281.050 Y-123.545 Z0.000 F200.000
G1 X281.050 Y-143.190 Z0.000 F800.000
G2 X279.462 Y-144.777 Z0.000 I-1.587 J-0.000 K0.000 F800.000
G1 X219.462 Y-144.777 Z0.000 F800.000
G2 X217.875 Y-143.190 Z0.000 I-0.000 J1.587 K0.000 F800.000
G1 X217.875 Y-85.936 Z0.000 F800.000
G2 X219.462 Y-84.349 Z0.000 I1.587 J0.000 K0.000 F800.000
G1 X279.462 Y-84.349 Z0.000 F800.000
G2 X281.050 Y-85.936 Z0.000 I0.000 J-1.587 K0.000 F800.000
G1 X281.050 Y-123.545 Z0.000 F800.000
G1 X281.050 Y-123.545 Z0.000 F200.000
G1 X281.050 Y-143.190 Z0.000 F800.000
G2 X279.462 Y-144.777 Z0.000 I-1.587 J-0.000 K0.000 F800.000
G1 X219.462 Y-144.777 Z0.000 F800.000
G2 X217.875 Y-143.190 Z0.000 I-0.000 J1.587 K0.000 F800.000
G1 X217.875 Y-85.936 Z0.000 F800.000
G2 X219.462 Y-84.349 Z0.000 I1.587 J0.000 K0.000 F800.000
G1 X279.462 Y-84.349 Z0.000 F800.000
G2 X281.050 Y-85.936 Z0.000 I0.000 J-1.587 K0.000 F800.000
G1 X281.050 Y-123.545 Z0.000 F800.000
G0 Z8.000
G0 X283.539 Z8.000
G0 X283.539 Z5.000
G1 X283.539 Y-123.545 Z0.000 F200.000
G1 X283.539 Y-86.390 Z0.000 F800.000
G2 X285.127 Y-84.802 Z0.000 I1.587 J0.000 K0.000 F800.000
G1 X345.127 Y-84.802 Z0.000 F800.000
G2 X346.714 Y-86.390 Z0.000 I0.000 J-1.587 K0.000 F800.000
G1 X346.714 Y-143.643 Z0.000 F800.000
G2 X345.127 Y-145.231 Z0.000 I-1.587 J-0.000 K0.000 F800.000
G1 X285.127 Y-145.231 Z0.000 F800.000
G2 X283.539 Y-143.643 Z0.000 I-0.000 J1.587 K0.000 F800.000
G1 X283.539 Y-123.545 Z0.000 F800.000
G0 Z8.000
G0 X347.444 Y-125.094 Z8.000
G0 X347.444 Y-125.094 Z5.000
G1 X347.444 Y-125.094 Z0.000 F200.000
G2 X349.031 Y-123.545 Z0.000 I1.587 J-0.038 K0.000 F800.000
G1 X409.031 Y-123.545 Z0.000 F800.000
G2 X410.619 Y-125.132 Z0.000 I0.000 J-1.587 K0.000 F800.000
G1 X410.619 Y-137.132 Z0.000 F800.000
G2 X409.031 Y-138.719 Z0.000 I-1.587 J-0.000 K0.000 F800.000
G1 X407.352 Y-138.719 Z0.000 F800.000
G2 X406.525 Y-138.487 Z0.000 I0.000 J1.588 K0.000 F800.000
G3 X351.538 Y-138.487 Z0.000 I-27.493 J-43.151 K0.000 F800.000
G2 X350.711 Y-138.719 Z0.000 I-0.827 J1.355 K0.000 F800.000
G1 X349.031 Y-138.719 Z0.000 F800.000
G2 X347.444 Y-137.132 Z0.000 I-0.000 J1.587 K0.000 F800.000
G1 X347.444 Y-125.132 Z0.000 F800.000
G2 X347.444 Y-125.094 Z0.000 I1.587 J0.000 K0.000 F800.000
G0 Z8.000
G0 X348.789 Y-119.893 Z8.000
G0 X348.789 Y-119.893 Z5.000
G1 X348.789 Y-119.893 Z0.000 F200.000
G2 X347.599 Y-118.356 Z0.000 I0.397 J1.537 K0.000 F800.000
G1 X347.599 Y-106.356 Z0.000 F800.000
G2 X349.186 Y-104.769 Z0.000 I1.587 J0.000 K0.000 F800.000
G1 X409.186 Y-104.769 Z0.000 F800.000
G2 X410.774 Y-106.356 Z0.000 I0.000 J-1.587 K0.000 F800.000
G1 X410.774 Y-118.356 Z0.000 F800.000
G2 X409.186 Y-119.944 Z0.000 I-1.587 J-0.000 K0.000 F800.000
G1 X407.507 Y-119.944 Z0.000 F800.000
G2 X406.680 Y-119.711 Z0.000 I-0.000 J1.587 K0.000 F800.000
G3 X351.693 Y-119.711 Z0.000 I-27.493 J-43.151 K0.000 F800.000
G2 X350.866 Y-119.944 Z0.000 I-0.827 J1.355 K0.000 F800.000
G1 X349.186 Y-119.944 Z0.000 F800.000
G2 X348.789 Y-119.893 Z0.000 I-0.000 J1.587 K0.000 F800.000
G0 Z8.000
G0 X349.178 Y-101.268 Z8.000
G0 X349.178 Y-101.268 Z5.000
G1 X349.178 Y-101.268 Z0.000 F200.000
G2 X347.624 Y-99.681 Z0.000 I0.033 J1.587 K0.000 F800.000
G1 X347.624 Y-87.681 Z0.000 F800.000
G2 X349.211 Y-86.094 Z0.000 I1.587 J0.000 K0.000 F800.000
G1 X409.211 Y-86.094 Z0.000 F800.000
G2 X410.799 Y-87.681 Z0.000 I0.000 J-1.587 K0.000 F800.000
G1 X410.799 Y-99.681 Z0.000 F800.000
G2 X409.211 Y-101.268 Z0.000 I-1.588 J0.000 K0.000 F800.000
G1 X407.532 Y-101.268 Z0.000 F800.000
G2 X406.705 Y-101.036 Z0.000 I0.000 J1.588 K0.000 F800.000
G3 X351.718 Y-101.036 Z0.000 I-27.493 J-43.151 K0.000 F800.000
G2 X350.891 Y-101.268 Z0.000 I-0.827 J1.355 K0.000 F800.000
G1 X349.211 Y-101.268 Z0.000 F800.000
G2 X349.178 Y-101.268 Z0.000 I-0.000 J1.587 K0.000 F800.000
G1 X349.178 Y-101.268 Z0.000 F200.000
G2 X347.624 Y-99.681 Z0.000 I0.033 J1.587 K0.000 F800.000
G1 X347.624 Y-87.681 Z0.000 F800.000
G2 X349.211 Y-86.094 Z0.000 I1.587 J0.000 K0.000 F800.000
G1 X409.211 Y-86.094 Z0.000 F800.000
G2 X410.799 Y-87.681 Z0.000 I0.000 J-1.587 K0.000 F800.000
G1 X410.799 Y-99.681 Z0.000 F800.000
G2 X409.211 Y-101.268 Z0.000 I-1.588 J0.000 K0.000 F800.000
G1 X407.532 Y-101.268 Z0.000 F800.000
G2 X406.705 Y-101.036 Z0.000 I0.000 J1.588 K0.000 F800.000
G3 X351.718 Y-101.036 Z0.000 I-27.493 J-43.151 K0.000 F800.000
G2 X350.891 Y-101.268 Z0.000 I-0.827 J1.355 K0.000 F800.000
G1 X349.211 Y-101.268 Z0.000 F800.000
G2 X349.178 Y-101.268 Z0.000 I-0.000 J1.587 K0.000 F800.000
G0 Z8.000
G0 X346.714 Z8.000
G0 X346.714 Z5.000
G1 X346.714 Y-101.268 Z0.000 F200.000
G1 X346.714 Y-143.643 Z0.000 F800.000
G2 X345.127 Y-145.231 Z0.000 I-1.587 J-0.000 K0.000 F800.000
G1 X285.127 Y-145.231 Z0.000 F800.000
G2 X283.539 Y-143.643 Z0.000 I-0.000 J1.587 K0.000 F800.000
G1 X283.539 Y-86.390 Z0.000 F800.000
G2 X285.127 Y-84.802 Z0.000 I1.587 J0.000 K0.000 F800.000
G1 X345.127 Y-84.802 Z0.000 F800.000
G2 X346.714 Y-86.390 Z0.000 I0.000 J-1.587 K0.000 F800.000
G1 X346.714 Y-101.268 Z0.000 F800.000
G0 Z8.000
G0 X348.492 Y-104.928 Z8.000
G0 X348.492 Y-104.928 Z5.000
G1 X348.492 Y-104.928 Z0.000 F200.000
G2 X349.186 Y-104.769 Z0.000 I0.694 J-1.428 K0.000 F800.000
G1 X409.186 Y-104.769 Z0.000 F800.000
G2 X410.774 Y-106.356 Z0.000 I0.000 J-1.587 K0.000 F800.000
G1 X410.774 Y-118.356 Z0.000 F800.000
G2 X409.186 Y-119.944 Z0.000 I-1.587 J-0.000 K0.000 F800.000
G1 X407.507 Y-119.944 Z0.000 F800.000
G2 X406.680 Y-119.711 Z0.000 I-0.000 J1.587 K0.000 F800.000
G3 X351.693 Y-119.711 Z0.000 I-27.493 J-43.151 K0.000 F800.000
G2 X350.866 Y-119.944 Z0.000 I-0.827 J1.355 K0.000 F800.000
G1 X349.186 Y-119.944 Z0.000 F800.000
G2 X347.599 Y-118.356 Z0.000 I-0.000 J1.587 K0.000 F800.000
G1 X347.599 Y-106.356 Z0.000 F800.000
G2 X348.492 Y-104.928 Z0.000 I1.587 J0.000 K0.000 F800.000
G0 Z8.000
G0 X348.989 Y-123.545 Z8.000
G0 X348.989 Y-123.545 Z5.000
G1 X348.989 Y-123.545 Z0.000 F200.000
G2 X349.031 Y-123.545 Z0.000 I0.042 J-1.587 K0.000 F800.000
G1 X409.031 Y-123.545 Z0.000 F800.000
G2 X410.619 Y-125.132 Z0.000 I0.000 J-1.587 K0.000 F800.000
G1 X410.619 Y-137.132 Z0.000 F800.000
G2 X409.031 Y-138.719 Z0.000 I-1.587 J-0.000 K0.000 F800.000
G1 X407.352 Y-138.719 Z0.000 F800.000
G2 X406.525 Y-138.487 Z0.000 I0.000 J1.588 K0.000 F800.000
G3 X351.538 Y-138.487 Z0.000 I-27.493 J-43.151 K0.000 F800.000
G2 X350.711 Y-138.719 Z0.000 I-0.827 J1.355 K0.000 F800.000
G1 X349.031 Y-138.719 Z0.000 F800.000
G2 X347.444 Y-137.132 Z0.000 I-0.000 J1.587 K0.000 F800.000
G1 X347.444 Y-125.132 Z0.000 F800.000
G2 X348.989 Y-123.545 Z0.000 I1.587 J0.000 K0.000 F800.000
G0 Z8.000
G0 X281.050 Z8.000
G0 X281.050 Z5.000
G1 X281.050 Y-123.545 Z0.000 F200.000
G1 X281.050 Y-143.190 Z0.000 F800.000
G2 X279.462 Y-144.777 Z0.000 I-1.587 J-0.000 K0.000 F800.000
G1 X219.462 Y-144.777 Z0.000 F800.000
G2 X217.875 Y-143.190 Z0.000 I-0.000 J1.587 K0.000 F800.000
G1 X217.875 Y-85.936 Z0.000 F800.000
G2 X219.462 Y-84.349 Z0.000 I1.587 J0.000 K0.000 F800.000
G1 X279.462 Y-84.349 Z0.000 F800.000
G2 X281.050 Y-85.936 Z0.000 I0.000 J-1.587 K0.000 F800.000
G1 X281.050 Y-123.545 Z0.000 F800.000
G1 X281.050 Y-123.545 Z0.000 F200.000
G1 X281.050 Y-143.190 Z0.000 F800.000
G2 X279.462 Y-144.777 Z0.000 I-1.587 J-0.000 K0.000 F800.000
G1 X219.462 Y-144.777 Z0.000 F800.000
G2 X217.875 Y-143.190 Z0.000 I-0.000 J1.587 K0.000 F800.000
G1 X217.875 Y-85.936 Z0.000 F800.000
G2 X219.462 Y-84.349 Z0.000 I1.587 J0.000 K0.000 F800.000
G1 X279.462 Y-84.349 Z0.000 F800.000
G2 X281.050 Y-85.936 Z0.000 I0.000 J-1.587 K0.000 F800.000
G1 X281.050 Y-123.545 Z0.000 F800.000
G0 Z8.000
G0 X283.539 Z8.000
G0 X283.539 Z5.000
G1 X283.539 Y-123.545 Z0.000 F200.000
G1 X283.539 Y-86.390 Z0.000 F800.000
G2 X285.127 Y-84.802 Z0.000 I1.587 J0.000 K0.000 F800.000
G1 X345.127 Y-84.802 Z0.000 F800.000
G2 X346.714 Y-86.390 Z0.000 I0.000 J-1.587 K0.000 F800.000
G1 X346.714 Y-143.643 Z0.000 F800.000
G2 X345.127 Y-145.231 Z0.000 I-1.587 J-0.000 K0.000 F800.000
G1 X285.127 Y-145.231 Z0.000 F800.000
G2 X283.539 Y-143.643 Z0.000 I-0.000 J1.587 K0.000 F800.000
G1 X283.539 Y-123.545 Z0.000 F800.000
G0 Z8.000
G0 X347.444 Y-125.094 Z8.000
G0 X347.444 Y-125.094 Z5.000
G1 X347.444 Y-125.094 Z0.000 F200.000
G2 X349.031 Y-123.545 Z0.000 I1.587 J-0.038 K0.000 F800.000
G1 X409.031 Y-123.545 Z0.000 F800.000
G2 X410.619 Y-125.132 Z0.000 I0.000 J-1.587 K0.000 F800.000
G1 X410.619 Y-137.132 Z0.000 F800.000
G2 X409.031 Y-138.719 Z0.000 I-1.587 J-0.000 K0.000 F800.000
G1 X407.352 Y-138.719 Z0.000 F800.000
G2 X406.525 Y-138.487 Z0.000 I0.000 J1.588 K0.000 F800.000
G3 X351.538 Y-138.487 Z0.000 I-27.493 J-43.151 K0.000 F800.000
G2 X350.711 Y-138.719 Z0.000 I-0.827 J1.355 K0.000 F800.000
G1 X349.031 Y-138.719 Z0.000 F800.000
G2 X347.444 Y-137.132 Z0.000 I-0.000 J1.587 K0.000 F800.000
G1 X347.444 Y-125.132 Z0.000 F800.000
G2 X347.444 Y-125.094 Z0.000 I1.587 J0.000 K0.000 F800.000
G0 Z8.000
G0 X348.789 Y-119.893 Z8.000
G0 X348.789 Y-119.893 Z5.000
G1 X348.789 Y-119.893 Z0.000 F200.000
G2 X347.599 Y-118.356 Z0.000 I0.397 J1.537 K0.000 F800.000
G1 X347.599 Y-106.356 Z0.000 F800.000
G2 X349.186 Y-104.769 Z0.000 I1.587 J0.000 K0.000 F800.000
G1 X409.186 Y-104.769 Z0.000 F800.000
G2 X410.774 Y-106.356 Z0.000 I0.000 J-1.587 K0.000 F800.000
G1 X410.774 Y-118.356 Z0.000 F800.000
G2 X409.186 Y-119.944 Z0.000 I-1.587 J-0.000 K0.000 F800.000
G1 X407.507 Y-119.944 Z0.000 F800.000
G2 X406.680 Y-119.711 Z0.000 I-0.000 J1.587 K0.000 F800.000
G3 X351.693 Y-119.711 Z0.000 I-27.493 J-43.151 K0.000 F800.000
G2 X350.866 Y-119.944 Z0.000 I-0.827 J1.355 K0.000 F800.000
G1 X349.186 Y-119.944 Z0.000 F800.000
G2 X348.789 Y-119.893 Z0.000 I-0.000 J1.587 K0.000 F800.000
G0 Z8.000
G0 X349.178 Y-101.268 Z8.000
G0 X349.178 Y-101.268 Z5.000
G1 X349.178 Y-101.268 Z0.000 F200.000
G2 X347.624 Y-99.681 Z0.000 I0.033 J1.587 K0.000 F800.000
G1 X347.624 Y-87.681 Z0.000 F800.000
G2 X349.211 Y-86.094 Z0.000 I1.587 J0.000 K0.000 F800.000
G1 X409.211 Y-86.094 Z0.000 F800.000
G2 X410.799 Y-87.681 Z0.000 I0.000 J-1.587 K0.000 F800.000
G1 X410.799 Y-99.681 Z0.000 F800.000
G2 X409.211 Y-101.268 Z0.000 I-1.588 J0.000 K0.000 F800.000
G1 X407.532 Y-101.268 Z0.000 F800.000
G2 X406.705 Y-101.036 Z0.000 I0.000 J1.588 K0.000 F800.000
G3 X351.718 Y-101.036 Z0.000 I-27.493 J-43.151 K0.000 F800.000
G2 X350.891 Y-101.268 Z0.000 I-0.827 J1.355 K0.000 F800.000
G1 X349.211 Y-101.268 Z0.000 F800.000
G2 X349.178 Y-101.268 Z0.000 I-0.000 J1.587 K0.000 F800.000
G1 X349.178 Y-101.268 Z0.000 F200.000
G2 X347.624 Y-99.681 Z0.000 I0.033 J1.587 K0.000 F800.000
G1 X347.624 Y-87.681 Z0.000 F800.000
G2 X349.211 Y-86.094 Z0.000 I1.587 J0.000 K0.000 F800.000
G1 X409.211 Y-86.094 Z0.000 F800.000
G2 X410.799 Y-87.681 Z0.000 I0.000 J-1.587 K0.000 F800.000
G1 X410.799 Y-99.681 Z0.000 F800.000
G2 X409.211 Y-101.268 Z0.000 I-1.588 J0.000 K0.000 F800.000
G1 X407.532 Y-101.268 Z0.000 F800.000
G2 X406.705 Y-101.036 Z0.000 I0.000 J1.588 K0.000 F800.000
G3 X351.718 Y-101.036 Z0.000 I-27.493 J-43.151 K0.000 F800.000
G2 X350.891 Y-101.268 Z0.000 I-0.827 J1.355 K0.000 F800.000
G1 X349.211 Y-101.268 Z0.000 F800.000
G2 X349.178 Y-101.268 Z0.000 I-0.000 J1.587 K0.000 F800.000
G0 Z8.000
G0 X346.714 Z8.000
G0 X346.714 Z5.000
G1 X346.714 Y-101.268 Z0.000 F200.000
G1 X346.714 Y-143.643 Z0.000 F800.000
G2 X345.127 Y-145.231 Z0.000 I-1.587 J-0.000 K0.000 F800.000
G1 X285.127 Y-145.231 Z0.000 F800.000
G2 X283.539 Y-143.643 Z0.000 I-0.000 J1.587 K0.000 F800.000
G1 X283.539 Y-86.390 Z0.000 F800.000
G2 X285.127 Y-84.802 Z0.000 I1.587 J0.000 K0.000 F800.000
G1 X345.127 Y-84.802 Z0.000 F800.000
G2 X346.714 Y-86.390 Z0.000 I0.000 J-1.587 K0.000 F800.000
G1 X346.714 Y-101.268 Z0.000 F800.000
G0 Z8.000
G0 X348.492 Y-104.928 Z8.000
G0 X348.492 Y-104.928 Z5.000
G1 X348.492 Y-104.928 Z0.000 F200.000
G2 X349.186 Y-104.769 Z0.000 I0.694 J-1.428 K0.000 F800.000
G1 X409.186 Y-104.769 Z0.000 F800.000
G2 X410.774 Y-106.356 Z0.000 I0.000 J-1.587 K0.000 F800.000
G1 X410.774 Y-118.356 Z0.000 F800.000
G2 X409.186 Y-119.944 Z0.000 I-1.587 J-0.000 K0.000 F800.000
G1 X407.507 Y-119.944 Z0.000 F800.000
G2 X406.680 Y-119.711 Z0.000 I-0.000 J1.587 K0.000 F800.000
G3 X351.693 Y-119.711 Z0.000 I-27.493 J-43.151 K0.000 F800.000
G2 X350.866 Y-119.944 Z0.000 I-0.827 J1.355 K0.000 F800.000
G1 X349.186 Y-119.944 Z0.000 F800.000
G2 X347.599 Y-118.356 Z0.000 I-0.000 J1.587 K0.000 F800.000
G1 X347.599 Y-106.356 Z0.000 F800.000
G2 X348.492 Y-104.928 Z0.000 I1.587 J0.000 K0.000 F800.000
G0 Z8.000
G0 X348.989 Y-123.545 Z8.000
G0 X348.989 Y-123.545 Z5.000
G1 X348.989 Y-123.545 Z0.000 F200.000
G2 X349.031 Y-123.545 Z0.000 I0.042 J-1.587 K0.000 F800.000
G1 X409.031 Y-123.545 Z0.000 F800.000
G2 X410.619 Y-125.132 Z0.000 I0.000 J-1.587 K0.000 F800.000
G1 X410.619 Y-137.132 Z0.000 F800.000
G2 X409.031 Y-138.719 Z0.000 I-1.587 J-0.000 K0.000 F800.000
G1 X407.352 Y-138.719 Z0.000 F800.000
G2 X406.525 Y-138.487 Z0.000 I0.000 J1.588 K0.000 F800.000
G3 X351.538 Y-138.487 Z0.000 I-27.493 J-43.151 K0.000 F800.000
G2 X350.711 Y-138.719 Z0.000 I-0.827 J1.355 K0.000 F800.000
G1 X349.031 Y-138.719 Z0.000 F800.000
G2 X347.444 Y-137.132 Z0.000 I-0.000 J1.587 K0.000 F800.000
G1 X347.444 Y-125.132 Z0.000 F800.000
G2 X348.989 Y-123.545 Z0.000 I1.587 J0.000 K0.000 F800.000
G0 Z8.000
G0 X281.050 Z8.000
G0 X281.050 Z5.000
G1 X281.050 Y-123.545 Z0.000 F200.000
G1 X281.050 Y-143.190 Z0.000 F800.000
G2 X279.462 Y-144.777 Z0.000 I-1.587 J-0.000 K0.000 F800.000
G1 X219.462 Y-144.777 Z0.000 F800.000
G2 X217.875 Y-143.190 Z0.000 I-0.000 J1.587 K0.000 F800.000
G1 X217.875 Y-85.936 Z0.000 F800.000
G2 X219.462 Y-84.349 Z0.000 I1.587 J0.000 K0.000 F800.000
G1 X279.462 Y-84.349 Z0.000 F800.000
G2 X281.050 Y-85.936 Z0.000 I0.000 J-1.587 K0.000 F800.000
G1 X281.050 Y-123.545 Z0.000 F800.000
G1 X281.050 Y-123.545 Z0.000 F200.000
G1 X281.050 Y-143.190 Z0.000 F800.000
G2 X279.462 Y-144.777 Z0.000 I-1.587 J-0.000 K0.000 F800.000
G1 X219.462 Y-144.777 Z0.000 F800.000
G2 X217.875 Y-143.190 Z0.000 I-0.000 J1.587 K0.000 F800.000
G1 X217.875 Y-85.936 Z0.000 F800.000
G2 X219.462 Y-84.349 Z0.000 I1.587 J0.000 K0.000 F800.000
G1 X279.462 Y-84.349 Z0.000 F800.000
G2 X281.050 Y-85.936 Z0.000 I0.000 J-1.587 K0.000 F800.000
G1 X281.050 Y-123.545 Z0.000 F800.000
G0 Z8.000
G0 X283.539 Z8.000
G0 X283.539 Z5.000
G1 X283.539 Y-123.545 Z0.000 F200.000
G1 X283.539 Y-86.390 Z0.000 F800.000
G2 X285.127 Y-84.802 Z0.000 I1.587 J0.000 K0.000 F800.000
G1 X345.127 Y-84.802 Z0.000 F800.000
G2 X346.714 Y-86.390 Z0.000 I0.000 J-1.587 K0.000 F800.000
G1 X346.714 Y-143.643 Z0.000 F800.000
G2 X345.127 Y-145.231 Z0.000 I-1.587 J-0.000 K0.000 F800.000
G1 X285.127 Y-145.231 Z0.000 F800.000
G2 X283.539 Y-143.643 Z0.000 I-0.000 J1.587 K0.000 F800.000
G1 X283.539 Y-123.545 Z0.000 F800.000
G0 Z8.000
G0 X347.444 Y-125.094 Z8.000
G0 X347.444 Y-125.094 Z5.000
G1 X347.444 Y-125.094 Z0.000 F200.000
G2 X349.031 Y-123.545 Z0.000 I1.587 J-0.038 K0.000 F800.000
G1 X409.031 Y-123.545 Z0.000 F800.000
G2 X410.619 Y-125.132 Z0.000 I0.000 J-1.587 K0.000 F800.000
G1 X410.619 Y-137.132 Z0.000 F800.000
G2 X409.031 Y-138.719 Z0.000 I-1.587 J-0.000 K0.000 F800.000
G1 X407.352 Y-138.719 Z0.000 F800.000
G2 X406.525 Y-138.487 Z0.000 I0.000 J1.588 K0.000 F800.000
G3 X351.538 Y-138.487 Z0.000 I-27.493 J-43.151 K0.000 F800.000
G2 X350.711 Y-138.719 Z0.000 I-0.827 J1.355 K0.000 F800.000
G1 X349.031 Y-138.719 Z0.000 F800.000
G2 X347.444 Y-137.132 Z0.000 I-0.000 J1.587 K0.000 F800.000
G1 X347.444 Y-125.132 Z0.000 F800.000
G2 X347.444 Y-125.094 Z0.000 I1.587 J0.000 K0.000 F800.000
G0 Z8.000
G0 X348.789 Y-119.893 Z8.000
G0 X348.789 Y-119.893 Z5.000
G1 X348.789 Y-119.893 Z0.000 F200.000
G2 X347.599 Y-118.356 Z0.000 I0.397 J1.537 K0.000 F800.000
G1 X347.599 Y-106.356 Z0.000 F800.000
G2 X349.186 Y-104.769 Z0.000 I1.587 J0.000 K0.000 F800.000
G1 X409.186 Y-104.769 Z0.000 F800.000
G2 X410.774 Y-106.356 Z0.000 I0.000 J-1.587 K0.000 F800.000
G1 X410.774 Y-118.356 Z0.000 F800.000
G2 X409.186 Y-119.944 Z0.000 I-1.587 J-0.000 K0.000 F800.000
G1 X407.507 Y-119.944 Z0.000 F800.000
G2 X406.680 Y-119.711 Z0.000 I-0.000 J1.587 K0.000 F800.000
G3 X351.693 Y-119.711 Z0.000 I-27.493 J-43.151 K0.000 F800.000
G2 X350.866 Y-119.944 Z0.000 I-0.827 J1.355 K0.000 F800.000
G1 X349.186 Y-119.944 Z0.000 F800.000
G2 X348.789 Y-119.893 Z0.000 I-0.000 J1.587 K0.000 F800.000
G0 Z8.000
G0 X349.178 Y-101.268 Z8.000
G0 X349.178 Y-101.268 Z5.000
G1 X349.178 Y-101.268 Z0.000 F200.000
G2 X347.624 Y-99.681 Z0.000 I0.033 J1.587 K0.000 F800.000
G1 X347.624 Y-87.681 Z0.000 F800.000
G2 X349.211 Y-86.094 Z0.000 I1.587 J0.000 K0.000 F800.000
G1 X409.211 Y-86.094 Z0.000 F800.000
G2 X410.799 Y-87.681 Z0.000 I0.000 J-1.587 K0.000 F800.000
G1 X410.799 Y-99.681 Z0.000 F800.000
G2 X409.211 Y-101.268 Z0.000 I-1.588 J0.000 K0.000 F800.000
G1 X407.532 Y-101.268 Z0.000 F800.000
G2 X406.705 Y-101.036 Z0.000 I0.000 J1.588 K0.000 F800.000
G3 X351.718 Y-101.036 Z0.000 I-27.493 J-43.151 K0.000 F800.000
G2 X350.891 Y-101.268 Z0.000 I-0.827 J1.355 K0.000 F800.000
G1 X349.211 Y-101.268 Z0.000 F800.000
G2 X349.178 Y-101.268 Z0.000 I-0.000 J1.587 K0.000 F800.000
G1 X349.178 Y-101.268 Z0.000 F200.000
G2 X347.624 Y-99.681 Z0.000 I0.033 J1.587 K0.000 F800.000
G1 X347.624 Y-87.681 Z0.000 F800.000
G2 X349.211 Y-86.094 Z0.000 I1.587 J0.000 K0.000 F800.000
G1 X409.211 Y-86.094 Z0.000 F800.000
G2 X410.799 Y-87.681 Z0.000 I0.000 J-1.587 K0.000 F800.000
G1 X410.799 Y-99.681 Z0.000 F800.000
G2 X409.211 Y-101.268 Z0.000 I-1.588 J0.000 K0.000 F800.000
G1 X407.532 Y-101.268 Z0.000 F800.000
G2 X406.705 Y-101.036 Z0.000 I0.000 J1.588 K0.000 F800.000
G3 X351.718 Y-101.036 Z0.000 I-27.493 J-43.151 K0.000 F800.000
G2 X350.891 Y-101.268 Z0.000 I-0.827 J1.355 K0.000 F800.000
G1 X349.211 Y-101.268 Z0.000 F800.000
G2 X349.178 Y-101.268 Z0.000 I-0.000 J1.587 K0.000 F800.000
G0 Z8.000
G0 X346.714 Z8.000
G0 X346.714 Z5.000
G1 X346.714 Y-101.268 Z0.000 F200.000
G1 X346.714 Y-143.643 Z0.000 F800.000
G2 X345.127 Y-145.231 Z0.000 I-1.587 J-0.000 K0.000 F800.000
G1 X285.127 Y-145.231 Z0.000 F800.000
G2 X283.539 Y-143.643 Z0.000 I-0.000 J1.587 K0.000 F800.000
G1 X283.539 Y-86.390 Z0.000 F800.000
G2 X285.127 Y-84.802 Z0.000 I1.587 J0.000 K0.000 F800.000
G1 X345.127 Y-84.802 Z0.000 F800.000
G2 X346.714 Y-86.390 Z0.000 I0.000 J-1.587 K0.000 F800.000
G1 X346.714 Y-101.268 Z0.000 F800.000
G0 Z8.000
G0 X348.492 Y-104.928 Z8.000
G0 X348.492 Y-104.928 Z5.000
G1 X348.492 Y-104.928 Z0.000 F200.000
G2 X349.186 Y-104.769 Z0.000 I0.694 J-1.428 K0.000 F800.000
G1 X409.186 Y-104.769 Z0.000 F800.000
G2 X410.774 Y-106.356 Z0.000 I0.000 J-1.587 K0.000 F800.000
G1 X410.774 Y-118.356 Z0.000 F800.000
G2 X409.186 Y-119.944 Z0.000 I-1.587 J-0.000 K0.000 F800.000
G1 X407.507 Y-119.944 Z0.000 F800.000
G2 X406.680 Y-119.711 Z0.000 I-0.000 J1.587 K0.000 F800.000
G3 X351.693 Y-119.711 Z0.000 I-27.493 J-43.151 K0.000 F800.000
G2 X350.866 Y-119.944 Z0.000 I-0.827 J1.355 K0.000 F800.000
G1 X349.186 Y-119.944 Z0.000 F800.000
G2 X347.599 Y-118.356 Z0.000 I-0.000 J1.587 K0.000 F800.000
G1 X347.599 Y-106.356 Z0.000 F800.000
G2 X348.492 Y-104.928 Z0.000 I1.587 J0.000 K0.000 F800.000
G0 Z8.000
G0 X348.989 Y-123.545 Z8.000
G0 X348.989 Y-123.545 Z5.000
G1 X348.989 Y-123.545 Z0.000 F200.000
G2 X349.031 Y-123.545 Z0.000 I0.042 J-1.587 K0.000 F800.000
G1 X409.031 Y-123.545 Z0.000 F800.000
G2 X410.619 Y-125.132 Z0.000 I0.000 J-1.587 K0.000 F800.000
G1 X410.619 Y-137.132 Z0.000 F800.000
G2 X409.031 Y-138.719 Z0.000 I-1.587 J-0.000 K0.000 F800.000
G1 X407.352 Y-138.719 Z0.000 F800.000
G2 X406.525 Y-138.487 Z0.000 I0.000 J1.588 K0.000 F800.000
G3 X351.538 Y-138.487 Z0.000 I-27.493 J-43.151 K0.000 F800.000
G2 X350.711 Y-138.719 Z0.000 I-0.827 J1.355 K0.000 F800.000
G1 X349.031 Y-138.719 Z0.000 F800.000
G2 X347.444 Y-137.132 Z0.000 I-0.000 J1.587 K0.000 F800.000
G1 X347.444 Y-125.132 Z0.000 F800.000
G2 X348.989 Y-123.545 Z0.000 I1.587 J0.000 K0.000 F800.000
G0 Z8.000
G0 X281.050 Z8.000
G0 X281.050 Z5.000
G1 X281.050 Y-123.545 Z0.000 F200.000
G1 X281.050 Y-143.190 Z0.000 F800.000
G2 X279.462 Y-144.777 Z0.000 I-1.587 J-0.000 K0.000 F800.000
G1 X219.462 Y-144.777 Z0.000 F800.000
G2 X217.875 Y-143.190 Z0.000 I-0.000 J1.587 K0.000 F800.000
G1 X217.875 Y-85.936 Z0.000 F800.000
G2 X219.462 Y-84.349 Z0.000 I1.587 J0.000 K0.000 F800.000
G1 X279.462 Y-84.349 Z0.000 F800.000
G2 X281.050 Y-85.936 Z0.000 I0.000 J-1.587 K0.000 F800.000
G1 X281.050 Y-123.545 Z0.000 F800.000
G1 X281.050 Y-123.545 Z0.000 F200.000
G1 X281.050 Y-143.190 Z0.000 F800.000
G2 X279.462 Y-144.777 Z0.000 I-1.587 J-0.000 K0.000 F800.000
G1 X219.462 Y-144.777 Z0.000 F800.000
G2 X217.875 Y-143.190 Z0.000 I-0.000 J1.587 K0.000 F800.000
G1 X217.875 Y-85.936 Z0.000 F800.000
G2 X219.462 Y-84.349 Z0.000 I1.587 J0.000 K0.000 F800.000
G1 X279.462 Y-84.349 Z0.000 F800.000
G2 X281.050 Y-85.936 Z0.000 I0.000 J-1.587 K0.000 F800.000
G1 X281.050 Y-123.545 Z0.000 F800.000
G0 Z8.000
G0 X283.539 Z8.000
G0 X283.539 Z5.000
G1 X283.539 Y-123.545 Z0.000 F200.000
G1 X283.539 Y-86.390 Z0.000 F800.000
G2 X285.127 Y-84.802 Z0.000 I1.587 J0.000 K0.000 F800.000
G1 X345.127 Y-84.802 Z0.000 F800.000
G2 X346.714 Y-86.390 Z0.000 I0.000 J-1.587 K0.000 F800.000
G1 X346.714 Y-143.643 Z0.000 F800.000
G2 X345.127 Y-145.231 Z0.000 I-1.587 J-0.000 K0.000 F800.000
G1 X285.127 Y-145.231 Z0.000 F800.000
G2 X283.539 Y-143.643 Z0.000 I-0.000 J1.587 K0.000 F800.000
G1 X283.539 Y-123.545 Z0.000 F800.000
G0 Z8.000
G0 X347.444 Y-125.094 Z8.000
G0 X347.444 Y-125.094 Z5.000
G1 X347.444 Y-125.094 Z0.000 F200.000
G2 X349.031 Y-123.545 Z0.000 I1.587 J-0.038 K0.000 F800.000
G1 X409.031 Y-123.545 Z0.000 F800.000
G2 X410.619 Y-125.132 Z0.000 I0.000 J-1.587 K0.000 F800.000
G1 X410.619 Y-137.132 Z0.000 F800.000
G2 X409.031 Y-138.719 Z0.000 I-1.587 J-0.000 K0.000 F800.000
G1 X407.352 Y-138.719 Z0.000 F800.000
G2 X406.525 Y-138.487 Z0.000 I0.000 J1.588 K0.000 F800.000
G3 X351.538 Y-138.487 Z0.000 I-27.493 J-43.151 K0.000 F800.000
G2 X350.711 Y-138.719 Z0.000 I-0.827 J1.355 K0.000 F800.000
G1 X349.031 Y-138.719 Z0.000 F800.000
G2 X347.444 Y-137.132 Z0.000 I-0.000 J1.587 K0.000 F800.000
G1 X347.444 Y-125.132 Z0.000 F800.000
G2 X347.444 Y-125.094 Z0.000 I1.587 J0.000 K0.000 F800.000
G0 Z8.000
G0 X348.789 Y-119.893 Z8.000
G0 X348.789 Y-119.893 Z5.000
G1 X348.789 Y-119.893 Z0.000 F200.000
G2 X347.599 Y-118.356 Z0.000 I0.397 J1.537 K0.000 F800.000
G1 X347.599 Y-106.356 Z0.000 F800.000
G2 X349.186 Y-104.769 Z0.000 I1.587 J0.000 K0.000 F800.000
G1 X409.186 Y-104.769 Z0.000 F800.000
G2 X410.774 Y-106.356 Z0.000 I0.000 J-1.587 K0.000 F800.000
G1 X410.774 Y-118.356 Z0.000 F800.000
G2 X409.186 Y-119.944 Z0.000 I-1.587 J-0.000 K0.000 F800.000
G1 X407.507 Y-119.944 Z0.000 F800.000
G2 X406.680 Y-119.711 Z0.000 I-0.000 J1.587 K0.000 F800.000
G3 X351.693 Y-119.711 Z0.000 I-27.493 J-43.151 K0.000 F800.000
G2 X350.866 Y-119.944 Z0.000 I-0.827 J1.355 K0.000 F800.000
G1 X349.186 Y-119.944 Z0.000 F800.000
G2 X348.789 Y-119.893 Z0.000 I-0.000 J1.587 K0.000 F800.000
G0 Z8.000
G0 X349.178 Y-101.268 Z8.000
G0 X349.178 Y-101.268 Z5.000
G1 X349.178 Y-101.268 Z0.000 F200.000
G2 X347.624 Y-99.681 Z0.000 I0.033 J1.587 K0.000 F800.000
G1 X347.624 Y-87.681 Z0.000 F800.000
G2 X349.211 Y-86.094 Z0.000 I1.587 J0.000 K0.000 F800.000
G1 X409.211 Y-86.094 Z0.000 F800.000
G2 X410.799 Y-87.681 Z0.000 I0.000 J-1.587 K0.000 F800.000
G1 X410.799 Y-99.681 Z0.000 F800.000
G2 X409.211 Y-101.268 Z0.000 I-1.588 J0.000 K0.000 F800.000
G1 X407.532 Y-101.268 Z0.000 F800.000
G2 X406.705 Y-101.036 Z0.000 I0.000 J1.588 K0.000 F800.000
G3 X351.718 Y-101.036 Z0.000 I-27.493 J-43.151 K0.000 F800.000
G2 X350.891 Y-101.268 Z0.000 I-0.827 J1.355 K0.000 F800.000
G1 X349.211 Y-101.268 Z0.000 F800.000
G2 X349.178 Y-101.268 Z0.000 I-0.000 J1.587 K0.000 F800.000
G1 X349.178 Y-101.268 Z0.000 F200.000
G2 X347.624 Y-99.681 Z0.000 I0.033 J1.587 K0.000 F800.000
G1 X347.624 Y-87.681 Z0.000 F800.000
G2 X349.211 Y-86.094 Z0.000 I1.587 J0.000 K0.000 F800.000
G1 X409.211 Y-86.094 Z0.000 F800.000
G2 X410.799 Y-87.681 Z0.000 I0.000 J-1.587 K0.000 F800.000
G1 X410.799 Y-99.681 Z0.000 F800.000
G2 X409.211 Y-101.268 Z0.000 I-1.588 J0.000 K0.000 F800.000
G1 X407.532 Y-101.268 Z0.000 F800.000
G2 X406.705 Y-101.036 Z0.000 I0.000 J1.588 K0.000 F800.000
G3 X351.718 Y-101.036 Z0.000 I-27.493 J-43.151 K0.000 F800.000
G2 X350.891 Y-101.268 Z0.000 I-0.827 J1.355 K0.000 F800.000
G1 X349.211 Y-101.268 Z0.000 F800.000
G2 X349.178 Y-101.268 Z0.000 I-0.000 J1.587 K0.000 F800.000
G0 Z8.000
G0 X346.714 Z8.000
G0 X346.714 Z5.000
G1 X346.714 Y-101.268 Z0.000 F200.000
G1 X346.714 Y-143.643 Z0.000 F800.000
G2 X345.127 Y-145.231 Z0.000 I-1.587 J-0.000 K0.000 F800.000
G1 X285.127 Y-145.231 Z0.000 F800.000
G2 X283.539 Y-143.643 Z0.000 I-0.000 J1.587 K0.000 F800.000
G1 X283.539 Y-86.390 Z0.000 F800.000
G2 X285.127 Y-84.802 Z0.000 I1.587 J0.000 K0.000 F800.000
G1 X345.127 Y-84.802 Z0.000 F800.000
G2 X346.714 Y-86.390 Z0.000 I0.000 J-1.587 K0.000 F800.000
G1 X346.714 Y-101.268 Z0.000 F800.000
G0 Z8.000
G0 X348.492 Y-104.928 Z8.000
G0 X348.492 Y-104.928 Z5.000
G1 X348.492 Y-104.928 Z0.000 F200.000
G2 X349.186 Y-104.769 Z0.000 I0.694 J-1.428 K0.000 F800.000
G1 X409.186 Y-104.769 Z0.000 F800.000
G2 X410.774 Y-106.356 Z0.000 I0.000 J-1.587 K0.000 F800.000
G1 X410.774 Y-118.356 Z0.000 F800.000
G2 X409.186 Y-119.944 Z0.000 I-1.587 J-0.000 K0.000 F800.000
G1 X407.507 Y-119.944 Z0.000 F800.000
G2 X406.680 Y-119.711 Z0.000 I-0.000 J1.587 K0.000 F800.000
G3 X351.693 Y-119.711 Z0.000 I-27.493 J-43.151 K0.000 F800.000
G2 X350.866 Y-119.944 Z0.000 I-0.827 J1.355 K0.000 F800.000
G1 X349.186 Y-119.944 Z0.000 F800.000
G2 X347.599 Y-118.356 Z0.000 I-0.000 J1.587 K0.000 F800.000
G1 X347.599 Y-106.356 Z0.000 F800.000
G2 X348.492 Y-104.928 Z0.000 I1.587 J0.000 K0.000 F800.000
G0 Z8.000
G0 X348.989 Y-123.545 Z8.000
G0 X348.989 Y-123.545 Z5.000
G1 X348.989 Y-123.545 Z0.000 F200.000
G2 X349.031 Y-123.545 Z0.000 I0.042 J-1.587 K0.000 F800.000
G1 X409.031 Y-123.545 Z0.000 F800.000
G2 X410.619 Y-125.132 Z0.000 I0.000 J-1.587 K0.000 F800.000
G1 X410.619 Y-137.132 Z0.000 F800.000
G2 X409.031 Y-138.719 Z0.000 I-1.587 J-0.000 K0.000 F800.000
G1 X407.352 Y-138.719 Z0.000 F800.000
G2 X406.525 Y-138.487 Z0.000 I0.000 J1.588 K0.000 F800.000
G3 X351.538 Y-138.487 Z0.000 I-27.493 J-43.151 K0.000 F800.000
G2 X350.711 Y-138.719 Z0.000 I-0.827 J1.355 K0.000 F800.000
G1 X349.031 Y-138.719 Z0.000 F800.000
G2 X347.444 Y-137.132 Z0.000 I-0.000 J1.587 K0.000 F800.000
G1 X347.444 Y-125.132 Z0.000 F800.000
G2 X348.989 Y-123.545 Z0.000 I1.587 J0.000 K0.000 F800.000
G0 Z8.000
G0 X281.050 Z8.000
G0 X281.050 Z5.000
G1 X281.050 Y-123.545 Z0.000 F200.000
G1 X281.050 Y-143.190 Z0.000 F800.000
G2 X279.462 Y-144.777 Z0.000 I-1.587 J-0.000 K0.000 F800.000
G1 X219.462 Y-144.777 Z0.000 F800.000
G2 X217.875 Y-143.190 Z0.000 I-0.000 J1.587 K0.000 F800.000
G1 X217.875 Y-85.936 Z0.000 F800.000
G2 X219.462 Y-84.349 Z0.000 I1.587 J0.000 K0.000 F800.000
G1 X279.462 Y-84.349 Z0.000 F800.000
G2 X281.050 Y-85.936 Z0.000 I0.000 J-1.587 K0.000 F800.000
G1 X281.050 Y-123.545 Z0.000 F800.000
G1 X281.050 Y-123.545 Z0.000 F200.000
G1 X281.050 Y-143.190 Z0.000 F800.000
G2 X279.462 Y-144.777 Z0.000 I-1.587 J-0.000 K0.000 F800.000
G1 X219.462 Y-144.777 Z0.000 F800.000
G2 X217.875 Y-143.190 Z0.000 I-0.000 J1.587 K0.000 F800.000
G1 X217.875 Y-85.936 Z0.000 F800.000
G2 X219.462 Y-84.349 Z0.000 I1.587 J0.000 K0.000 F800.000
G1 X279.462 Y-84.349 Z0.000 F800.000
G2 X281.050 Y-85.936 Z0.000 I0.000 J-1.587 K0.000 F800.000
G1 X281.050 Y-123.545 Z0.000 F800.000
G0 Z8.000
G0 X283.539 Z8.000
G0 X283.539 Z5.000
G1 X283.539 Y-123.545 Z0.000 F200.000
G1 X283.539 Y-86.390 Z0.000 F800.000
G2 X285.127 Y-84.802 Z0.000 I1.587 J0.000 K0.000 F800.000
G1 X345.127 Y-84.802 Z0.000 F800.000
G2 X346.714 Y-86.390 Z0.000 I0.000 J-1.587 K0.000 F800.000
G1 X346.714 Y-143.643 Z0.000 F800.000
G2 X345.127 Y-145.231 Z0.000 I-1.587 J-0.000 K0.000 F800.000
G1 X285.127 Y-145.231 Z0.000 F800.000
G2 X283.539 Y-143.643 Z0.000 I-0.000 J1.587 K0.000 F800.000
G1 X283.539 Y-123.545 Z0.000 F800.000
G0 Z8.000
G0 X347.444 Y-125.094 Z8.000
G0 X347.444 Y-125.094 Z5.000
G1 X347.444 Y-125.094 Z0.000 F200.000
G2 X349.031 Y-123.545 Z0.000 I1.587 J-0.038 K0.000 F800.000
G1 X409.031 Y-123.545 Z0.000 F800.000
G2 X410.619 Y-125.132 Z0.000 I0.000 J-1.587 K0.000 F800.000
G1 X410.619 Y-137.132 Z0.000 F800.000
G2 X409.031 Y-138.719 Z0.000 I-1.587 J-0.000 K0.000 F800.000
G1 X407.352 Y-138.719 Z0.000 F800.000
G2 X406.525 Y-138.487 Z0.000 I0.000 J1.588 K0.000 F800.000
G3 X351.538 Y-138.487 Z0.000 I-27.493 J-43.151 K0.000 F800.000
G2 X350.711 Y-138.719 Z0.000 I-0.827 J1.355 K0.000 F800.000
G1 X349.031 Y-138.719 Z0.000 F800.000
G2 X347.444 Y-137.132 Z0.000 I-0.000 J1.587 K0.000 F800.000
G1 X347.444 Y-125.132 Z0.000 F800.000
G2 X347.444 Y-125.094 Z0.000 I1.587 J0.000 K0.000 F800.000
G0 Z8.000
G0 X348.789 Y-119.893 Z8.000
G0 X348.789 Y-119.893 Z5.000
G1 X348.789 Y-119.893 Z0.000 F200.000
G2 X347.599 Y-118.356 Z0.000 I0.397 J1.537 K0.000 F800.000
G1 X347.599 Y-106.356 Z0.000 F800.000
G2 X349.186 Y-104.769 Z0.000 I1.587 J0.000 K0.000 F800.000
G1 X409.186 Y-104.769 Z0.000 F800.000
G2 X410.774 Y-106.356 Z0.000 I0.000 J-1.587 K0.000 F800.000
G1 X410.774 Y-118.356 Z0.000 F800.000
G2 X409.186 Y-119.944 Z0.000 I-1.587 J-0.000 K0.000 F800.000
G1 X407.507 Y-119.944 Z0.000 F800.000
G2 X406.680 Y-119.711 Z0.000 I-0.000 J1.587 K0.000 F800.000
G3 X351.693 Y-119.711 Z0.000 I-27.493 J-43.151 K0.000 F800.000
G2 X350.866 Y-119.944 Z0.000 I-0.827 J1.355 K0.000 F800.000
G1 X349.186 Y-119.944 Z0.000 F800.000
G2 X348.789 Y-119.893 Z0.000 I-0.000 J1.587 K0.000 F800.000
G0 Z8.000
G0 X349.178 Y-101.268 Z8.000
G0 X349.178 Y-101.268 Z5.000
G1 X349.178 Y-101.268 Z0.000 F200.000
G2 X347.624 Y-99.681 Z0.000 I0.033 J1.587 K0.000 F800.000
G1 X347.624 Y-87.681 Z0.000 F800.000
G2 X349.211 Y-86.094 Z0.000 I1.587 J0.000 K0.000 F800.000
G1 X409.211 Y-86.094 Z0.000 F800.000
G2 X410.799 Y-87.681 Z0.000 I0.000 J-1.587 K0.000 F800.000
G1 X410.799 Y-99.681 Z0.000 F800.000
G2 X409.211 Y-101.268 Z0.000 I-1.588 J0.000 K0.000 F800.000
G1 X407.532 Y-101.268 Z0.000 F800.000
G2 X406.705 Y-101.036 Z0.000 I0.000 J1.588 K0.000 F800.000
G3 X351.718 Y-101.036 Z0.000 I-27.493 J-43.151 K0.000 F800.000
G2 X350.891 Y-101.268 Z0.000 I-0.827 J1.355 K0.000 F800.000
G1 X349.211 Y-101.268 Z0.000 F800.000
G2 X349.178 Y-101.268 Z0.000 I-0.000 J1.587 K0.000 F800.000
G1 X349.178 Y-101.268 Z0.000 F200.000
G2 X347.624 Y-99.681 Z0.000 I0.033 J1.587 K0.000 F800.000
G1 X347.624 Y-87.681 Z0.000 F800.000
G2 X349.211 Y-86.094 Z0.000 I1.587 J0.000 K0.000 F800.000
G1 X409.211 Y-86.094 Z0.000 F800.000
G2 X410.799 Y-87.681 Z0.000 I0.000 J-1.587 K0.000 F800.000
G1 X410.799 Y-99.681 Z0.000 F800.000
G2 X409.211 Y-101.268 Z0.000 I-1.588 J0.000 K0.000 F800.000
G1 X407.532 Y-101.268 Z0.000 F800.000
G2 X406.705 Y-101.036 Z0.000 I0.000 J1.588 K0.000 F800.000
G3 X351.718 Y-101.036 Z0.000 I-27.493 J-43.151 K0.000 F800.000
G2 X350.891 Y-101.268 Z0.000 I-0.827 J1.355 K0.000 F800.000
G1 X349.211 Y-101.268 Z0.000 F800.000
G2 X349.178 Y-101.268 Z0.000 I-0.000 J1.587 K0.000 F800.000
G0 Z8.000
G0 X346.714 Z8.000
G0 X346.714 Z5.000
G1 X346.714 Y-101.268 Z0.000 F200.000
G1 X346.714 Y-143.643 Z0.000 F800.000
G2 X345.127 Y-145.231 Z0.000 I-1.587 J-0.000 K0.000 F800.000
G1 X285.127 Y-145.231 Z0.000 F800.000
G2 X283.539 Y-143.643 Z0.000 I-0.000 J1.587 K0.000 F800.000
G1 X283.539 Y-86.390 Z0.000 F800.000
G2 X285.127 Y-84.802 Z0.000 I1.587 J0.000 K0.000 F800.000
G1 X345.127 Y-84.802 Z0.000 F800.000
G2 X346.714 Y-86.390 Z0.000 I0.000 J-1.587 K0.000 F800.000
G1 X346.714 Y-101.268 Z0.000 F800.000
G0 Z8.000
G0 X348.492 Y-104.928 Z8.000
G0 X348.492 Y-104.928 Z5.000
G1 X348.492 Y-104.928 Z0.000 F200.000
G2 X349.186 Y-104.769 Z0.000 I0.694 J-1.428 K0.000 F800.000
G1 X409.186 Y-104.769 Z0.000 F800.000
G2 X410.774 Y-106.356 Z0.000 I0.000 J-1.587 K0.000 F800.000
G1 X410.774 Y-118.356 Z0.000 F800.000
G2 X409.186 Y-119.944 Z0.000 I-1.587 J-0.000 K0.000 F800.000
G1 X407.507 Y-119.944 Z0.000 F800.000
G2 X406.680 Y-119.711 Z0.000 I-0.000 J1.587 K0.000 F800.000
G3 X351.693 Y-119.711 Z0.000 I-27.493 J-43.151 K0.000 F800.000
G2 X350.866 Y-119.944 Z0.000 I-0.827 J1.355 K0.000 F800.000
G1 X349.186 Y-119.944 Z0.000 F800.000
G2 X347.599 Y-118.356 Z0.000 I-0.000 J1.587 K0.000 F800.000
G1 X347.599 Y-106.356 Z0.000 F800.000
G2 X348.492 Y-104.928 Z0.000 I1.587 J0.000 K0.000 F800.000
G0 Z8.000
G0 X348.989 Y-123.545 Z8.000
G0 X348.989 Y-123.545 Z5.000
G1 X348.989 Y-123.545 Z0.000 F200.000
G2 X349.031 Y-123.545 Z0.000 I0.042 J-1.587 K0.000 F800.000
G1 X409.031 Y-123.545 Z0.000 F800.000
G2 X410.619 Y-125.132 Z0.000 I0.000 J-1.587 K0.000 F800.000
G1 X410.619 Y-137.132 Z0.000 F800.000
G2 X409.031 Y-138.719 Z0.000 I-1.587 J-0.000 K0.000 F800.000
G1 X407.352 Y-138.719 Z0.000 F800.000
G2 X406.525 Y-138.487 Z0.000 I0.000 J1.588 K0.000 F800.000
G3 X351.538 Y-138.487 Z0.000 I-27.493 J-43.151 K0.000 F800.000
G2 X350.711 Y-138.719 Z0.000 I-0.827 J1.355 K0.000 F800.000
G1 X349.031 Y-138.719 Z0.000 F800.000
G2 X347.444 Y-137.132 Z0.000 I-0.000 J1.587 K0.000 F800.000
G1 X347.444 Y-125.132 Z0.000 F800.000
G2 X348.989 Y-123.545 Z0.000 I1.587 J0.000 K0.000 F800.000
G0 Z8.000
G0 X281.050 Z8.000
G0 X281.050 Z5.000
G1 X281.050 Y-123.545 Z0.000 F200.000
G1 X281.050 Y-143.190 Z0.000 F800.000
G2 X279.462 Y-144.777 Z0.000 I-1.587 J-0.000 K0.000 F800.000
G1 X219.462 Y-144.777 Z0.000 F800.000
G2 X217.875 Y-143.190 Z0.000 I-0.000 J1.587 K0.000 F800.000
G1 X217.875 Y-85.936 Z0.000 F800.000
G2 X219.462 Y-84.349 Z0.000 I1.587 J0.000 K0.000 F800.000
G1 X279.462 Y-84.349 Z0.000 F800.000
G2 X281.050 Y-85.936 Z0.000 I0.000 J-1.587 K0.000 F800.000
G1 X281.050 Y-123.545 Z0.000 F800.000
G1 X281.050 Y-123.545 Z0.000 F200.000
G1 X281.050 Y-143.190 Z0.000 F800.000
G2 X279.462 Y-144.777 Z0.000 I-1.587 J-0.000 K0.000 F800.000
G1 X219.462 Y-144.777 Z0.000 F800.000
G2 X217.875 Y-143.190 Z0.000 I-0.000 J1.587 K0.000 F800.000
G1 X217.875 Y-85.936 Z0.000 F800.000
G2 X219.462 Y-84.349 Z0.000 I1.587 J0.000 K0.000 F800.000
G1 X279.462 Y-84.349 Z0.000 F800.000
G2 X281.050 Y-85.936 Z0.000 I0.000 J-1.587 K0.000 F800.000
G1 X281.050 Y-123.545 Z0.000 F800.000
G0 Z8.000
G0 X283.539 Z8.000
G0 X283.539 Z5.000
G1 X283.539 Y-123.545 Z0.000 F200.000
G1 X283.539 Y-86.390 Z0.000 F800.000
G2 X285.127 Y-84.802 Z0.000 I1.587 J0.000 K0.000 F800.000
G1 X345.127 Y-84.802 Z0.000 F800.000
G2 X346.714 Y-86.390 Z0.000 I0.000 J-1.587 K0.000 F800.000
G1 X346.714 Y-143.643 Z0.000 F800.000
G2 X345.127 Y-145.231 Z0.000 I-1.587 J-0.000 K0.000 F800.000
G1 X285.127 Y-145.231 Z0.000 F800.000
G2 X283.539 Y-143.643 Z0.000 I-0.000 J1.587 K0.000 F800.000
G1 X283.539 Y-123.545 Z0.000 F800.000
G0 Z8.000
G0 X347.444 Y-125.094 Z8.000
G0 X347.444 Y-125.094 Z5.000
G1 X347.444 Y-125.094 Z0.000 F200.000
G2 X349.031 Y-123.545 Z0.000 I1.587 J-0.038 K0.000 F800.000
G1 X409.031 Y-123.545 Z0.000 F800.000
G2 X410.619 Y-125.132 Z0.000 I0.000 J-1.587 K0.000 F800.000
G1 X410.619 Y-137.132 Z0.000 F800.000
G2 X409.031 Y-138.719 Z0.000 I-1.587 J-0.000 K0.000 F800.000
G1 X407.352 Y-138.719 Z0.000 F800.000
G2 X406.525 Y-138.487 Z0.000 I0.000 J1.588 K0.000 F800.000
G3 X351.538 Y-138.487 Z0.000 I-27.493 J-43.151 K0.000 F800.000
G2 X350.711 Y-138.719 Z0.000 I-0.827 J1.355 K0.000 F800.000
G1 X349.031 Y-138.719 Z0.000 F800.000
G2 X347.444 Y-137.132 Z0.000 I-0.000 J1.587 K0.000 F800.000
G1 X347.444 Y-125.132 Z0.000 F800.000
G2 X347.444 Y-125.094 Z0.000 I1.587 J0.000 K0.000 F800.000
G0 Z8.000
G0 X348.789 Y-119.893 Z8.000
G0 X348.789 Y-119.893 Z5.000
G1 X348.789 Y-119.893 Z0.000 F200.000
G2 X347.599 Y-118.356 Z0.000 I0.397 J1.537 K0.000 F800.000
G1 X347.599 Y-106.356 Z0.000 F800.000
G2 X349.186 Y-104.769 Z0.000 I1.587 J0.000 K0.000 F800.000
G1 X409.186 Y-104.769 Z0.000 F800.000
G2 X410.774 Y-106.356 Z0.000 I0.000 J-1.587 K0.000 F800.000
G1 X410.774 Y-118.356 Z0.000 F800.000
G2 X409.186 Y-119.944 Z0.000 I-1.587 J-0.000 K0.000 F800.000
G1 X407.507 Y-119.944 Z0.000 F800.000
G2 X406.680 Y-119.711 Z0.000 I-0.000 J1.587 K0.000 F800.000
G3 X351.693 Y-119.711 Z0.000 I-27.493 J-43.151 K0.000 F800.000
G2 X350.866 Y-119.944 Z0.000 I-0.827 J1.355 K0.000 F800.000
G1 X349.186 Y-119.944 Z0.000 F800.000
G2 X348.789 Y-119.893 Z0.000 I-0.000 J1.587 K0.000 F800.000
G0 Z8.000
G0 X349.178 Y-101.268 Z8.000
G0 X349.178 Y-101.268 Z5.000
G1 X349.178 Y-101.268 Z0.000 F200.000
G2 X347.624 Y-99.681 Z0.000 I0.033 J1.587 K0.000 F800.000
G1 X347.624 Y-87.681 Z0.000 F800.000
G2 X349.211 Y-86.094 Z0.000 I1.587 J0.000 K0.000 F800.000
G1 X409.211 Y-86.094 Z0.000 F800.000
G2 X410.799 Y-87.681 Z0.000 I0.000 J-1.587 K0.000 F800.000
G1 X410.799 Y-99.681 Z0.000 F800.000
G2 X409.211 Y-101.268 Z0.000 I-1.588 J0.000 K0.000 F800.000
G1 X407.532 Y-101.268 Z0.000 F800.000
G2 X406.705 Y-101.036 Z0.000 I0.000 J1.588 K0.000 F800.000
G3 X351.718 Y-101.036 Z0.000 I-27.493 J-43.151 K0.000 F800.000
G2 X350.891 Y-101.268 Z0.000 I-0.827 J1.355 K0.000 F800.000
G1 X349.211 Y-101.268 Z0.000 F800.000
G2 X349.178 Y-101.268 Z0.000 I-0.000 J1.587 K0.000 F800.000
G1 X349.178 Y-101.268 Z0.000 F200.000
G2 X347.624 Y-99.681 Z0.000 I0.033 J1.587 K0.000 F800.000
G1 X347.624 Y-87.681 Z0.000 F800.000
G2 X349.211 Y-86.094 Z0.000 I1.587 J0.000 K0.000 F800.000
G1 X409.211 Y-86.094 Z0.000 F800.000
G2 X410.799 Y-87.681 Z0.000 I0.000 J-1.587 K0.000 F800.000
G1 X410.799 Y-99.681 Z0.000 F800.000
G2 X409.211 Y-101.268 Z0.000 I-1.588 J0.000 K0.000 F800.000
G1 X407.532 Y-101.268 Z0.000 F800.000
G2 X406.705 Y-101.036 Z0.000 I0.000 J1.588 K0.000 F800.000
G3 X351.718 Y-101.036 Z0.000 I-27.493 J-43.151 K0.000 F800.000
G2 X350.891 Y-101.268 Z0.000 I-0.827 J1.355 K0.000 F800.000
G1 X349.211 Y-101.268 Z0.000 F800.000
G2 X349.178 Y-101.268 Z0.000 I-0.000 J1.587 K0.000 F800.000
G0 Z8.000
G0 X346.714 Z8.000
G0 X346.714 Z5.000
G1 X346.714 Y-101.268 Z0.000 F200.000
G1 X346.714 Y-143.643 Z0.000 F800.000
G2 X345.127 Y-145.231 Z0.000 I-1.587 J-0.000 K0.000 F800.000
G1 X285.127 Y-145.231 Z0.000 F800.000
G2 X283.539 Y-143.643 Z0.000 I-0.000 J1.587 K0.000 F800.000
G1 X283.539 Y-86.390 Z0.000 F800.000
G2 X285.127 Y-84.802 Z0.000 I1.587 J0.000 K0.000 F800.000
G1 X345.127 Y-84.802 Z0.000 F800.000
G2 X346.714 Y-86.390 Z0.000 I0.000 J-1.587 K0.000 F800.000
G1 X346.714 Y-101.268 Z0.000 F800.000
G0 Z8.000
G0 X348.492 Y-104.928 Z8.000
G0 X348.492 Y-104.928 Z5.000
G1 X348.492 Y-104.928 Z0.000 F200.000
G2 X349.186 Y-104.769 Z0.000 I0.694 J-1.428 K0.000 F800.000
G1 X409.186 Y-104.769 Z0.000 F800.000
G2 X410.774 Y-106.356 Z0.000 I0.000 J-1.587 K0.000 F800.000
G1 X410.774 Y-118.356 Z0.000 F800.000
G2 X409.186 Y-119.944 Z0.000 I-1.587 J-0.000 K0.000 F800.000
G1 X407.507 Y-119.944 Z0.000 F800.000
G2 X406.680 Y-119.711 Z0.000 I-0.000 J1.587 K0.000 F800.000
G3 X351.693 Y-119.711 Z0.000 I-27.493 J-43.151 K0.000 F800.000
G2 X350.866 Y-119.944 Z0.000 I-0.827 J1.355 K0.000 F800.000
G1 X349.186 Y-119.944 Z0.000 F800.000
G2 X347.599 Y-118.356 Z0.000 I-0.000 J1.587 K0.000 F800.000
G1 X347.599 Y-106.356 Z0.000 F800.000
G2 X348.492 Y-104.928 Z0.000 I1.587 J0.000 K0.000 F800.000
G0 Z8.000
G0 X348.989 Y-123.545 Z8.000
G0 X348.989 Y-123.545 Z5.000
G1 X348.989 Y-123.545 Z0.000 F200.000
G2 X349.031 Y-123.545 Z0.000 I0.042 J-1.587 K0.000 F800.000
G1 X409.031 Y-123.545 Z0.000 F800.000
G2 X410.619 Y-125.132 Z0.000 I0.000 J-1.587 K0.000 F800.000
G1 X410.619 Y-137.132 Z0.000 F800.000
G2 X409.031 Y-138.719 Z0.000 I-1.587 J-0.000 K0.000 F800.000
G1 X407.352 Y-138.719 Z0.000 F800.000
G2 X406.525 Y-138.487 Z0.000 I0.000 J1.588 K0.000 F800.000
G3 X351.538 Y-138.487 Z0.000 I-27.493 J-43.151 K0.000 F800.000
G2 X350.711 Y-138.719 Z0.000 I-0.827 J1.355 K0.000 F800.000
G1 X349.031 Y-138.719 Z0.000 F800.000
G2 X347.444 Y-137.132 Z0.000 I-0.000 J1.587 K0.000 F800.000
G1 X347.444 Y-125.132 Z0.000 F800.000
G2 X348.989 Y-123.545 Z0.000 I1.587 J0.000 K0.000 F800.000
G0 Z8.000
G0 X281.050 Z8.000
G0 X281.050 Z5.000
G1 X281.050 Y-123.545 Z0.000 F200.000
G1 X281.050 Y-143.190 Z0.000 F800.000
G2 X279.462 Y-144.777 Z0.000 I-1.587 J-0.000 K0.000 F800.000
G1 X219.462 Y-144.777 Z0.000 F800.000
G2 X217.875 Y-143.190 Z0.000 I-0.000 J1.587 K0.000 F800.000
G1 X217.875 Y-85.936 Z0.000 F800.000
G2 X219.462 Y-84.349 Z0.000 I1.587 J0.000 K0.000 F800.000
G1 X279.462 Y-84.349 Z0.000 F800.000
G2 X281.050 Y-85.936 Z0.000 I0.000 J-1.587 K0.000 F800.000
G1 X281.050 Y-123.545 Z0.000 F800.000
G1 X281.050 Y-123.545 Z0.000 F200.000
G1 X281.050 Y-143.190 Z0.000 F800.000
G2 X279.462 Y-144.777 Z0.000 I-1.587 J-0.000 K0.000 F800.000
G1 X219.462 Y-144.777 Z0.000 F800.000
G2 X217.875 Y-143.190 Z0.000 I-0.000 J1.587 K0.000 F800.000
G1 X217.875 Y-85.936 Z0.000 F800.000
G2 X219.462 Y-84.349 Z0.000 I1.587 J0.000 K0.000 F800.000
G1 X279.462 Y-84.349 Z0.000 F800.000
G2 X281.050 Y-85.936 Z0.000 I0.000 J-1.587 K0.000 F800.000
G1 X281.050 Y-123.545 Z0.000 F800.000
G0 Z8.000
G0 X283.539 Z8.000
G0 X283.539 Z5.000
G1 X283.539 Y-123.545 Z0.000 F200.000
G1 X283.539 Y-86.390 Z0.000 F800.000
G2 X285.127 Y-84.802 Z0.000 I1.587 J0.000 K0.000 F800.000
G1 X345.127 Y-84.802 Z0.000 F800.000
G2 X346.714 Y-86.390 Z0.000 I0.000 J-1.587 K0.000 F800.000
G1 X346.714 Y-143.643 Z0.000 F800.000
G2 X345.127 Y-145.231 Z0.000 I-1.587 J-0.000 K0.000 F800.000
G1 X285.127 Y-145.231 Z0.000 F800.000
G2 X283.539 Y-143.643 Z0.000 I-0.000 J1.587 K0.000 F800.000
G1 X283.539 Y-123.545 Z0.000 F800.000
G0 Z8.000
G0 X347.444 Y-125.094 Z8.000
G0 X347.444 Y-125.094 Z5.000
G1 X347.444 Y-125.094 Z0.000 F200.000
G2 X349.031 Y-123.545 Z0.000 I1.587 J-0.038 K0.000 F800.000
G1 X409.031 Y-123.545 Z0.000 F800.000
G2 X410.619 Y-125.132 Z0.000 I0.000 J-1.587 K0.000 F800.000
G1 X410.619 Y-137.132 Z0.000 F800.000
G2 X409.031 Y-138.719 Z0.000 I-1.587 J-0.000 K0.000 F800.000
G1 X407.352 Y-138.719 Z0.000 F800.000
G2 X406.525 Y-138.487 Z0.000 I0.000 J1.588 K0.000 F800.000
G3 X351.538 Y-138.487 Z0.000 I-27.493 J-43.151 K0.000 F800.000
G2 X350.711 Y-138.719 Z0.000 I-0.827 J1.355 K0.000 F800.000
G1 X349.031 Y-138.719 Z0.000 F800.000
G2 X347.444 Y-137.132 Z0.000 I-0.000 J1.587 K0.000 F800.000
G1 X347.444 Y-125.132 Z0.000 F800.000
G2 X347.444 Y-125.094 Z0.000 I1.587 J0.000 K0.000 F800.000
G0 Z8.000
G0 X348.789 Y-119.893 Z8.000
G0 X348.789 Y-119.893 Z5.000
G1 X348.789 Y-119.893 Z0.000 F200.000
G2 X347.599 Y-118.356 Z0.000 I0.397 J1.537 K0.000 F800.000
G1 X347.599 Y-106.356 Z0.000 F800.000
G2 X349.186 Y-104.769 Z0.000 I1.587 J0.000 K0.000 F800.000
G1 X409.186 Y-104.769 Z0.000 F800.000
G2 X410.774 Y-106.356 Z0.000 I0.000 J-1.587 K0.000 F800.000
G1 X410.774 Y-118.356 Z0.000 F800.000
G2 X409.186 Y-119.944 Z0.000 I-1.587 J-0.000 K0.000 F800.000
G1 X407.507 Y-119.944 Z0.000 F800.000
G2 X406.680 Y-119.711 Z0.000 I-0.000 J1.587 K0.000 F800.000
G3 X351.693 Y-119.711 Z0.000 I-27.493 J-43.151 K0.000 F800.000
G2 X350.866 Y-119.944 Z0.000 I-0.827 J1.355 K0.000 F800.000
G1 X349.186 Y-119.944 Z0.000 F800.000
G2 X348.789 Y-119.893 Z0.000 I-0.000 J1.587 K0.000 F800.000
G0 Z8.000
G0 X349.178 Y-101.268 Z8.000
G0 X349.178 Y-101.268 Z5.000
G1 X349.178 Y-101.268 Z0.000 F200.000
G2 X347.624 Y-99.681 Z0.000 I0.033 J1.587 K0.000 F800.000
G1 X347.624 Y-87.681 Z0.000 F800.000
G2 X349.211 Y-86.094 Z0.000 I1.587 J0.000 K0.000 F800.000
G1 X409.211 Y-86.094 Z0.000 F800.000
G2 X410.799 Y-87.681 Z0.000 I0.000 J-1.587 K0.000 F800.000
G1 X410.799 Y-99.681 Z0.000 F800.000
G2 X409.211 Y-101.268 Z0.000 I-1.588 J0.000 K0.000 F800.000
G1 X407.532 Y-101.268 Z0.000 F800.000
G2 X406.705 Y-101.036 Z0.000 I0.000 J1.588 K0.000 F800.000
G3 X351.718 Y-101.036 Z0.000 I-27.493 J-43.151 K0.000 F800.000
G2 X350.891 Y-101.268 Z0.000 I-0.827 J1.355 K0.000 F800.000
G1 X349.211 Y-101.268 Z0.000 F800.000
G2 X349.178 Y-101.268 Z0.000 I-0.000 J1.587 K0.000 F800.000
G1 X349.178 Y-101.268 Z0.000 F200.000
G2 X347.624 Y-99.681 Z0.000 I0.033 J1.587 K0.000 F800.000
G1 X347.624 Y-87.681 Z0.000 F800.000
G2 X349.211 Y-86.094 Z0.000 I1.587 J0.000 K0.000 F800.000
G1 X409.211 Y-86.094 Z0.000 F800.000
G2 X410.799 Y-87.681 Z0.000 I0.000 J-1.587 K0.000 F800.000
G1 X410.799 Y-99.681 Z0.000 F800.000
G2 X409.211 Y-101.268 Z0.000 I-1.588 J0.000 K0.000 F800.000
G1 X407.532 Y-101.268 Z0.000 F800.000
G2 X406.705 Y-101.036 Z0.000 I0.000 J1.588 K0.000 F800.000
G3 X351.718 Y-101.036 Z0.000 I-27.493 J-43.151 K0.000 F800.000
G2 X350.891 Y-101.268 Z0.000 I-0.827 J1.355 K0.000 F800.000
G1 X349.211 Y-101.268 Z0.000 F800.000
G2 X349.178 Y-101.268 Z0.000 I-0.000 J1.587 K0.000 F800.000
G0 Z8.000
G0 X346.714 Z8.000
G0 X346.714 Z5.000
G1 X346.714 Y-101.268 Z0.000 F200.000
G1 X346.714 Y-143.643 Z0.000 F800.000
G2 X345.127 Y-145.231 Z0.000 I-1.587 J-0.000 K0.000 F800.000
G1 X285.127 Y-145.231 Z0.000 F800.000
G2 X283.539 Y-143.643 Z0.000 I-0.000 J1.587 K0.000 F800.000
G1 X283.539 Y-86.390 Z0.000 F800.000
G2 X285.127 Y-84.802 Z0.000 I1.587 J0.000 K0.000 F800.000
G1 X345.127 Y-84.802 Z0.000 F800.000
G2 X346.714 Y-86.390 Z0.000 I0.000 J-1.587 K0.000 F800.000
G1 X346.714 Y-101.268 Z0.000 F800.000
G0 Z8.000
G0 X348.492 Y-104.928 Z8.000
G0 X348.492 Y-104.928 Z5.000
G1 X348.492 Y-104.928 Z0.000 F200.000
G2 X349.186 Y-104.769 Z0.000 I0.694 J-1.428 K0.000 F800.000
G1 X409.186 Y-104.769 Z0.000 F800.000
G2 X410.774 Y-106.356 Z0.000 I0.000 J-1.587 K0.000 F800.000
G1 X410.774 Y-118.356 Z0.000 F800.000
G2 X409.186 Y-119.944 Z0.000 I-1.587 J-0.000 K0.000 F800.000
G1 X407.507 Y-119.944 Z0.000 F800.000
G2 X406.680 Y-119.711 Z0.000 I-0.000 J1.587 K0.000 F800.000
G3 X351.693 Y-119.711 Z0.000 I-27.493 J-43.151 K0.000 F800.000
G2 X350.866 Y-119.944 Z0.000 I-0.827 J1.355 K0.000 F800.000
G1 X349.186 Y-119.944 Z0.000 F800.000
G2 X347.599 Y-118.356 Z0.000 I-0.000 J1.587 K0.000 F800.000
G1 X347.599 Y-106.356 Z0.000 F800.000
G2 X348.492 Y-104.928 Z0.000 I1.587 J0.000 K0.000 F800.000
G0 Z8.000
G0 X348.989 Y-123.545 Z8.000
G0 X348.989 Y-123.545 Z5.000
G1 X348.989 Y-123.545 Z0.000 F200.000
G2 X349.031 Y-123.545 Z0.000 I0.042 J-1.587 K0.000 F800.000
G1 X409.031 Y-123.545 Z0.000 F800.000
G2 X410.619 Y-125.132 Z0.000 I0.000 J-1.587 K0.000 F800.000
G1 X410.619 Y-137.132 Z0.000 F800.000
G2 X409.031 Y-138.719 Z0.000 I-1.587 J-0.000 K0.000 F800.000
G1 X407.352 Y-138.719 Z0.000 F800.000
G2 X406.525 Y-138.487 Z0.000 I0.000 J1.588 K0.000 F800.000
G3 X351.538 Y-138.487 Z0.000 I-27.493 J-43.151 K0.000 F800.000
G2 X350.711 Y-138.719 Z0.000 I-0.827 J1.355 K0.000 F800.000
G1 X349.031 Y-138.719 Z0.000 F800.000
G2 X347.444 Y-137.132 Z0.000 I-0.000 J1.587 K0.000 F800.000
G1 X347.444 Y-125.132 Z0.000 F800.000
G2 X348.989 Y-123.545 Z0.000 I1.587 J0.000 K0.000 F800.000
G0 Z8.000
G0 X281.050 Z8.000
G0 X281.050 Z5.000
G1 X281.050 Y-123.545 Z0.000 F200.000
G1 X281.050 Y-143.190 Z0.000 F800.000
G2 X279.462 Y-144.777 Z0.000 I-1.587 J-0.000 K0.000 F800.000
G1 X219.462 Y-144.777 Z0.000 F800.000
G2 X217.875 Y-143.190 Z0.000 I-0.000 J1.587 K0.000 F800.000
G1 X217.875 Y-85.936 Z0.000 F800.000
G2 X219.462 Y-84.349 Z0.000 I1.587 J0.000 K0.000 F800.000
G1 X279.462 Y-84.349 Z0.000 F800.000
G2 X281.050 Y-85.936 Z0.000 I0.000 J-1.587 K0.000 F800.000
G1 X281.050 Y-123.545 Z0.000 F800.000
G1 X281.050 Y-123.545 Z0.000 F200.000
G1 X281.050 Y-143.190 Z0.000 F800.000
G2 X279.462 Y-144.777 Z0.000 I-1.587 J-0.000 K0.000 F800.000
G1 X219.462 Y-144.777 Z0.000 F800.000
G2 X217.875 Y-143.190 Z0.000 I-0.000 J1.587 K0.000 F800.000
G1 X217.875 Y-85.936 Z0.000 F800.000
G2 X219.462 Y-84.349 Z0.000 I1.587 J0.000 K0.000 F800.000
G1 X279.462 Y-84.349 Z0.000 F800.000
G2 X281.050 Y-85.936 Z0.000 I0.000 J-1.587 K0.000 F800.000
G1 X281.050 Y-123.545 Z0.000 F800.000
G0 Z8.000
G0 X283.539 Z8.000
G0 X283.539 Z5.000
G1 X283.539 Y-123.545 Z0.000 F200.000
G1 X283.539 Y-86.390 Z0.000 F800.000
G2 X285.127 Y-84.802 Z0.000 I1.587 J0.000 K0.000 F800.000
G1 X345.127 Y-84.802 Z0.000 F800.000
G2 X346.714 Y-86.390 Z0.000 I0.000 J-1.587 K0.000 F800.000
G1 X346.714 Y-143.643 Z0.000 F800.000
G2 X345.127 Y-145.231 Z0.000 I-1.587 J-0.000 K0.000 F800.000
G1 X285.127 Y-145.231 Z0.000 F800.000
G2 X283.539 Y-143.643 Z0.000 I-0.000 J1.587 K0.000 F800.000
G1 X283.539 Y-123.545 Z0.000 F800.000
G0 Z8.000
G0 X347.444 Y-125.094 Z8.000
G0 X347.444 Y-125.094 Z5.000
G1 X347.444 Y-125.094 Z0.000 F200.000
G2 X349.031 Y-123.545 Z0.000 I1.587 J-0.038 K0.000 F800.000
G1 X409.031 Y-123.545 Z0.000 F800.000
G2 X410.619 Y-125.132 Z0.000 I0.000 J-1.587 K0.000 F800.000
G1 X410.619 Y-137.132 Z0.000 F800.000
G2 X409.031 Y-138.719 Z0.000 I-1.587 J-0.000 K0.000 F800.000
G1 X407.352 Y-138.719 Z0.000 F800.000
G2 X406.525 Y-138.487 Z0.000 I0.000 J1.588 K0.000 F800.000
G3 X351.538 Y-138.487 Z0.000 I-27.493 J-43.151 K0.000 F800.000
G2 X350.711 Y-138.719 Z0.000 I-0.827 J1.355 K0.000 F800.000
G1 X349.031 Y-138.719 Z0.000 F800.000
G2 X347.444 Y-137.132 Z0.000 I-0.000 J1.587 K0.000 F800.000
G1 X347.444 Y-125.132 Z0.000 F800.000
G2 X347.444 Y-125.094 Z0.000 I1.587 J0.000 K0.000 F800.000
G0 Z8.000
G0 X348.789 Y-119.893 Z8.000
G0 X348.789 Y-119.893 Z5.000
G1 X348.789 Y-119.893 Z0.000 F200.000
G2 X347.599 Y-118.356 Z0.000 I0.397 J1.537 K0.000 F800.000
G1 X347.599 Y-106.356 Z0.000 F800.000
G2 X349.186 Y-104.769 Z0.000 I1.587 J0.000 K0.000 F800.000
G1 X409.186 Y-104.769 Z0.000 F800.000
G2 X410.774 Y-106.356 Z0.000 I0.000 J-1.587 K0.000 F800.000
G1 X410.774 Y-118.356 Z0.000 F800.000
G2 X409.186 Y-119.944 Z0.000 I-1.587 J-0.000 K0.000 F800.000
G1 X407.507 Y-119.944 Z0.000 F800.000
G2 X406.680 Y-119.711 Z0.000 I-0.000 J1.587 K0.000 F800.000
G3 X351.693 Y-119.711 Z0.000 I-27.493 J-43.151 K0.000 F800.000
G2 X350.866 Y-119.944 Z0.000 I-0.827 J1.355 K0.000 F800.000
G1 X349.186 Y-119.944 Z0.000 F800.000
G2 X348.789 Y-119.893 Z0.000 I-0.000 J1.587 K0.000 F800.000
G0 Z8.000
G0 X349.178 Y-101.268 Z8.000
G0 X349.178 Y-101.268 Z5.000
G1 X349.178 Y-101.268 Z0.000 F200.000
G2 X347.624 Y-99.681 Z0.000 I0.033 J1.587 K0.000 F800.000
G1 X347.624 Y-87.681 Z0.000 F800.000
G2 X349.211 Y-86.094 Z0.000 I1.587 J0.000 K0.000 F800.000
G1 X409.211 Y-86.094 Z0.000 F800.000
G2 X410.799 Y-87.681 Z0.000 I0.000 J-1.587 K0.000 F800.000
G1 X410.799 Y-99.681 Z0.000 F800.000
G2 X409.211 Y-101.268 Z0.000 I-1.588 J0.000 K0.000 F800.000
G1 X407.532 Y-101.268 Z0.000 F800.000
G2 X406.705 Y-101.036 Z0.000 I0.000 J1.588 K0.000 F800.000
G3 X351.718 Y-101.036 Z0.000 I-27.493 J-43.151 K0.000 F800.000
G2 X350.891 Y-101.268 Z0.000 I-0.827 J1.355 K0.000 F800.000
G1 X349.211 Y-101.268 Z0.000 F800.000
G2 X349.178 Y-101.268 Z0.000 I-0.000 J1.587 K0.000 F800.000
G1 X349.178 Y-101.268 Z0.000 F200.000
G2 X347.624 Y-99.681 Z0.000 I0.033 J1.587 K0.000 F800.000
G1 X347.624 Y-87.681 Z0.000 F800.000
G2 X349.211 Y-86.094 Z0.000 I1.587 J0.000 K0.000 F800.000
G1 X409.211 Y-86.094 Z0.000 F800.000
G2 X410.799 Y-87.681 Z0.000 I0.000 J-1.587 K0.000 F800.000
G1 X410.799 Y-99.681 Z0.000 F800.000
G2 X409.211 Y-101.268 Z0.000 I-1.588 J0.000 K0.000 F800.000
G1 X407.532 Y-101.268 Z0.000 F800.000
G2 X406.705 Y-101.036 Z0.000 I0.000 J1.588 K0.000 F800.000
G3 X351.718 Y-101.036 Z0.000 I-27.493 J-43.151 K0.000 F800.000
G2 X350.891 Y-101.268 Z0.000 I-0.827 J1.355 K0.000 F800.000
G1 X349.211 Y-101.268 Z0.000 F800.000
G2 X349.178 Y-101.268 Z0.000 I-0.000 J1.587 K0.000 F800.000
G0 Z8.000
G0 X346.714 Z8.000
G0 X346.714 Z5.000
G1 X346.714 Y-101.268 Z0.000 F200.000
G1 X346.714 Y-143.643 Z0.000 F800.000
G2 X345.127 Y-145.231 Z0.000 I-1.587 J-0.000 K0.000 F800.000
G1 X285.127 Y-145.231 Z0.000 F800.000
G2 X283.539 Y-143.643 Z0.000 I-0.000 J1.587 K0.000 F800.000
G1 X283.539 Y-86.390 Z0.000 F800.000
G2 X285.127 Y-84.802 Z0.000 I1.587 J0.000 K0.000 F800.000
G1 X345.127 Y-84.802 Z0.000 F800.000
G2 X346.714 Y-86.390 Z0.000 I0.000 J-1.587 K0.000 F800.000
G1 X346.714 Y-101.268 Z0.000 F800.000
G0 Z8.000
G0 X348.492 Y-104.928 Z8.000
G0 X348.492 Y-104.928 Z5.000
G1 X348.492 Y-104.928 Z0.000 F200.000
G2 X349.186 Y-104.769 Z0.000 I0.694 J-1.428 K0.000 F800.000
G1 X409.186 Y-104.769 Z0.000 F800.000
G2 X410.774 Y-106.356 Z0.000 I0.000 J-1.587 K0.000 F800.000
G1 X410.774 Y-118.356 Z0.000 F800.000
G2 X409.186 Y-119.944 Z0.000 I-1.587 J-0.000 K0.000 F800.000
G1 X407.507 Y-119.944 Z0.000 F800.000
G2 X406.680 Y-119.711 Z0.000 I-0.000 J1.587 K0.000 F800.000
G3 X351.693 Y-119.711 Z0.000 I-27.493 J-43.151 K0.000 F800.000
G2 X350.866 Y-119.944 Z0.000 I-0.827 J1.355 K0.000 F800.000
G1 X349.186 Y-119.944 Z0.000 F800.000
G2 X347.599 Y-118.356 Z0.000 I-0.000 J1.587 K0.000 F800.000
G1 X347.599 Y-106.356 Z0.000 F800.000
G2 X348.492 Y-104.928 Z0.000 I1.587 J0.000 K0.000 F800.000
G0 Z8.000
G0 X348.989 Y-123.545 Z8.000
G0 X348.989 Y-123.545 Z5.000
G1 X348.989 Y-123.545 Z0.000 F200.000
G2 X349.031 Y-123.545 Z0.000 I0.042 J-1.587 K0.000 F800.000
G1 X409.031 Y-123.545 Z0.000 F800.000
G2 X410.619 Y-125.132 Z0.000 I0.000 J-1.587 K0.000 F800.000
G1 X410.619 Y-137.132 Z0.000 F800.000
G2 X409.031 Y-138.719 Z0.000 I-1.587 J-0.000 K0.000 F800.000
G1 X407.352 Y-138.719 Z0.000 F800.000
G2 X406.525 Y-138.487 Z0.000 I0.000 J1.588 K0.000 F800.000
G3 X351.538 Y-138.487 Z0.000 I-27.493 J-43.151 K0.000 F800.000
G2 X350.711 Y-138.719 Z0.000 I-0.827 J1.355 K0.000 F800.000
G1 X349.031 Y-138.719 Z0.000 F800.000
G2 X347.444 Y-137.132 Z0.000 I-0.000 J1.587 K0.000 F800.000
G1 X347.444 Y-125.132 Z0.000 F800.000
G2 X348.989 Y-123.545 Z0.000 I1.587 J0.000 K0.000 F800.000
G0 Z8.000
G0 X281.050 Z8.000
G0 X281.050 Z5.000
G1 X281.050 Y-123.545 Z0.000 F200.000
G1 X281.050 Y-143.190 Z0.000 F800.000
G2 X279.462 Y-144.777 Z0.000 I-1.587 J-0.000 K0.000 F800.000
G1 X219.462 Y-144.777 Z0.000 F800.000
G2 X217.875 Y-143.190 Z0.000 I-0.000 J1.587 K0.000 F800.000
G1 X217.875 Y-85.936 Z0.000 F800.000
G2 X219.462 Y-84.349 Z0.000 I1.587 J0.000 K0.000 F800.000
G1 X279.462 Y-84.349 Z0.000 F800.000
G2 X281.050 Y-85.936 Z0.000 I0.000 J-1.587 K0.000 F800.000
G1 X281.050 Y-123.545 Z0.000 F800.000
G1 X281.050 Y-123.545 Z0.000 F200.000
G1 X281.050 Y-143.190 Z0.000 F800.000
G2 X279.462 Y-144.777 Z0.000 I-1.587 J-0.000 K0.000 F800.000
G1 X219.462 Y-144.777 Z0.000 F800.000
G2 X217.875 Y-143.190 Z0.000 I-0.000 J1.587 K0.000 F800.000
G1 X217.875 Y-85.936 Z0.000 F800.000
G2 X219.462 Y-84.349 Z0.000 I1.587 J0.000 K0.000 F800.000
G1 X279.462 Y-84.349 Z0.000 F800.000
G2 X281.050 Y-85.936 Z0.000 I0.000 J-1.587 K0.000 F800.000
G1 X281.050 Y-123.545 Z0.000 F800.000
G0 Z8.000
G0 X283.539 Z8.000
G0 X283.539 Z5.000
G1 X283.539 Y-123.545 Z0.000 F200.000
G1 X283.539 Y-86.390 Z0.000 F800.000
G2 X285.127 Y-84.802 Z0.000 I1.587 J0.000 K0.000 F800.000
G1 X345.127 Y-84.802 Z0.000 F800.000
G2 X346.714 Y-86.390 Z0.000 I0.000 J-1.587 K0.000 F800.000
G1 X346.714 Y-143.643 Z0.000 F800.000
G2 X345.127 Y-145.231 Z0.000 I-1.587 J-0.000 K0.000 F800.000
G1 X285.127 Y-145.231 Z0.000 F800.000
G2 X283.539 Y-143.643 Z0.000 I-0.000 J1.587 K0.000 F800.000
G1 X283.539 Y-123.545 Z0.000 F800.000
G0 Z8.000
G0 X347.444 Y-125.094 Z8.000
G0 X347.444 Y-125.094 Z5.000
G1 X347.444 Y-125.094 Z0.000 F200.000
G2 X349.031 Y-123.545 Z0.000 I1.587 J-0.038 K0.000 F800.000
G1 X409.031 Y-123.545 Z0.000 F800.000
G2 X410.619 Y-125.132 Z0.000 I0.000 J-1.587 K0.000 F800.000
G1 X410.619 Y-137.132 Z0.000 F800.000
G2 X409.031 Y-138.719 Z0.000 I-1.587 J-0.000 K0.000 F800.000
G1 X407.352 Y-138.719 Z0.000 F800.000
G2 X406.525 Y-138.487 Z0.000 I0.000 J1.588 K0.000 F800.000
G3 X351.538 Y-138.487 Z0.000 I-27.493 J-43.151 K0.000 F800.000
G2 X350.711 Y-138.719 Z0.000 I-0.827 J1.355 K0.000 F800.000
G1 X349.031 Y-138.719 Z0.000 F800.000
G2 X347.444 Y-137.132 Z0.000 I-0.000 J1.587 K0.000 F800.000
G1 X347.444 Y-125.132 Z0.000 F800.000
G2 X347.444 Y-125.094 Z0.000 I1.587 J0.000 K0.000 F800.000
G0 Z8.000
G0 X348.789 Y-119.893 Z8.000
G0 X348.789 Y-119.893 Z5.000
G1 X348.789 Y-119.893 Z0.000 F200.000
G2 X347.599 Y-118.356 Z0.000 I0.397 J1.537 K0.000 F800.000
G1 X347.599 Y-106.356 Z0.000 F800.000
G2 X349.186 Y-104.769 Z0.000 I1.587 J0.000 K0.000 F800.000
G1 X409.186 Y-104.769 Z0.000 F800.000
G2 X410.774 Y-106.356 Z0.000 I0.000 J-1.587 K0.000 F800.000
G1 X410.774 Y-118.356 Z0.000 F800.000
G2 X409.186 Y-119.944 Z0.000 I-1.587 J-0.000 K0.000 F800.000
G1 X407.507 Y-119.944 Z0.000 F800.000
G2 X406.680 Y-119.711 Z0.000 I-0.000 J1.587 K0.000 F800.000
G3 X351.693 Y-119.711 Z0.000 I-27.493 J-43.151 K0.000 F800.000
G2 X350.866 Y-119.944 Z0.000 I-0.827 J1.355 K0.000 F800.000
G1 X349.186 Y-119.944 Z0.000 F800.000
G2 X348.789 Y-119.893 Z0.000 I-0.000 J1.587 K0.000 F800.000
G0 Z8.000
G0 X349.178 Y-101.268 Z8.000
G0 X349.178 Y-101.268 Z5.000
G1 X349.178 Y-101.268 Z0.000 F200.000
G2 X347.624 Y-99.681 Z0.000 I0.033 J1.587 K0.000 F800.000
G1 X347.624 Y-87.681 Z0.000 F800.000
G2 X349.211 Y-86.094 Z0.000 I1.587 J0.000 K0.000 F800.000
G1 X409.211 Y-86.094 Z0.000 F800.000
G2 X410.799 Y-87.681 Z0.000 I0.000 J-1.587 K0.000 F800.000
G1 X410.799 Y-99.681 Z0.000 F800.000
G2 X409.211 Y-101.268 Z0.000 I-1.588 J0.000 K0.000 F800.000
G1 X407.532 Y-101.268 Z0.000 F800.000
G2 X406.705 Y-101.036 Z0.000 I0.000 J1.588 K0.000 F800.000
G3 X351.718 Y-101.036 Z0.000 I-27.493 J-43.151 K0.000 F800.000
G2 X350.891 Y-101.268 Z0.000 I-0.827 J1.355 K0.000 F800.000
G1 X349.211 Y-101.268 Z0.000 F800.000
G2 X349.178 Y-101.268 Z0.000 I-0.000 J1.587 K0.000 F800.000
G1 X349.178 Y-101.268 Z0.000 F200.000
G2 X347.624 Y-99.681 Z0.000 I0.033 J1.587 K0.000 F800.000
G1 X347.624 Y-87.681 Z0.000 F800.000
G2 X349.211 Y-86.094 Z0.000 I1.587 J0.000 K0.000 F800.000
G1 X409.211 Y-86.094 Z0.000 F800.000
G2 X410.799 Y-87.681 Z0.000 I0.000 J-1.587 K0.000 F800.000
G1 X410.799 Y-99.681 Z0.000 F800.000
G2 X409.211 Y-101.268 Z0.000 I-1.588 J0.000 K0.000 F800.000
G1 X407.532 Y-101.268 Z0.000 F800.000
G2 X406.705 Y-101.036 Z0.000 I0.000 J1.588 K0.000 F800.000
G3 X351.718 Y-101.036 Z0.000 I-27.493 J-43.151 K0.000 F800.000
G2 X350.891 Y-101.268 Z0.000 I-0.827 J1.355 K0.000 F800.000
G1 X349.211 Y-101.268 Z0.000 F800.000
G2 X349.178 Y-101.268 Z0.000 I-0.000 J1.587 K0.000 F800.000
G0 Z8.000
G0 X346.714 Z8.000
G0 X346.714 Z5.000
G1 X346.714 Y-101.268 Z0.000 F200.000
G1 X346.714 Y-143.643 Z0.000 F800.000
G2 X345.127 Y-145.231 Z0.000 I-1.587 J-0.000 K0.000 F800.000
G1 X285.127 Y-145.231 Z0.000 F800.000
G2 X283.539 Y-143.643 Z0.000 I-0.000 J1.587 K0.000 F800.000
G1 X283.539 Y-86.390 Z0.000 F800.000
G2 X285.127 Y-84.802 Z0.000 I1.587 J0.000 K0.000 F800.000
G1 X345.127 Y-84.802 Z0.000 F800.000
G2 X346.714 Y-86.390 Z0.000 I0.000 J-1.587 K0.000 F800.000
G1 X346.714 Y-101.268 Z0.000 F800.000
G0 Z8.000
G0 X348.492 Y-104.928 Z8.000
G0 X348.492 Y-104.928 Z5.000
G1 X348.492 Y-104.928 Z0.000 F200.000
G2 X349.186 Y-104.769 Z0.000 I0.694 J-1.428 K0.000 F800.000
G1 X409.186 Y-104.769 Z0.000 F800.000
G2 X410.774 Y-106.356 Z0.000 I0.000 J-1.587 K0.000 F800.000
G1 X410.774 Y-118.356 Z0.000 F800.000
G2 X409.186 Y-119.944 Z0.000 I-1.587 J-0.000 K0.000 F800.000
G1 X407.507 Y-119.944 Z0.000 F800.000
G2 X406.680 Y-119.711 Z0.000 I-0.000 J1.587 K0.000 F800.000
G3 X351.693 Y-119.711 Z0.000 I-27.493 J-43.151 K0.000 F800.000
G2 X350.866 Y-119.944 Z0.000 I-0.827 J1.355 K0.000 F800.000
G1 X349.186 Y-119.944 Z0.000 F800.000
G2 X347.599 Y-118.356 Z0.000 I-0.000 J1.587 K0.000 F800.000
G1 X347.599 Y-106.356 Z0.000 F800.000
G2 X348.492 Y-104.928 Z0.000 I1.587 J0.000 K0.000 F800.000
G0 Z8.000
G0 X348.989 Y-123.545 Z8.000
G0 X348.989 Y-123.545 Z5.000
G1 X348.989 Y-123.545 Z0.000 F200.000
G2 X349.031 Y-123.545 Z0.000 I0.042 J-1.587 K0.000 F800.000
G1 X409.031 Y-123.545 Z0.000 F800.000
G2 X410.619 Y-125.132 Z0.000 I0.000 J-1.587 K0.000 F800.000
G1 X410.619 Y-137.132 Z0.000 F800.000
G2 X409.031 Y-138.719 Z0.000 I-1.587 J-0.000 K0.000 F800.000
G1 X407.352 Y-138.719 Z0.000 F800.000
G2 X406.525 Y-138.487 Z0.000 I0.000 J1.588 K0.000 F800.000
G3 X351.538 Y-138.487 Z0.000 I-27.493 J-43.151 K0.000 F800.000
G2 X350.711 Y-138.719 Z0.000 I-0.827 J1.355 K0.000 F800.000
G1 X349.031 Y-138.719 Z0.000 F800.000
G2 X347.444 Y-137.132 Z0.000 I-0.000 J1.587 K0.000 F800.000
G1 X347.444 Y-125.132 Z0.000 F800.000
G2 X348.989 Y-123.545 Z0.000 I1.587 J0.000 K0.000 F800.000
G0 Z8.000
G0 X281.050 Z8.000
G0 X281.050 Z5.000
G1 X281.050 Y-123.545 Z0.000 F200.000
G1 X281.050 Y-143.190 Z0.000 F800.000
G2 X279.462 Y-144.777 Z0.000 I-1.587 J-0.000 K0.000 F800.000
G1 X219.462 Y-144.777 Z0.000 F800.000
G2 X217.875 Y-143.190 Z0.000 I-0.000 J1.587 K0.000 F800.000
G1 X217.875 Y-85.936 Z0.000 F800.000
G2 X219.462 Y-84.349 Z0.000 I1.587 J0.000 K0.000 F800.000
G1 X279.462 Y-84.349 Z0.000 F800.000
G2 X281.050 Y-85.936 Z0.000 I0.000 J-1.587 K0.000 F800.000
G1 X281.050 Y-123.545 Z0.000 F800.000
G1 X281.050 Y-123.545 Z0.000 F200.000
G1 X281.050 Y-143.190 Z0.000 F800.000
G2 X279.462 Y-144.777 Z0.000 I-1.587 J-0.000 K0.000 F800.000
G1 X219.462 Y-144.777 Z0.000 F800.000
G2 X217.875 Y-143.190 Z0.000 I-0.000 J1.587 K0.000 F800.000
G1 X217.875 Y-85.936 Z0.000 F800.000
G2 X219.462 Y-84.349 Z0.000 I1.587 J0.000 K0.000 F800.000
G1 X279.462 Y-84.349 Z0.000 F800.000
G2 X281.050 Y-85.936 Z0.000 I0.000 J-1.587 K0.000 F800.000
G1 X281.050 Y-123.545 Z0.000 F800.000
G0 Z8.000
G0 X283.539 Z8.000
G0 X283.539 Z5.000
G1 X283.539 Y-123.545 Z0.000 F200.000
G1 X283.539 Y-86.390 Z0.000 F800.000
G2 X285.127 Y-84.802 Z0.000 I1.587 J0.000 K0.000 F800.000
G1 X345.127 Y-84.802 Z0.000 F800.000
G2 X346.714 Y-86.390 Z0.000 I0.000 J-1.587 K0.000 F800.000
G1 X346.714 Y-143.643 Z0.000 F800.000
G2 X345.127 Y-145.231 Z0.000 I-1.587 J-0.000 K0.000 F800.000
G1 X285.127 Y-145.231 Z0.000 F800.000
G2 X283.539 Y-143.643 Z0.000 I-0.000 J1.587 K0.000 F800.000
G1 X283.539 Y-123.545 Z0.000 F800.000
G0 Z8.000
G0 X347.444 Y-125.094 Z8.000
G0 X347.444 Y-125.094 Z5.000
G1 X347.444 Y-125.094 Z0.000 F200.000
G2 X349.031 Y-123.545 Z0.000 I1.587 J-0.038 K0.000 F800.000
G1 X409.031 Y-123.545 Z0.000 F800.000
G2 X410.619 Y-125.132 Z0.000 I0.000 J-1.587 K0.000 F800.000
G1 X410.619 Y-137.132 Z0.000 F800.000
G2 X409.031 Y-138.719 Z0.000 I-1.587 J-0.000 K0.000 F800.000
G1 X407.352 Y-138.719 Z0.000 F800.000
G2 X406.525 Y-138.487 Z0.000 I0.000 J1.588 K0.000 F800.000
G3 X351.538 Y-138.487 Z0.000 I-27.493 J-43.151 K0.000 F800.000
G2 X350.711 Y-138.719 Z0.000 I-0.827 J1.355 K0.000 F800.000
G1 X349.031 Y-138.719 Z0.000 F800.000
G2 X347.444 Y-137.132 Z0.000 I-0.000 J1.587 K0.000 F800.000
G1 X347.444 Y-125.132 Z0.000 F800.000
G2 X347.444 Y-125.094 Z0.000 I1.587 J0.000 K0.000 F800.000
G0 Z8.000
G0 X348.789 Y-119.893 Z8.000
G0 X348.789 Y-119.893 Z5.000
G1 X348.789 Y-119.893 Z0.000 F200.000
G2 X347.599 Y-118.356 Z0.000 I0.397 J1.537 K0.000 F800.000
G1 X347.599 Y-106.356 Z0.000 F800.000
G2 X349.186 Y-104.769 Z0.000 I1.587 J0.000 K0.000 F800.000
G1 X409.186 Y-104.769 Z0.000 F800.000
G2 X410.774 Y-106.356 Z0.000 I0.000 J-1.587 K0.000 F800.000
G1 X410.774 Y-118.356 Z0.000 F800.000
G2 X409.186 Y-119.944 Z0.000 I-1.587 J-0.000 K0.000 F800.000
G1 X407.507 Y-119.944 Z0.000 F800.000
G2 X406.680 Y-119.711 Z0.000 I-0.000 J1.587 K0.000 F800.000
G3 X351.693 Y-119.711 Z0.000 I-27.493 J-43.151 K0.000 F800.000
G2 X350.866 Y-119.944 Z0.000 I-0.827 J1.355 K0.000 F800.000
G1 X349.186 Y-119.944 Z0.000 F800.000
G2 X348.789 Y-119.893 Z0.000 I-0.000 J1.587 K0.000 F800.000
G0 Z8.000
G0 X349.178 Y-101.268 Z8.000
G0 X349.178 Y-101.268 Z5.000
G1 X349.178 Y-101.268 Z0.000 F200.000
G2 X347.624 Y-99.681 Z0.000 I0.033 J1.587 K0.000 F800.000
G1 X347.624 Y-87.681 Z0.000 F800.000
G2 X349.211 Y-86.094 Z0.000 I1.587 J0.000 K0.000 F800.000
G1 X409.211 Y-86.094 Z0.000 F800.000
G2 X410.799 Y-87.681 Z0.000 I0.000 J-1.587 K0.000 F800.000
G1 X410.799 Y-99.681 Z0.000 F800.000
G2 X409.211 Y-101.268 Z0.000 I-1.588 J0.000 K0.000 F800.000
G1 X407.532 Y-101.268 Z0.000 F800.000
G2 X406.705 Y-101.036 Z0.000 I0.000 J1.588 K0.000 F800.000
G3 X351.718 Y-101.036 Z0.000 I-27.493 J-43.151 K0.000 F800.000
G2 X350.891 Y-101.268 Z0.000 I-0.827 J1.355 K0.000 F800.000
G1 X349.211 Y-101.268 Z0.000 F800.000
G2 X349.178 Y-101.268 Z0.000 I-0.000 J1.587 K0.000 F800.000
G1 X349.178 Y-101.268 Z0.000 F200.000
G2 X347.624 Y-99.681 Z0.000 I0.033 J1.587 K0.000 F800.000
G1 X347.624 Y-87.681 Z0.000 F800.000
G2 X349.211 Y-86.094 Z0.000 I1.587 J0.000 K0.000 F800.000
G1 X409.211 Y-86.094 Z0.000 F800.000
G2 X410.799 Y-87.681 Z0.000 I0.000 J-1.587 K0.000 F800.000
G1 X410.799 Y-99.681 Z0.000 F800.000
G2 X409.211 Y-101.268 Z0.000 I-1.588 J0.000 K0.000 F800.000
G1 X407.532 Y-101.268 Z0.000 F800.000
G2 X406.705 Y-101.036 Z0.000 I0.000 J1.588 K0.000 F800.000
G3 X351.718 Y-101.036 Z0.000 I-27.493 J-43.151 K0.000 F800.000
G2 X350.891 Y-101.268 Z0.000 I-0.827 J1.355 K0.000 F800.000
G1 X349.211 Y-101.268 Z0.000 F800.000
G2 X349.178 Y-101.268 Z0.000 I-0.000 J1.587 K0.000 F800.000
G0 Z8.000
G0 X346.714 Z8.000
G0 X346.714 Z5.000
G1 X346.714 Y-101.268 Z0.000 F200.000
G1 X346.714 Y-143.643 Z0.000 F800.000
G2 X345.127 Y-145.231 Z0.000 I-1.587 J-0.000 K0.000 F800.000
G1 X285.127 Y-145.231 Z0.000 F800.000
G2 X283.539 Y-143.643 Z0.000 I-0.000 J1.587 K0.000 F800.000
G1 X283.539 Y-86.390 Z0.000 F800.000
G2 X285.127 Y-84.802 Z0.000 I1.587 J0.000 K0.000 F800.000
G1 X345.127 Y-84.802 Z0.000 F800.000
G2 X346.714 Y-86.390 Z0.000 I0.000 J-1.587 K0.000 F800.000
G1 X346.714 Y-101.268 Z0.000 F800.000
G0 Z8.000
G0 X348.492 Y-104.928 Z8.000
G0 X348.492 Y-104.928 Z5.000
G1 X348.492 Y-104.928 Z0.000 F200.000
G2 X349.186 Y-104.769 Z0.000 I0.694 J-1.428 K0.000 F800.000
G1 X409.186 Y-104.769 Z0.000 F800.000
G2 X410.774 Y-106.356 Z0.000 I0.000 J-1.587 K0.000 F800.000
G1 X410.774 Y-118.356 Z0.000 F800.000
G2 X409.186 Y-119.944 Z0.000 I-1.587 J-0.000 K0.000 F800.000
G1 X407.507 Y-119.944 Z0.000 F800.000
G2 X406.680 Y-119.711 Z0.000 I-0.000 J1.587 K0.000 F800.000
G3 X351.693 Y-119.711 Z0.000 I-27.493 J-43.151 K0.000 F800.000
G2 X350.866 Y-119.944 Z0.000 I-0.827 J1.355 K0.000 F800.000
G1 X349.186 Y-119.944 Z0.000 F800.000
G2 X347.599 Y-118.356 Z0.000 I-0.000 J1.587 K0.000 F800.000
G1 X347.599 Y-106.356 Z0.000 F800.000
G2 X348.492 Y-104.928 Z0.000 I1.587 J0.000 K0.000 F800.000
G0 Z8.000
G0 X348.989 Y-123.545 Z8.000
G0 X348.989 Y-123.545 Z5.000
G1 X348.989 Y-123.545 Z0.000 F200.000
G2 X349.031 Y-123.545 Z0.000 I0.042 J-1.587 K0.000 F800.000
G1 X409.031 Y-123.545 Z0.000 F800.000
G2 X410.619 Y-125.132 Z0.000 I0.000 J-1.587 K0.000 F800.000
G1 X410.619 Y-137.132 Z0.000 F800.000
G2 X409.031 Y-138.719 Z0.000 I-1.587 J-0.000 K0.000 F800.000
G1 X407.352 Y-138.719 Z0.000 F800.000
G2 X406.525 Y-138.487 Z0.000 I0.000 J1.588 K0.000 F800.000
G3 X351.538 Y-138.487 Z0.000 I-27.493 J-43.151 K0.000 F800.000
G2 X350.711 Y-138.719 Z0.000 I-0.827 J1.355 K0.000 F800.000
G1 X349.031 Y-138.719 Z0.000 F800.000
G2 X347.444 Y-137.132 Z0.000 I-0.000 J1.587 K0.000 F800.000
G1 X347.444 Y-125.132 Z0.000 F800.000
G2 X348.989 Y-123.545 Z0.000 I1.587 J0.000 K0.000 F800.000
G0 Z8.000
G0 X281.050 Z8.000
G0 X281.050 Z5.000
G1 X281.050 Y-123.545 Z0.000 F200.000
G1 X281.050 Y-143.190 Z0.000 F800.000
G2 X279.462 Y-144.777 Z0.000 I-1.587 J-0.000 K0.000 F800.000
G1 X219.462 Y-144.777 Z0.000 F800.000
G2 X217.875 Y-143.190 Z0.000 I-0.000 J1.587 K0.000 F800.000
G1 X217.875 Y-85.936 Z0.000 F800.000
G2 X219.462 Y-84.349 Z0.000 I1.587 J0.000 K0.000 F800.000
G1 X279.462 Y-84.349 Z0.000 F800.000
G2 X281.050 Y-85.936 Z0.000 I0.000 J-1.587 K0.000 F800.000
G1 X281.050 Y-123.545 Z0.000 F800.000
G1 X281.050 Y-123.545 Z0.000 F200.000
G1 X281.050 Y-143.190 Z0.000 F800.000
G2 X279.462 Y-144.777 Z0.000 I-1.587 J-0.000 K0.000 F800.000
G1 X219.462 Y-144.777 Z0.000 F800.000
G2 X217.875 Y-143.190 Z0.000 I-0.000 J1.587 K0.000 F800.000
G1 X217.875 Y-85.936 Z0.000 F800.000
G2 X219.462 Y-84.349 Z0.000 I1.587 J0.000 K0.000 F800.000
G1 X279.462 Y-84.349 Z0.000 F800.000
G2 X281.050 Y-85.936 Z0.000 I0.000 J-1.587 K0.000 F800.000
G1 X281.050 Y-123.545 Z0.000 F800.000
G0 Z8.000
G0 X283.539 Z8.000
G0 X283.539 Z5.000
G1 X283.539 Y-123.545 Z0.000 F200.000
G1 X283.539 Y-86.390 Z0.000 F800.000
G2 X285.127 Y-84.802 Z0.000 I1.587 J0.000 K0.000 F800.000
G1 X345.127 Y-84.802 Z0.000 F800.000
G2 X346.714 Y-86.390 Z0.000 I0.000 J-1.587 K0.000 F800.000
G1 X346.714 Y-143.643 Z0.000 F800.000
G2 X345.127 Y-145.231 Z0.000 I-1.587 J-0.000 K0.000 F800.000
G1 X285.127 Y-145.231 Z0.000 F800.000
G2 X283.539 Y-143.643 Z0.000 I-0.000 J1.587 K0.000 F800.000
G1 X283.539 Y-123.545 Z0.000 F800.000
G0 Z8.000
G0 X347.444 Y-125.094 Z8.000
G0 X347.444 Y-125.094 Z5.000
G1 X347.444 Y-125.094 Z0.000 F200.000
G2 X349.031 Y-123.545 Z0.000 I1.587 J-0.038 K0.000 F800.000
G1 X409.031 Y-123.545 Z0.000 F800.000
G2 X410.619 Y-125.132 Z0.000 I0.000 J-1.587 K0.000 F800.000
G1 X410.619 Y-137.132 Z0.000 F800.000
G2 X409.031 Y-138.719 Z0.000 I-1.587 J-0.000 K0.000 F800.000
G1 X407.352 Y-138.719 Z0.000 F800.000
G2 X406.525 Y-138.487 Z0.000 I0.000 J1.588 K0.000 F800.000
G3 X351.538 Y-138.487 Z0.000 I-27.493 J-43.151 K0.000 F800.000
G2 X350.711 Y-138.719 Z0.000 I-0.827 J1.355 K0.000 F800.000
G1 X349.031 Y-138.719 Z0.000 F800.000
G2 X347.444 Y-137.132 Z0.000 I-0.000 J1.587 K0.000 F800.000
G1 X347.444 Y-125.132 Z0.000 F800.000
G2 X347.444 Y-125.094 Z0.000 I1.587 J0.000 K0.000 F800.000
G0 Z8.000
G0 X348.789 Y-119.893 Z8.000
G0 X348.789 Y-119.893 Z5.000
G1 X348.789 Y-119.893 Z0.000 F200.000
G2 X347.599 Y-118.356 Z0.000 I0.397 J1.537 K0.000 F800.000
G1 X347.599 Y-106.356 Z0.000 F800.000
G2 X349.186 Y-104.769 Z0.000 I1.587 J0.000 K0.000 F800.000
G1 X409.186 Y-104.769 Z0.000 F800.000
G2 X410.774 Y-106.356 Z0.000 I0.000 J-1.587 K0.000 F800.000
G1 X410.774 Y-118.356 Z0.000 F800.000
G2 X409.186 Y-119.944 Z0.000 I-1.587 J-0.000 K0.000 F800.000
G1 X407.507 Y-119.944 Z0.000 F800.000
G2 X406.680 Y-119.711 Z0.000 I-0.000 J1.587 K0.000 F800.000
G3 X351.693 Y-119.711 Z0.000 I-27.493 J-43.151 K0.000 F800.000
G2 X350.866 Y-119.944 Z0.000 I-0.827 J1.355 K0.000 F800.000
G1 X349.186 Y-119.944 Z0.000 F800.000
G2 X348.789 Y-119.893 Z0.000 I-0.000 J1.587 K0.000 F800.000
G0 Z8.000
G0 X349.178 Y-101.268 Z8.000
G0 X349.178 Y-101.268 Z5.000
G1 X349.178 Y-101.268 Z0.000 F200.000
G2 X347.624 Y-99.681 Z0.000 I0.033 J1.587 K0.000 F800.000
G1 X347.624 Y-87.681 Z0.000 F800.000
G2 X349.211 Y-86.094 Z0.000 I1.587 J0.000 K0.000 F800.000
G1 X409.211 Y-86.094 Z0.000 F800.000
G2 X410.799 Y-87.681 Z0.000 I0.000 J-1.587 K0.000 F800.000
G1 X410.799 Y-99.681 Z0.000 F800.000
G2 X409.211 Y-101.268 Z0.000 I-1.588 J0.000 K0.000 F800.000
G1 X407.532 Y-101.268 Z0.000 F800.000
G2 X406.705 Y-101.036 Z0.000 I0.000 J1.588 K0.000 F800.000
G3 X351.718 Y-101.036 Z0.000 I-27.493 J-43.151 K0.000 F800.000
G2 X350.891 Y-101.268 Z0.000 I-0.827 J1.355 K0.000 F800.000
G1 X349.211 Y-101.268 Z0.000 F800.000
G2 X349.178 Y-101.268 Z0.000 I-0.000 J1.587 K0.000 F800.000
G1 X349.178 Y-101.268 Z0.000 F200.000
G2 X347.624 Y-99.681 Z0.000 I0.033 J1.587 K0.000 F800.000
G1 X347.624 Y-87.681 Z0.000 F800.000
G2 X349.211 Y-86.094 Z0.000 I1.587 J0.000 K0.000 F800.000
G1 X409.211 Y-86.094 Z0.000 F800.000
G2 X410.799 Y-87.681 Z0.000 I0.000 J-1.587 K0.000 F800.000
G1 X410.799 Y-99.681 Z0.000 F800.000
G2 X409.211 Y-101.268 Z0.000 I-1.588 J0.000 K0.000 F800.000
G1 X407.532 Y-101.268 Z0.000 F800.000
G2 X406.705 Y-101.036 Z0.000 I0.000 J1.588 K0.000 F800.000
G3 X351.718 Y-101.036 Z0.000 I-27.493 J-43.151 K0.000 F800.000
G2 X350.891 Y-101.268 Z0.000 I-0.827 J1.355 K0.000 F800.000
G1 X349.211 Y-101.268 Z0.000 F800.000
G2 X349.178 Y-101.268 Z0.000 I-0.000 J1.587 K0.000 F800.000
G0 Z8.000
G0 X346.714 Z8.000
G0 X346.714 Z5.000
G1 X346.714 Y-101.268 Z0.000 F200.000
G1 X346.714 Y-143.643 Z0.000 F800.000
G2 X345.127 Y-145.231 Z0.000 I-1.587 J-0.000 K0.000 F800.000
G1 X285.127 Y-145.231 Z0.000 F800.000
G2 X283.539 Y-143.643 Z0.000 I-0.000 J1.587 K0.000 F800.000
G1 X283.539 Y-86.390 Z0.000 F800.000
G2 X285.127 Y-84.802 Z0.000 I1.587 J0.000 K0.000 F800.000
G1 X345.127 Y-84.802 Z0.000 F800.000
G2 X346.714 Y-86.390 Z0.000 I0.000 J-1.587 K0.000 F800.000
G1 X346.714 Y-101.268 Z0.000 F800.000
G0 Z8.000
G0 X348.492 Y-104.928 Z8.000
G0 X348.492 Y-104.928 Z5.000
G1 X348.492 Y-104.928 Z0.000 F200.000
G2 X349.186 Y-104.769 Z0.000 I0.694 J-1.428 K0.000 F800.000
G1 X409.186 Y-104.769 Z0.000 F800.000
G2 X410.774 Y-106.356 Z0.000 I0.000 J-1.587 K0.000 F800.000
G1 X410.774 Y-118.356 Z0.000 F800.000
G2 X409.186 Y-119.944 Z0.000 I-1.587 J-0.000 K0.000 F800.000
G1 X407.507 Y-119.944 Z0.000 F800.000
G2 X406.680 Y-119.711 Z0.000 I-0.000 J1.587 K0.000 F800.000
G3 X351.693 Y-119.711 Z0.000 I-27.493 J-43.151 K0.000 F800.000
G2 X350.866 Y-119.944 Z0.000 I-0.827 J1.355 K0.000 F800.000
G1 X349.186 Y-119.944 Z0.000 F800.000
G2 X347.599 Y-118.356 Z0.000 I-0.000 J1.587 K0.000 F800.000
G1 X347.599 Y-106.356 Z0.000 F800.000
G2 X348.492 Y-104.928 Z0.000 I1.587 J0.000 K0.000 F800.000
G0 Z8.000
G0 X348.989 Y-123.545 Z8.000
G0 X348.989 Y-123.545 Z5.000
G1 X348.989 Y-123.545 Z0.000 F200.000
G2 X349.031 Y-123.545 Z0.000 I0.042 J-1.587 K0.000 F800.000
G1 X409.031 Y-123.545 Z0.000 F800.000
G2 X410.619 Y-125.132 Z0.000 I0.000 J-1.587 K0.000 F800.000
G1 X410.619 Y-137.132 Z0.000 F800.000
G2 X409.031 Y-138.719 Z0.000 I-1.587 J-0.000 K0.000 F800.000
G1 X407.352 Y-138.719 Z0.000 F800.000
G2 X406.525 Y-138.487 Z0.000 I0.000 J1.588 K0.000 F800.000
G3 X351.538 Y-138.487 Z0.000 I-27.493 J-43.151 K0.000 F800.000
G2 X350.711 Y-138.719 Z0.000 I-0.827 J1.355 K0.000 F800.000
G1 X349.031 Y-138.719 Z0.000 F800.000
G2 X347.444 Y-137.132 Z0.000 I-0.000 J1.587 K0.000 F800.000
G1 X347.444 Y-125.132 Z0.000 F800.000
G2 X348.989 Y-123.545 Z0.000 I1.587 J0.000 K0.000 F800.000
G0 Z8.000
G0 X281.050 Z8.000
G0 X281.050 Z5.000
G1 X281.050 Y-123.545 Z0.000 F200.000
G1 X281.050 Y-143.190 Z0.000 F800.000
G2 X279.462 Y-144.777 Z0.000 I-1.587 J-0.000 K0.000 F800.000
G1 X219.462 Y-144.777 Z0.000 F800.000
G2 X217.875 Y-143.190 Z0.000 I-0.000 J1.587 K0.000 F800.000
G1 X217.875 Y-85.936 Z0.000 F800.000
G2 X219.462 Y-84.349 Z0.000 I1.587 J0.000 K0.000 F800.000
G1 X279.462 Y-84.349 Z0.000 F800.000
G2 X281.050 Y-85.936 Z0.000 I0.000 J-1.587 K0.000 F800.000
G1 X281.050 Y-123.545 Z0.000 F800.000
G1 X281.050 Y-123.545 Z0.000 F200.000
G1 X281.050 Y-143.190 Z0.000 F800.000
G2 X279.462 Y-144.777 Z0.000 I-1.587 J-0.000 K0.000 F800.000
G1 X219.462 Y-144.777 Z0.000 F800.000
G2 X217.875 Y-143.190 Z0.000 I-0.000 J1.587 K0.000 F800.000
G1 X217.875 Y-85.936 Z0.000 F800.000
G2 X219.462 Y-84.349 Z0.000 I1.587 J0.000 K0.000 F800.000
G1 X279.462 Y-84.349 Z0.000 F800.000
G2 X281.050 Y-85.936 Z0.000 I0.000 J-1.587 K0.000 F800.000
G1 X281.050 Y-123.545 Z0.000 F800.000
G0 Z8.000
G0 X283.539 Z8.000
G0 X283.539 Z5.000
G1 X283.539 Y-123.545 Z0.000 F200.000
G1 X283.539 Y-86.390 Z0.000 F800.000
G2 X285.127 Y-84.802 Z0.000 I1.587 J0.000 K0.000 F800.000
G1 X345.127 Y-84.802 Z0.000 F800.000
G2 X346.714 Y-86.390 Z0.000 I0.000 J-1.587 K0.000 F800.000
G1 X346.714 Y-143.643 Z0.000 F800.000
G2 X345.127 Y-145.231 Z0.000 I-1.587 J-0.000 K0.000 F800.000
G1 X285.127 Y-145.231 Z0.000 F800.000
G2 X283.539 Y-143.643 Z0.000 I-0.000 J1.587 K0.000 F800.000
G1 X283.539 Y-123.545 Z0.000 F800.000
G0 Z8.000
G0 X347.444 Y-125.094 Z8.000
G0 X347.444 Y-125.094 Z5.000
G1 X347.444 Y-125.094 Z0.000 F200.000
G2 X349.031 Y-123.545 Z0.000 I1.587 J-0.038 K0.000 F800.000
G1 X409.031 Y-123.545 Z0.000 F800.000
G2 X410.619 Y-125.132 Z0.000 I0.000 J-1.587 K0.000 F800.000
G1 X410.619 Y-137.132 Z0.000 F800.000
G2 X409.031 Y-138.719 Z0.000 I-1.587 J-0.000 K0.000 F800.000
G1 X407.352 Y-138.719 Z0.000 F800.000
G2 X406.525 Y-138.487 Z0.000 I0.000 J1.588 K0.000 F800.000
G3 X351.538 Y-138.487 Z0.000 I-27.493 J-43.151 K0.000 F800.000
G2 X350.711 Y-138.719 Z0.000 I-0.827 J1.355 K0.000 F800.000
G1 X349.031 Y-138.719 Z0.000 F800.000
G2 X347.444 Y-137.132 Z0.000 I-0.000 J1.587 K0.000 F800.000
G1 X347.444 Y-125.132 Z0.000 F800.000
G2 X347.444 Y-125.094 Z0.000 I1.587 J0.000 K0.000 F800.000
G0 Z8.000
G0 X348.789 Y-119.893 Z8.000
G0 X348.789 Y-119.893 Z5.000
G1 X348.789 Y-119.893 Z0.000 F200.000
G2 X347.599 Y-118.356 Z0.000 I0.397 J1.537 K0.000 F800.000
G1 X347.599 Y-106.356 Z0.000 F800.000
G2 X349.186 Y-104.769 Z0.000 I1.587 J0.000 K0.000 F800.000
G1 X409.186 Y-104.769 Z0.000 F800.000
G2 X410.774 Y-106.356 Z0.000 I0.000 J-1.587 K0.000 F800.000
G1 X410.774 Y-118.356 Z0.000 F800.000
G2 X409.186 Y-119.944 Z0.000 I-1.587 J-0.000 K0.000 F800.000
G1 X407.507 Y-119.944 Z0.000 F800.000
G2 X406.680 Y-119.711 Z0.000 I-0.000 J1.587 K0.000 F800.000
G3 X351.693 Y-119.711 Z0.000 I-27.493 J-43.151 K0.000 F800.000
G2 X350.866 Y-119.944 Z0.000 I-0.827 J1.355 K0.000 F800.000
G1 X349.186 Y-119.944 Z0.000 F800.000
G2 X348.789 Y-119.893 Z0.000 I-0.000 J1.587 K0.000 F800.000
G0 Z8.000
G0 X349.178 Y-101.268 Z8.000
G0 X349.178 Y-101.268 Z5.000
G1 X349.178 Y-101.268 Z0.000 F200.000
G2 X347.624 Y-99.681 Z0.000 I0.033 J1.587 K0.000 F800.000
G1 X347.624 Y-87.681 Z0.000 F800.000
G2 X349.211 Y-86.094 Z0.000 I1.587 J0.000 K0.000 F800.000
G1 X409.211 Y-86.094 Z0.000 F800.000
G2 X410.799 Y-87.681 Z0.000 I0.000 J-1.587 K0.000 F800.000
G1 X410.799 Y-99.681 Z0.000 F800.000
G2 X409.211 Y-101.268 Z0.000 I-1.588 J0.000 K0.000 F800.000
G1 X407.532 Y-101.268 Z0.000 F800.000
G2 X406.705 Y-101.036 Z0.000 I0.000 J1.588 K0.000 F800.000
G3 X351.718 Y-101.036 Z0.000 I-27.493 J-43.151 K0.000 F800.000
G2 X350.891 Y-101.268 Z0.000 I-0.827 J1.355 K0.000 F800.000
G1 X349.211 Y-101.268 Z0.000 F800.000
G2 X349.178 Y-101.268 Z0.000 I-0.000 J1.587 K0.000 F800.000
G1 X349.178 Y-101.268 Z0.000 F200.000
G2 X347.624 Y-99.681 Z0.000 I0.033 J1.587 K0.000 F800.000
G1 X347.624 Y-87.681 Z0.000 F800.000
G2 X349.211 Y-86.094 Z0.000 I1.587 J0.000 K0.000 F800.000
G1 X409.211 Y-86.094 Z0.000 F800.000
G2 X410.799 Y-87.681 Z0.000 I0.000 J-1.587 K0.000 F800.000
G1 X410.799 Y-99.681 Z0.000 F800.000
G2 X409.211 Y-101.268 Z0.000 I-1.588 J0.000 K0.000 F800.000
G1 X407.532 Y-101.268 Z0.000 F800.000
G2 X406.705 Y-101.036 Z0.000 I0.000 J1.588 K0.000 F800.000
G3 X351.718 Y-101.036 Z0.000 I-27.493 J-43.151 K0.000 F800.000
G2 X350.891 Y-101.268 Z0.000 I-0.827 J1.355 K0.000 F800.000
G1 X349.211 Y-101.268 Z0.000 F800.000
G2 X349.178 Y-101.268 Z0.000 I-0.000 J1.587 K0.000 F800.000
G0 Z8.000
G0 X346.714 Z8.000
G0 X346.714 Z5.000
G1 X346.714 Y-101.268 Z0.000 F200.000
G1 X346.714 Y-143.643 Z0.000 F800.000
G2 X345.127 Y-145.231 Z0.000 I-1.587 J-0.000 K0.000 F800.000
G1 X285.127 Y-145.231 Z0.000 F800.000
G2 X283.539 Y-143.643 Z0.000 I-0.000 J1.587 K0.000 F800.000
G1 X283.539 Y-86.390 Z0.000 F800.000
G2 X285.127 Y-84.802 Z0.000 I1.587 J0.000 K0.000 F800.000
G1 X345.127 Y-84.802 Z0.000 F800.000
G2 X346.714 Y-86.390 Z0.000 I0.000 J-1.587 K0.000 F800.000
G1 X346.714 Y-101.268 Z0.000 F800.000
G0 Z8.000
G0 X348.492 Y-104.928 Z8.000
G0 X348.492 Y-104.928 Z5.000
G1 X348.492 Y-104.928 Z0.000 F200.000
G2 X349.186 Y-104.769 Z0.000 I0.694 J-1.428 K0.000 F800.000
G1 X409.186 Y-104.769 Z0.000 F800.000
G2 X410.774 Y-106.356 Z0.000 I0.000 J-1.587 K0.000 F800.000
G1 X410.774 Y-118.356 Z0.000 F800.000
G2 X409.186 Y-119.944 Z0.000 I-1.587 J-0.000 K0.000 F800.000
G1 X407.507 Y-119.944 Z0.000 F800.000
G2 X406.680 Y-119.711 Z0.000 I-0.000 J1.587 K0.000 F800.000
G3 X351.693 Y-119.711 Z0.000 I-27.493 J-43.151 K0.000 F800.000
G2 X350.866 Y-119.944 Z0.000 I-0.827 J1.355 K0.000 F800.000
G1 X349.186 Y-119.944 Z0.000 F800.000
G2 X347.599 Y-118.356 Z0.000 I-0.000 J1.587 K0.000 F800.000
G1 X347.599 Y-106.356 Z0.000 F800.000
G2 X348.492 Y-104.928 Z0.000 I1.587 J0.000 K0.000 F800.000
G0 Z8.000
G0 X348.989 Y-123.545 Z8.000
G0 X348.989 Y-123.545 Z5.000
G1 X348.989 Y-123.545 Z0.000 F200.000
G2 X349.031 Y-123.545 Z0.000 I0.042 J-1.587 K0.000 F800.000
G1 X409.031 Y-123.545 Z0.000 F800.000
G2 X410.619 Y-125.132 Z0.000 I0.000 J-1.587 K0.000 F800.000
G1 X410.619 Y-137.132 Z0.000 F800.000
G2 X409.031 Y-138.719 Z0.000 I-1.587 J-0.000 K0.000 F800.000
G1 X407.352 Y-138.719 Z0.000 F800.000
G2 X406.525 Y-138.487 Z0.000 I0.000 J1.588 K0.000 F800.000
G3 X351.538 Y-138.487 Z0.000 I-27.493 J-43.151 K0.000 F800.000
G2 X350.711 Y-138.719 Z0.000 I-0.827 J1.355 K0.000 F800.000
G1 X349.031 Y-138.719 Z0.000 F800.000
G2 X347.444 Y-137.132 Z0.000 I-0.000 J1.587 K0.000 F800.000
G1 X347.444 Y-125.132 Z0.000 F800.000
G2 X348.989 Y-123.545 Z0.000 I1.587 J0.000 K0.000 F800.000
G0 Z8.000
G0 X281.050 Z8.000
G0 X281.050 Z5.000
G1 X281.050 Y-123.545 Z0.000 F200.000
G1 X281.050 Y-143.190 Z0.000 F800.000
G2 X279.462 Y-144.777 Z0.000 I-1.587 J-0.000 K0.000 F800.000
G1 X219.462 Y-144.777 Z0.000 F800.000
G2 X217.875 Y-143.190 Z0.000 I-0.000 J1.587 K0.000 F800.000
G1 X217.875 Y-85.936 Z0.000 F800.000
G2 X219.462 Y-84.349 Z0.000 I1.587 J0.000 K0.000 F800.000
G1 X279.462 Y-84.349 Z0.000 F800.000
G2 X281.050 Y-85.936 Z0.000 I0.000 J-1.587 K0.000 F800.000
G1 X281.050 Y-123.545 Z0.000 F800.000
G1 X281.050 Y-123.545 Z0.000 F200.000
G1 X281.050 Y-143.190 Z0.000 F800.000
G2 X279.462 Y-144.777 Z0.000 I-1.587 J-0.000 K0.000 F800.000
G1 X219.462 Y-144.777 Z0.000 F800.000
G2 X217.875 Y-143.190 Z0.000 I-0.000 J1.587 K0.000 F800.000
G1 X217.875 Y-85.936 Z0.000 F800.000
G2 X219.462 Y-84.349 Z0.000 I1.587 J0.000 K0.000 F800.000
G1 X279.462 Y-84.349 Z0.000 F800.000
G2 X281.050 Y-85.936 Z0.000 I0.000 J-1.587 K0.000 F800.000
G1 X281.050 Y-123.545 Z0.000 F800.000
G0 Z8.000
G0 X283.539 Z8.000
G0 X283.539 Z5.000
G1 X283.539 Y-123.545 Z0.000 F200.000
G1 X283.539 Y-86.390 Z0.000 F800.000
G2 X285.127 Y-84.802 Z0.000 I1.587 J0.000 K0.000 F800.000
G1 X345.127 Y-84.802 Z0.000 F800.000
G2 X346.714 Y-86.390 Z0.000 I0.000 J-1.587 K0.000 F800.000
G1 X346.714 Y-143.643 Z0.000 F800.000
G2 X345.127 Y-145.231 Z0.000 I-1.587 J-0.000 K0.000 F800.000
G1 X285.127 Y-145.231 Z0.000 F800.000
G2 X283.539 Y-143.643 Z0.000 I-0.000 J1.587 K0.000 F800.000
G1 X283.539 Y-123.545 Z0.000 F800.000
G0 Z8.000
G0 X347.444 Y-125.094 Z8.000
G0 X347.444 Y-125.094 Z5.000
G1 X347.444 Y-125.094 Z0.000 F200.000
G2 X349.031 Y-123.545 Z0.000 I1.587 J-0.038 K0.000 F800.000
G1 X409.031 Y-123.545 Z0.000 F800.000
G2 X410.619 Y-125.132 Z0.000 I0.000 J-1.587 K0.000 F800.000
G1 X410.619 Y-137.132 Z0.000 F800.000
G2 X409.031 Y-138.719 Z0.000 I-1.587 J-0.000 K0.000 F800.000
G1 X407.352 Y-138.719 Z0.000 F800.000
G2 X406.525 Y-138.487 Z0.000 I0.000 J1.588 K0.000 F800.000
G3 X351.538 Y-138.487 Z0.000 I-27.493 J-43.151 K0.000 F800.000
G2 X350.711 Y-138.719 Z0.000 I-0.827 J1.355 K0.000 F800.000
G1 X349.031 Y-138.719 Z0.000 F800.000
G2 X347.444 Y-137.132 Z0.000 I-0.000 J1.587 K0.000 F800.000
G1 X347.444 Y-125.132 Z0.000 F800.000
G2 X347.444 Y-125.094 Z0.000 I1.587 J0.000 K0.000 F800.000
G0 Z8.000
G0 X348.789 Y-119.893 Z8.000
G0 X348.789 Y-119.893 Z5.000
G1 X348.789 Y-119.893 Z0.000 F200.000
G2 X347.599 Y-118.356 Z0.000 I0.397 J1.537 K0.000 F800.000
G1 X347.599 Y-106.356 Z0.000 F800.000
G2 X349.186 Y-104.769 Z0.000 I1.587 J0.000 K0.000 F800.000
G1 X409.186 Y-104.769 Z0.000 F800.000
G2 X410.774 Y-106.356 Z0.000 I0.000 J-1.587 K0.000 F800.000
G1 X410.774 Y-118.356 Z0.000 F800.000
G2 X409.186 Y-119.944 Z0.000 I-1.587 J-0.000 K0.000 F800.000
G1 X407.507 Y-119.944 Z0.000 F800.000
G2 X406.680 Y-119.711 Z0.000 I-0.000 J1.587 K0.000 F800.000
G3 X351.693 Y-119.711 Z0.000 I-27.493 J-43.151 K0.000 F800.000
G2 X350.866 Y-119.944 Z0.000 I-0.827 J1.355 K0.000 F800.000
G1 X349.186 Y-119.944 Z0.000 F800.000
G2 X348.789 Y-119.893 Z0.000 I-0.000 J1.587 K0.000 F800.000
G0 Z8.000
G0 X349.178 Y-101.268 Z8.000
G0 X349.178 Y-101.268 Z5.000
G1 X349.178 Y-101.268 Z0.000 F200.000
G2 X347.624 Y-99.681 Z0.000 I0.033 J1.587 K0.000 F800.000
G1 X347.624 Y-87.681 Z0.000 F800.000
G2 X349.211 Y-86.094 Z0.000 I1.587 J0.000 K0.000 F800.000
G1 X409.211 Y-86.094 Z0.000 F800.000
G2 X410.799 Y-87.681 Z0.000 I0.000 J-1.587 K0.000 F800.000
G1 X410.799 Y-99.681 Z0.000 F800.000
G2 X409.211 Y-101.268 Z0.000 I-1.588 J0.000 K0.000 F800.000
G1 X407.532 Y-101.268 Z0.000 F800.000
G2 X406.705 Y-101.036 Z0.000 I0.000 J1.588 K0.000 F800.000
G3 X351.718 Y-101.036 Z0.000 I-27.493 J-43.151 K0.000 F800.000
G2 X350.891 Y-101.268 Z0.000 I-0.827 J1.355 K0.000 F800.000
G1 X349.211 Y-101.268 Z0.000 F800.000
G2 X349.178 Y-101.268 Z0.000 I-0.000 J1.587 K0.000 F800.000
G1 X349.178 Y-101.268 Z0.000 F200.000
G2 X347.624 Y-99.681 Z0.000 I0.033 J1.587 K0.000 F800.000
G1 X347.624 Y-87.681 Z0.000 F800.000
G2 X349.211 Y-86.094 Z0.000 I1.587 J0.000 K0.000 F800.000
G1 X409.211 Y-86.094 Z0.000 F800.000
G2 X410.799 Y-87.681 Z0.000 I0.000 J-1.587 K0.000 F800.000
G1 X410.799 Y-99.681 Z0.000 F800.000
G2 X409.211 Y-101.268 Z0.000 I-1.588 J0.000 K0.000 F800.000
G1 X407.532 Y-101.268 Z0.000 F800.000
G2 X406.705 Y-101.036 Z0.000 I0.000 J1.588 K0.000 F800.000
G3 X351.718 Y-101.036 Z0.000 I-27.493 J-43.151 K0.000 F800.000
G2 X350.891 Y-101.268 Z0.000 I-0.827 J1.355 K0.000 F800.000
G1 X349.211 Y-101.268 Z0.000 F800.000
G2 X349.178 Y-101.268 Z0.000 I-0.000 J1.587 K0.000 F800.000
