(Exported by FreeCAD)
(Post Processor: grbl_post)
(Output Time:2022-05-23 18:52:46.242946)
(Begin preamble)
G17 G90
G21
(Begin operation: Fixture)
(Path: Fixture)
G54
(Finish operation: Fixture)
(Begin operation: TC: 25degree_Vbit009)
(Path: TC: 25degree_Vbit009)
(TC: 25degree_Vbit009)
(Begin toolchange)
( M6 T2.0 )
M3 S12000.0
(Finish operation: TC: 25degree_Vbit009)
(Begin operation: Profile006)
(Path: Profile006)
(Profile006)
(Compensated Tool Path. Diameter: 3.175)
G0 Z-121.586
G0 X622.053 Y-179.147
G0 Z-124.586
G1 X622.053 Y-179.147 Z-132.586 F200.000
G2 X622.518 Y-180.270 Z-132.586 I-1.123 J-1.123 K0.000 F800.000
G1 X622.518 Y-211.270 Z-132.586 F800.000
G2 X620.931 Y-212.857 Z-132.586 I-1.587 J-0.000 K0.000 F800.000
G1 X422.931 Y-212.857 Z-132.586 F800.000
G2 X421.343 Y-211.270 Z-132.586 I-0.000 J1.587 K0.000 F800.000
G1 X421.343 Y-180.270 Z-132.586 F800.000
G2 X422.931 Y-178.682 Z-132.586 I1.587 J0.000 K0.000 F800.000
G1 X620.931 Y-178.682 Z-132.586 F800.000
G2 X622.053 Y-179.147 Z-132.586 I0.000 J-1.587 K0.000 F800.000
G0 Z-121.586
G0 X620.978 Y-214.975 Z-121.586
G0 X620.978 Y-214.975 Z-124.586
G1 X620.978 Y-214.975 Z-132.586 F200.000
G2 X622.518 Y-216.561 Z-132.586 I-0.048 J-1.587 K0.000 F800.000
G1 X622.518 Y-247.561 Z-132.586 F800.000
G2 X620.931 Y-249.149 Z-132.586 I-1.587 J-0.000 K0.000 F800.000
G1 X422.931 Y-249.149 Z-132.586 F800.000
G2 X421.343 Y-247.561 Z-132.586 I-0.000 J1.587 K0.000 F800.000
G1 X421.343 Y-216.561 Z-132.586 F800.000
G2 X422.931 Y-214.974 Z-132.586 I1.587 J0.000 K0.000 F800.000
G1 X620.931 Y-214.974 Z-132.586 F800.000
G2 X620.978 Y-214.975 Z-132.586 I0.000 J-1.587 K0.000 F800.000
G0 Z-121.586
G0 X620.931 Y-251.266 Z-121.586
G0 X620.931 Y-251.266 Z-124.586
G1 X620.931 Y-251.266 Z-132.586 F200.000
G2 X622.518 Y-252.853 Z-132.586 I0.000 J-1.587 K0.000 F800.000
G1 X622.518 Y-283.853 Z-132.586 F800.000
G2 X620.931 Y-285.441 Z-132.586 I-1.587 J-0.000 K0.000 F800.000
G1 X422.931 Y-285.441 Z-132.586 F800.000
G2 X421.343 Y-283.853 Z-132.586 I-0.000 J1.587 K0.000 F800.000
G1 X421.343 Y-252.853 Z-132.586 F800.000
G2 X422.931 Y-251.266 Z-132.586 I1.587 J0.000 K0.000 F800.000
G1 X620.931 Y-251.266 Z-132.586 F800.000
G0 Z-121.586
G0 Y-287.557 Z-121.586
G0 Y-287.557 Z-124.586
G1 X620.931 Y-287.557 Z-132.586 F200.000
G2 X622.518 Y-289.145 Z-132.586 I0.000 J-1.587 K0.000 F800.000
G1 X622.518 Y-320.145 Z-132.586 F800.000
G2 X620.931 Y-321.732 Z-132.586 I-1.587 J-0.000 K0.000 F800.000
G1 X422.931 Y-321.732 Z-132.586 F800.000
G2 X421.343 Y-320.145 Z-132.586 I-0.000 J1.587 K0.000 F800.000
G1 X421.343 Y-289.145 Z-132.586 F800.000
G2 X422.931 Y-287.557 Z-132.586 I1.587 J0.000 K0.000 F800.000
G1 X620.931 Y-287.557 Z-132.586 F800.000
G0 Z-121.586
G0 Y-323.849 Z-121.586
G0 Y-323.849 Z-124.586
G1 X620.931 Y-323.849 Z-132.586 F200.000
G2 X622.518 Y-325.437 Z-132.586 I0.000 J-1.587 K0.000 F800.000
G1 X622.518 Y-356.437 Z-132.586 F800.000
G2 X620.931 Y-358.024 Z-132.586 I-1.587 J-0.000 K0.000 F800.000
G1 X422.931 Y-358.024 Z-132.586 F800.000
G2 X421.343 Y-356.437 Z-132.586 I-0.000 J1.587 K0.000 F800.000
G1 X421.343 Y-325.437 Z-132.586 F800.000
G2 X422.931 Y-323.849 Z-132.586 I1.587 J0.000 K0.000 F800.000
G1 X620.931 Y-323.849 Z-132.586 F800.000
G0 Z-121.586
G0 Z-121.586
(Finish operation: Profile006)
(Begin postamble)
M5
G17 G90
M2
