(Exported by FreeCAD)
(Post Processor: grbl_post)
(Output Time:2022-05-23 18:45:59.954963)
(Begin preamble)
G17 G90
G21
(Begin operation: Fixture)
(Path: Fixture)
G54
(Finish operation: Fixture)
(Begin operation: TC: 25degree_Vbit008)
(Path: TC: 25degree_Vbit008)
(TC: 25degree_Vbit008)
(Begin toolchange)
( M6 T2.0 )
M3 S12000.0
(Finish operation: TC: 25degree_Vbit008)
(Begin operation: Profile005)
(Path: Profile005)
(Profile005)
(Compensated Tool Path. Diameter: 3.175)
G0 Z8.000
G0 X418.763 Y-179.147
G0 Z5.000
G1 X418.763 Y-179.147 Z0.000 F200.000
G2 X419.228 Y-180.270 Z0.000 I-1.123 J-1.123 K0.000 F800.000
G1 X419.228 Y-211.270 Z0.000 F800.000
G2 X417.640 Y-212.857 Z0.000 I-1.587 J-0.000 K0.000 F800.000
G1 X219.640 Y-212.857 Z0.000 F800.000
G2 X218.053 Y-211.270 Z0.000 I-0.000 J1.587 K0.000 F800.000
G1 X218.053 Y-180.270 Z0.000 F800.000
G2 X219.640 Y-178.682 Z0.000 I1.587 J0.000 K0.000 F800.000
G1 X417.640 Y-178.682 Z0.000 F800.000
G2 X418.763 Y-179.147 Z0.000 I0.000 J-1.587 K0.000 F800.000
G0 Z8.000
G0 X417.688 Y-214.975 Z8.000
G0 X417.688 Y-214.975 Z5.000
G1 X417.688 Y-214.975 Z0.000 F200.000
G2 X419.228 Y-216.561 Z0.000 I-0.048 J-1.587 K0.000 F800.000
G1 X419.228 Y-247.561 Z0.000 F800.000
G2 X417.640 Y-249.149 Z0.000 I-1.587 J-0.000 K0.000 F800.000
G1 X219.640 Y-249.149 Z0.000 F800.000
G2 X218.053 Y-247.561 Z0.000 I-0.000 J1.587 K0.000 F800.000
G1 X218.053 Y-216.561 Z0.000 F800.000
G2 X219.640 Y-214.974 Z0.000 I1.587 J0.000 K0.000 F800.000
G1 X417.640 Y-214.974 Z0.000 F800.000
G2 X417.688 Y-214.975 Z0.000 I0.000 J-1.587 K0.000 F800.000
G0 Z8.000
G0 X417.640 Y-251.266 Z8.000
G0 X417.640 Y-251.266 Z5.000
G1 X417.640 Y-251.266 Z0.000 F200.000
G2 X419.228 Y-252.853 Z0.000 I0.000 J-1.587 K0.000 F800.000
G1 X419.228 Y-283.853 Z0.000 F800.000
G2 X417.640 Y-285.441 Z0.000 I-1.587 J-0.000 K0.000 F800.000
G1 X219.640 Y-285.441 Z0.000 F800.000
G2 X218.053 Y-283.853 Z0.000 I-0.000 J1.587 K0.000 F800.000
G1 X218.053 Y-252.853 Z0.000 F800.000
G2 X219.640 Y-251.266 Z0.000 I1.587 J0.000 K0.000 F800.000
G1 X417.640 Y-251.266 Z0.000 F800.000
G0 Z8.000
G0 Y-287.557 Z8.000
G0 Y-287.557 Z5.000
G1 X417.640 Y-287.557 Z0.000 F200.000
G2 X419.228 Y-289.145 Z0.000 I0.000 J-1.587 K0.000 F800.000
G1 X419.228 Y-320.145 Z0.000 F800.000
G2 X417.640 Y-321.732 Z0.000 I-1.587 J-0.000 K0.000 F800.000
G1 X219.640 Y-321.732 Z0.000 F800.000
G2 X218.053 Y-320.145 Z0.000 I-0.000 J1.587 K0.000 F800.000
G1 X218.053 Y-289.145 Z0.000 F800.000
G2 X219.640 Y-287.557 Z0.000 I1.587 J0.000 K0.000 F800.000
G1 X417.640 Y-287.557 Z0.000 F800.000
G0 Z8.000
G0 Y-323.849 Z8.000
G0 Y-323.849 Z5.000
G1 X417.640 Y-323.849 Z0.000 F200.000
G2 X419.228 Y-325.437 Z0.000 I0.000 J-1.587 K0.000 F800.000
G1 X419.228 Y-356.437 Z0.000 F800.000
G2 X417.640 Y-358.024 Z0.000 I-1.587 J-0.000 K0.000 F800.000
G1 X219.640 Y-358.024 Z0.000 F800.000
G2 X218.053 Y-356.437 Z0.000 I-0.000 J1.587 K0.000 F800.000
G1 X218.053 Y-325.437 Z0.000 F800.000
G2 X219.640 Y-323.849 Z0.000 I1.587 J0.000 K0.000 F800.000
G1 X417.640 Y-323.849 Z0.000 F800.000
G0 Z8.000
G0 Z8.000
(Finish operation: Profile005)
(Begin postamble)
M5
G17 G90
M2
