(Exported by FreeCAD)
(Post Processor: grbl_post)
(Output Time:2022-05-23 18:55:41.970908)
(Begin preamble)
G17 G90
G21
(Begin operation: Fixture)
(Path: Fixture)
G54
(Finish operation: Fixture)
(Begin operation: TC: 25degree_Vbit010)
(Path: TC: 25degree_Vbit010)
(TC: 25degree_Vbit010)
(Begin toolchange)
( M6 T2.0 )
M3 S12000.0
(Finish operation: TC: 25degree_Vbit010)
(Begin operation: Profile007)
(Path: Profile007)
(Profile007)
(Compensated Tool Path. Diameter: 3.175)
G0 Z-121.586
G0 X823.344 Y-179.147
G0 Z-124.586
G1 X823.344 Y-179.147 Z-132.586 F200.000
G2 X823.809 Y-180.270 Z-132.586 I-1.123 J-1.123 K0.000 F800.000
G1 X823.809 Y-210.270 Z-132.586 F800.000
G2 X822.221 Y-211.857 Z-132.586 I-1.587 J-0.000 K0.000 F800.000
G1 X626.221 Y-211.857 Z-132.586 F800.000
G2 X624.634 Y-210.270 Z-132.586 I-0.000 J1.587 K0.000 F800.000
G1 X624.634 Y-180.270 Z-132.586 F800.000
G2 X626.221 Y-178.682 Z-132.586 I1.587 J0.000 K0.000 F800.000
G1 X822.221 Y-178.682 Z-132.586 F800.000
G2 X823.344 Y-179.147 Z-132.586 I0.000 J-1.587 K0.000 F800.000
G0 Z-121.586
G0 X822.269 Y-214.975 Z-121.586
G0 X822.269 Y-214.975 Z-124.586
G1 X822.269 Y-214.975 Z-132.586 F200.000
G2 X823.809 Y-216.561 Z-132.586 I-0.048 J-1.587 K0.000 F800.000
G1 X823.809 Y-246.561 Z-132.586 F800.000
G2 X822.221 Y-248.149 Z-132.586 I-1.587 J-0.000 K0.000 F800.000
G1 X626.221 Y-248.149 Z-132.586 F800.000
G2 X624.634 Y-246.561 Z-132.586 I-0.000 J1.587 K0.000 F800.000
G1 X624.634 Y-216.561 Z-132.586 F800.000
G2 X626.221 Y-214.974 Z-132.586 I1.587 J0.000 K0.000 F800.000
G1 X822.221 Y-214.974 Z-132.586 F800.000
G2 X822.269 Y-214.975 Z-132.586 I0.000 J-1.587 K0.000 F800.000
G0 Z-121.586
G0 X820.307 Y-251.268 Z-121.586
G0 X820.307 Y-251.268 Z-124.586
G1 X820.307 Y-251.268 Z-132.586 F200.000
G2 X821.809 Y-252.853 Z-132.586 I-0.086 J-1.585 K0.000 F800.000
G1 X821.809 Y-281.853 Z-132.586 F800.000
G2 X820.221 Y-283.441 Z-132.586 I-1.587 J-0.000 K0.000 F800.000
G1 X626.221 Y-283.441 Z-132.586 F800.000
G2 X624.634 Y-281.853 Z-132.586 I-0.000 J1.587 K0.000 F800.000
G1 X624.634 Y-252.853 Z-132.586 F800.000
G2 X626.221 Y-251.266 Z-132.586 I1.587 J0.000 K0.000 F800.000
G1 X820.221 Y-251.266 Z-132.586 F800.000
G2 X820.307 Y-251.268 Z-132.586 I0.000 J-1.587 K0.000 F800.000
G0 Z-121.586
G0 X820.221 Y-287.557 Z-121.586
G0 X820.221 Y-287.557 Z-124.586
G1 X820.221 Y-287.557 Z-132.586 F200.000
G2 X821.809 Y-289.145 Z-132.586 I0.000 J-1.587 K0.000 F800.000
G1 X821.809 Y-318.145 Z-132.586 F800.000
G2 X820.221 Y-319.732 Z-132.586 I-1.587 J-0.000 K0.000 F800.000
G1 X626.221 Y-319.732 Z-132.586 F800.000
G2 X624.634 Y-318.145 Z-132.586 I-0.000 J1.587 K0.000 F800.000
G1 X624.634 Y-289.145 Z-132.586 F800.000
G2 X626.221 Y-287.557 Z-132.586 I1.587 J0.000 K0.000 F800.000
G1 X820.221 Y-287.557 Z-132.586 F800.000
G0 Z-121.586
G0 Y-323.849 Z-121.586
G0 Y-323.849 Z-124.586
G1 X820.221 Y-323.849 Z-132.586 F200.000
G2 X821.809 Y-325.437 Z-132.586 I0.000 J-1.587 K0.000 F800.000
G1 X821.809 Y-354.437 Z-132.586 F800.000
G2 X820.221 Y-356.024 Z-132.586 I-1.587 J-0.000 K0.000 F800.000
G1 X626.221 Y-356.024 Z-132.586 F800.000
G2 X624.634 Y-354.437 Z-132.586 I-0.000 J1.587 K0.000 F800.000
G1 X624.634 Y-325.437 Z-132.586 F800.000
G2 X626.221 Y-323.849 Z-132.586 I1.587 J0.000 K0.000 F800.000
G1 X820.221 Y-323.849 Z-132.586 F800.000
G0 Z-121.586
G0 Z-121.586
(Finish operation: Profile007)
(Begin postamble)
M5
G17 G90
M2
