(Exported by FreeCAD)
(Post Processor: grbl_post)
(Output Time:2022-05-23 18:36:57.586921)
(Begin preamble)
G17 G90
G21
(Begin operation: Fixture)
(Path: Fixture)
G54
(Finish operation: Fixture)
(Begin operation: TC: 25degree_Vbit006)
(Path: TC: 25degree_Vbit006)
(TC: 25degree_Vbit006)
(Begin toolchange)
( M6 T2.0 )
M3 S12000.0
(Finish operation: TC: 25degree_Vbit006)
(Begin operation: Profile003)
(Path: Profile003)
(Profile003)
(Compensated Tool Path. Diameter: 3.175)
G0 Z8.000
G0 X408.526 Y-34.765
G0 Z5.000
G1 X408.526 Y-34.765 Z0.000 F200.000
G2 X408.991 Y-35.888 Z0.000 I-1.123 J-1.123 K0.000 F800.000
G1 X408.991 Y-59.388 Z0.000 F800.000
G2 X407.403 Y-60.975 Z0.000 I-1.587 J-0.000 K0.000 F800.000
G1 X347.403 Y-60.975 Z0.000 F800.000
G2 X345.816 Y-59.388 Z0.000 I-0.000 J1.587 K0.000 F800.000
G1 X345.816 Y-35.888 Z0.000 F800.000
G2 X347.403 Y-34.300 Z0.000 I1.587 J0.000 K0.000 F800.000
G1 X407.403 Y-34.300 Z0.000 F800.000
G2 X408.526 Y-34.765 Z0.000 I0.000 J-1.587 K0.000 F800.000
G0 Z8.000
G0 X407.463 Y-63.093 Z8.000
G0 X407.463 Y-63.093 Z5.000
G1 X407.463 Y-63.093 Z0.000 F200.000
G2 X408.991 Y-64.679 Z0.000 I-0.060 J-1.586 K0.000 F800.000
G1 X408.991 Y-88.179 Z0.000 F800.000
G2 X407.403 Y-89.767 Z0.000 I-1.587 J-0.000 K0.000 F800.000
G1 X347.403 Y-89.767 Z0.000 F800.000
G2 X345.816 Y-88.179 Z0.000 I-0.000 J1.587 K0.000 F800.000
G1 X345.816 Y-64.679 Z0.000 F800.000
G2 X347.403 Y-63.092 Z0.000 I1.587 J0.000 K0.000 F800.000
G1 X407.403 Y-63.092 Z0.000 F800.000
G2 X407.463 Y-63.093 Z0.000 I0.000 J-1.587 K0.000 F800.000
G0 Z8.000
G0 X407.403 Y-91.884 Z8.000
G0 X407.403 Y-91.884 Z5.000
G1 X407.403 Y-91.884 Z0.000 F200.000
G2 X408.991 Y-93.471 Z0.000 I0.000 J-1.587 K0.000 F800.000
G1 X408.991 Y-116.971 Z0.000 F800.000
G2 X407.403 Y-118.559 Z0.000 I-1.587 J-0.000 K0.000 F800.000
G1 X347.403 Y-118.559 Z0.000 F800.000
G2 X345.816 Y-116.971 Z0.000 I-0.000 J1.587 K0.000 F800.000
G1 X345.816 Y-93.471 Z0.000 F800.000
G2 X347.403 Y-91.884 Z0.000 I1.587 J0.000 K0.000 F800.000
G1 X407.403 Y-91.884 Z0.000 F800.000
G0 Z8.000
G0 Y-120.675 Z8.000
G0 Y-120.675 Z5.000
G1 X407.403 Y-120.675 Z0.000 F200.000
G2 X408.991 Y-122.263 Z0.000 I0.000 J-1.587 K0.000 F800.000
G1 X408.991 Y-145.763 Z0.000 F800.000
G2 X407.403 Y-147.350 Z0.000 I-1.587 J-0.000 K0.000 F800.000
G1 X347.403 Y-147.350 Z0.000 F800.000
G2 X345.816 Y-145.763 Z0.000 I-0.000 J1.587 K0.000 F800.000
G1 X345.816 Y-122.263 Z0.000 F800.000
G2 X347.403 Y-120.675 Z0.000 I1.587 J0.000 K0.000 F800.000
G1 X407.403 Y-120.675 Z0.000 F800.000
G0 Z8.000
G0 Y-149.467 Z8.000
G0 Y-149.467 Z5.000
G1 X407.403 Y-149.467 Z0.000 F200.000
G2 X408.991 Y-151.054 Z0.000 I0.000 J-1.587 K0.000 F800.000
G1 X408.991 Y-174.554 Z0.000 F800.000
G2 X407.403 Y-176.142 Z0.000 I-1.587 J-0.000 K0.000 F800.000
G1 X347.403 Y-176.142 Z0.000 F800.000
G2 X345.816 Y-174.554 Z0.000 I-0.000 J1.587 K0.000 F800.000
G1 X345.816 Y-151.054 Z0.000 F800.000
G2 X347.403 Y-149.467 Z0.000 I1.587 J0.000 K0.000 F800.000
G1 X407.403 Y-149.467 Z0.000 F800.000
G0 Z8.000
G0 X344.993 Y-151.542 Z8.000
G0 X344.993 Y-151.542 Z5.000
G1 X344.993 Y-151.542 Z0.000 F200.000
G2 X344.994 Y-151.595 Z0.000 I-1.587 J-0.053 K0.000 F800.000
G1 X344.994 Y-175.095 Z0.000 F800.000
G2 X343.406 Y-176.683 Z0.000 I-1.587 J-0.000 K0.000 F800.000
G1 X283.406 Y-176.683 Z0.000 F800.000
G2 X281.819 Y-175.095 Z0.000 I-0.000 J1.587 K0.000 F800.000
G1 X281.819 Y-151.595 Z0.000 F800.000
G2 X283.406 Y-150.008 Z0.000 I1.587 J0.000 K0.000 F800.000
G1 X343.406 Y-150.008 Z0.000 F800.000
G2 X344.993 Y-151.542 Z0.000 I0.000 J-1.587 K0.000 F800.000
G0 Z8.000
G0 X343.866 Y-147.823 Z8.000
G0 X343.866 Y-147.823 Z5.000
G1 X343.866 Y-147.823 Z0.000 F200.000
G2 X343.406 Y-147.891 Z0.000 I-0.460 J1.519 K0.000 F800.000
G1 X283.406 Y-147.891 Z0.000 F800.000
G2 X281.819 Y-146.303 Z0.000 I-0.000 J1.587 K0.000 F800.000
G1 X281.819 Y-122.803 Z0.000 F800.000
G2 X283.406 Y-121.216 Z0.000 I1.587 J0.000 K0.000 F800.000
G1 X343.406 Y-121.216 Z0.000 F800.000
G2 X344.994 Y-122.803 Z0.000 I0.000 J-1.587 K0.000 F800.000
G1 X344.994 Y-146.303 Z0.000 F800.000
G2 X343.866 Y-147.823 Z0.000 I-1.587 J-0.000 K0.000 F800.000
G0 Z8.000
G0 X343.430 Y-119.099 Z8.000
G0 X343.430 Y-119.099 Z5.000
G1 X343.430 Y-119.099 Z0.000 F200.000
G2 X343.406 Y-119.099 Z0.000 I-0.024 J1.587 K0.000 F800.000
G1 X283.406 Y-119.099 Z0.000 F800.000
G2 X281.819 Y-117.512 Z0.000 I-0.000 J1.587 K0.000 F800.000
G1 X281.819 Y-94.012 Z0.000 F800.000
G2 X283.406 Y-92.424 Z0.000 I1.587 J0.000 K0.000 F800.000
G1 X343.406 Y-92.424 Z0.000 F800.000
G2 X344.994 Y-94.012 Z0.000 I0.000 J-1.587 K0.000 F800.000
G1 X344.994 Y-117.512 Z0.000 F800.000
G2 X343.430 Y-119.099 Z0.000 I-1.587 J-0.000 K0.000 F800.000
G0 Z8.000
G0 X343.406 Y-90.308 Z8.000
G0 X343.406 Y-90.308 Z5.000
G1 X343.406 Y-90.308 Z0.000 F200.000
G1 X283.406 Y-90.308 Z0.000 F800.000
G2 X281.819 Y-88.720 Z0.000 I-0.000 J1.587 K0.000 F800.000
G1 X281.819 Y-65.220 Z0.000 F800.000
G2 X283.406 Y-63.633 Z0.000 I1.587 J0.000 K0.000 F800.000
G1 X343.406 Y-63.633 Z0.000 F800.000
G2 X344.994 Y-65.220 Z0.000 I0.000 J-1.587 K0.000 F800.000
G1 X344.994 Y-88.720 Z0.000 F800.000
G2 X343.406 Y-90.308 Z0.000 I-1.587 J-0.000 K0.000 F800.000
G0 Z8.000
G0 Y-61.516 Z8.000
G0 Y-61.516 Z5.000
G1 X343.406 Y-61.516 Z0.000 F200.000
G1 X283.406 Y-61.516 Z0.000 F800.000
G2 X281.819 Y-59.929 Z0.000 I-0.000 J1.587 K0.000 F800.000
G1 X281.819 Y-36.429 Z0.000 F800.000
G2 X283.406 Y-34.841 Z0.000 I1.587 J0.000 K0.000 F800.000
G1 X343.406 Y-34.841 Z0.000 F800.000
G2 X344.994 Y-36.429 Z0.000 I0.000 J-1.587 K0.000 F800.000
G1 X344.994 Y-59.929 Z0.000 F800.000
G2 X343.406 Y-61.516 Z0.000 I-1.587 J-0.000 K0.000 F800.000
G0 Z8.000
G0 X278.579 Y-60.252 Z8.000
G0 X278.579 Y-60.252 Z5.000
G1 X278.579 Y-60.252 Z0.000 F200.000
G2 X276.992 Y-61.808 Z0.000 I-1.587 J0.031 K0.000 F800.000
G1 X216.992 Y-61.808 Z0.000 F800.000
G2 X215.405 Y-60.221 Z0.000 I-0.000 J1.587 K0.000 F800.000
G1 X215.405 Y-36.721 Z0.000 F800.000
G2 X216.992 Y-35.133 Z0.000 I1.587 J0.000 K0.000 F800.000
G1 X276.992 Y-35.133 Z0.000 F800.000
G2 X278.580 Y-36.721 Z0.000 I0.000 J-1.587 K0.000 F800.000
G1 X278.580 Y-60.221 Z0.000 F800.000
G2 X278.579 Y-60.252 Z0.000 I-1.587 J-0.000 K0.000 F800.000
G0 Z8.000
G0 X277.451 Y-63.993 Z8.000
G0 X277.451 Y-63.993 Z5.000
G1 X277.451 Y-63.993 Z0.000 F200.000
G2 X278.580 Y-65.512 Z0.000 I-0.459 J-1.520 K0.000 F800.000
G1 X278.580 Y-89.012 Z0.000 F800.000
G2 X276.992 Y-90.600 Z0.000 I-1.587 J-0.000 K0.000 F800.000
G1 X216.992 Y-90.600 Z0.000 F800.000
G2 X215.405 Y-89.012 Z0.000 I-0.000 J1.587 K0.000 F800.000
G1 X215.405 Y-65.512 Z0.000 F800.000
G2 X216.992 Y-63.925 Z0.000 I1.587 J0.000 K0.000 F800.000
G1 X276.992 Y-63.925 Z0.000 F800.000
G2 X277.451 Y-63.993 Z0.000 I0.000 J-1.587 K0.000 F800.000
G0 Z8.000
G0 X277.016 Y-92.717 Z8.000
G0 X277.016 Y-92.717 Z5.000
G1 X277.016 Y-92.717 Z0.000 F200.000
G2 X278.580 Y-94.304 Z0.000 I-0.024 J-1.587 K0.000 F800.000
G1 X278.580 Y-117.804 Z0.000 F800.000
G2 X276.992 Y-119.392 Z0.000 I-1.587 J-0.000 K0.000 F800.000
G1 X216.992 Y-119.392 Z0.000 F800.000
G2 X215.405 Y-117.804 Z0.000 I-0.000 J1.587 K0.000 F800.000
G1 X215.405 Y-94.304 Z0.000 F800.000
G2 X216.992 Y-92.717 Z0.000 I1.587 J0.000 K0.000 F800.000
G1 X276.992 Y-92.717 Z0.000 F800.000
G2 X277.016 Y-92.717 Z0.000 I0.000 J-1.587 K0.000 F800.000
G0 Z8.000
G0 X276.992 Y-121.508 Z8.000
G0 X276.992 Y-121.508 Z5.000
G1 X276.992 Y-121.508 Z0.000 F200.000
G2 X278.580 Y-123.096 Z0.000 I0.000 J-1.587 K0.000 F800.000
G1 X278.580 Y-146.596 Z0.000 F800.000
G2 X276.992 Y-148.183 Z0.000 I-1.587 J-0.000 K0.000 F800.000
G1 X216.992 Y-148.183 Z0.000 F800.000
G2 X215.405 Y-146.596 Z0.000 I-0.000 J1.587 K0.000 F800.000
G1 X215.405 Y-123.096 Z0.000 F800.000
G2 X216.992 Y-121.508 Z0.000 I1.587 J0.000 K0.000 F800.000
G1 X276.992 Y-121.508 Z0.000 F800.000
G0 Z8.000
G0 Y-150.300 Z8.000
G0 Y-150.300 Z5.000
G1 X276.992 Y-150.300 Z0.000 F200.000
G2 X278.580 Y-151.887 Z0.000 I0.000 J-1.587 K0.000 F800.000
G1 X278.580 Y-175.387 Z0.000 F800.000
G2 X276.992 Y-176.975 Z0.000 I-1.587 J-0.000 K0.000 F800.000
G1 X216.992 Y-176.975 Z0.000 F800.000
G2 X215.405 Y-175.387 Z0.000 I-0.000 J1.587 K0.000 F800.000
G1 X215.405 Y-151.887 Z0.000 F800.000
G2 X216.992 Y-150.300 Z0.000 I1.587 J0.000 K0.000 F800.000
G1 X276.992 Y-150.300 Z0.000 F800.000
G1 X276.992 Y-150.300 Z0.000 F200.000
G2 X278.580 Y-151.887 Z0.000 I0.000 J-1.587 K0.000 F800.000
G1 X278.580 Y-175.387 Z0.000 F800.000
G2 X276.992 Y-176.975 Z0.000 I-1.587 J-0.000 K0.000 F800.000
G1 X216.992 Y-176.975 Z0.000 F800.000
G2 X215.405 Y-175.387 Z0.000 I-0.000 J1.587 K0.000 F800.000
G1 X215.405 Y-151.887 Z0.000 F800.000
G2 X216.992 Y-150.300 Z0.000 I1.587 J0.000 K0.000 F800.000
G1 X276.992 Y-150.300 Z0.000 F800.000
G0 Z8.000
G0 Y-148.183 Z8.000
G0 Y-148.183 Z5.000
G1 X276.992 Y-148.183 Z0.000 F200.000
G1 X216.992 Y-148.183 Z0.000 F800.000
G2 X215.405 Y-146.596 Z0.000 I-0.000 J1.587 K0.000 F800.000
G1 X215.405 Y-123.096 Z0.000 F800.000
G2 X216.992 Y-121.508 Z0.000 I1.587 J0.000 K0.000 F800.000
G1 X276.992 Y-121.508 Z0.000 F800.000
G2 X278.580 Y-123.096 Z0.000 I0.000 J-1.587 K0.000 F800.000
G1 X278.580 Y-146.596 Z0.000 F800.000
G2 X276.992 Y-148.183 Z0.000 I-1.587 J-0.000 K0.000 F800.000
G0 Z8.000
G0 X281.883 Y-146.750 Z8.000
G0 X281.883 Y-146.750 Z5.000
G1 X281.883 Y-146.750 Z0.000 F200.000
G2 X281.819 Y-146.303 Z0.000 I1.523 J0.446 K0.000 F800.000
G1 X281.819 Y-122.803 Z0.000 F800.000
G2 X283.406 Y-121.216 Z0.000 I1.587 J0.000 K0.000 F800.000
G1 X343.406 Y-121.216 Z0.000 F800.000
G2 X344.994 Y-122.803 Z0.000 I0.000 J-1.587 K0.000 F800.000
G1 X344.994 Y-146.303 Z0.000 F800.000
G2 X343.406 Y-147.891 Z0.000 I-1.587 J-0.000 K0.000 F800.000
G1 X283.406 Y-147.891 Z0.000 F800.000
G2 X281.883 Y-146.750 Z0.000 I-0.000 J1.587 K0.000 F800.000
G0 Z8.000
G0 X282.930 Y-150.081 Z8.000
G0 X282.930 Y-150.081 Z5.000
G1 X282.930 Y-150.081 Z0.000 F200.000
G2 X283.406 Y-150.008 Z0.000 I0.476 J-1.514 K0.000 F800.000
G1 X343.406 Y-150.008 Z0.000 F800.000
G2 X344.994 Y-151.595 Z0.000 I0.000 J-1.587 K0.000 F800.000
G1 X344.994 Y-175.095 Z0.000 F800.000
G2 X343.406 Y-176.683 Z0.000 I-1.587 J-0.000 K0.000 F800.000
G1 X283.406 Y-176.683 Z0.000 F800.000
G2 X281.819 Y-175.095 Z0.000 I-0.000 J1.587 K0.000 F800.000
G1 X281.819 Y-151.595 Z0.000 F800.000
G2 X282.930 Y-150.081 Z0.000 I1.587 J0.000 K0.000 F800.000
G0 Z8.000
G0 X283.383 Y-119.099 Z8.000
G0 X283.383 Y-119.099 Z5.000
G1 X283.383 Y-119.099 Z0.000 F200.000
G2 X281.819 Y-117.512 Z0.000 I0.023 J1.587 K0.000 F800.000
G1 X281.819 Y-94.012 Z0.000 F800.000
G2 X283.406 Y-92.424 Z0.000 I1.587 J0.000 K0.000 F800.000
G1 X343.406 Y-92.424 Z0.000 F800.000
G2 X344.994 Y-94.012 Z0.000 I0.000 J-1.587 K0.000 F800.000
G1 X344.994 Y-117.512 Z0.000 F800.000
G2 X343.406 Y-119.099 Z0.000 I-1.587 J-0.000 K0.000 F800.000
G1 X283.406 Y-119.099 Z0.000 F800.000
G2 X283.383 Y-119.099 Z0.000 I-0.000 J1.587 K0.000 F800.000
G0 Z8.000
G0 X278.548 Y-118.119 Z8.000
G0 X278.548 Y-118.119 Z5.000
G1 X278.548 Y-118.119 Z0.000 F200.000
G2 X276.992 Y-119.392 Z0.000 I-1.556 J0.315 K0.000 F800.000
G1 X216.992 Y-119.392 Z0.000 F800.000
G2 X215.405 Y-117.804 Z0.000 I-0.000 J1.587 K0.000 F800.000
G1 X215.405 Y-94.304 Z0.000 F800.000
G2 X216.992 Y-92.717 Z0.000 I1.587 J0.000 K0.000 F800.000
G1 X276.992 Y-92.717 Z0.000 F800.000
G2 X278.580 Y-94.304 Z0.000 I0.000 J-1.587 K0.000 F800.000
G1 X278.580 Y-117.804 Z0.000 F800.000
G2 X278.548 Y-118.119 Z0.000 I-1.587 J-0.000 K0.000 F800.000
G0 Z8.000
G0 X277.077 Y-90.598 Z8.000
G0 X277.077 Y-90.598 Z5.000
G1 X277.077 Y-90.598 Z0.000 F200.000
G2 X276.992 Y-90.600 Z0.000 I-0.085 J1.585 K0.000 F800.000
G1 X216.992 Y-90.600 Z0.000 F800.000
G2 X215.405 Y-89.012 Z0.000 I-0.000 J1.587 K0.000 F800.000
G1 X215.405 Y-65.512 Z0.000 F800.000
G2 X216.992 Y-63.925 Z0.000 I1.587 J0.000 K0.000 F800.000
G1 X276.992 Y-63.925 Z0.000 F800.000
G2 X278.580 Y-65.512 Z0.000 I0.000 J-1.587 K0.000 F800.000
G1 X278.580 Y-89.012 Z0.000 F800.000
G2 X277.077 Y-90.598 Z0.000 I-1.587 J-0.000 K0.000 F800.000
G0 Z8.000
G0 X281.884 Y-89.172 Z8.000
G0 X281.884 Y-89.172 Z5.000
G1 X281.884 Y-89.172 Z0.000 F200.000
G2 X281.819 Y-88.720 Z0.000 I1.522 J0.451 K0.000 F800.000
G1 X281.819 Y-65.220 Z0.000 F800.000
G2 X283.406 Y-63.633 Z0.000 I1.587 J0.000 K0.000 F800.000
G1 X343.406 Y-63.633 Z0.000 F800.000
G2 X344.994 Y-65.220 Z0.000 I0.000 J-1.587 K0.000 F800.000
G1 X344.994 Y-88.720 Z0.000 F800.000
G2 X343.406 Y-90.308 Z0.000 I-1.587 J-0.000 K0.000 F800.000
G1 X283.406 Y-90.308 Z0.000 F800.000
G2 X281.884 Y-89.172 Z0.000 I-0.000 J1.587 K0.000 F800.000
G0 Z8.000
G0 X283.324 Y-61.514 Z8.000
G0 X283.324 Y-61.514 Z5.000
G1 X283.324 Y-61.514 Z0.000 F200.000
G2 X281.819 Y-59.929 Z0.000 I0.083 J1.585 K0.000 F800.000
G1 X281.819 Y-36.429 Z0.000 F800.000
G2 X283.406 Y-34.841 Z0.000 I1.587 J0.000 K0.000 F800.000
G1 X343.406 Y-34.841 Z0.000 F800.000
G2 X344.994 Y-36.429 Z0.000 I0.000 J-1.587 K0.000 F800.000
G1 X344.994 Y-59.929 Z0.000 F800.000
G2 X343.406 Y-61.516 Z0.000 I-1.587 J-0.000 K0.000 F800.000
G1 X283.406 Y-61.516 Z0.000 F800.000
G2 X283.324 Y-61.514 Z0.000 I-0.000 J1.587 K0.000 F800.000
G0 Z8.000
G0 X278.548 Y-60.538 Z8.000
G0 X278.548 Y-60.538 Z5.000
G1 X278.548 Y-60.538 Z0.000 F200.000
G2 X276.992 Y-61.808 Z0.000 I-1.555 J0.318 K0.000 F800.000
G1 X216.992 Y-61.808 Z0.000 F800.000
G2 X215.405 Y-60.221 Z0.000 I-0.000 J1.587 K0.000 F800.000
G1 X215.405 Y-36.721 Z0.000 F800.000
G2 X216.992 Y-35.133 Z0.000 I1.587 J0.000 K0.000 F800.000
G1 X276.992 Y-35.133 Z0.000 F800.000
G2 X278.580 Y-36.721 Z0.000 I0.000 J-1.587 K0.000 F800.000
G1 X278.580 Y-60.221 Z0.000 F800.000
G2 X278.548 Y-60.538 Z0.000 I-1.587 J-0.000 K0.000 F800.000
G0 Z8.000
G0 X345.816 Y-59.414 Z8.000
G0 X345.816 Y-59.414 Z5.000
G1 X345.816 Y-59.414 Z0.000 F200.000
G2 X345.816 Y-59.388 Z0.000 I1.587 J0.027 K0.000 F800.000
G1 X345.816 Y-35.888 Z0.000 F800.000
G2 X347.403 Y-34.300 Z0.000 I1.587 J0.000 K0.000 F800.000
G1 X407.403 Y-34.300 Z0.000 F800.000
G2 X408.991 Y-35.888 Z0.000 I0.000 J-1.587 K0.000 F800.000
G1 X408.991 Y-59.388 Z0.000 F800.000
G2 X407.403 Y-60.975 Z0.000 I-1.587 J-0.000 K0.000 F800.000
G1 X347.403 Y-60.975 Z0.000 F800.000
G2 X345.816 Y-59.414 Z0.000 I-0.000 J1.587 K0.000 F800.000
G0 Z8.000
G0 X346.945 Y-63.159 Z8.000
G0 X346.945 Y-63.159 Z5.000
G1 X346.945 Y-63.159 Z0.000 F200.000
G2 X347.403 Y-63.092 Z0.000 I0.458 J-1.520 K0.000 F800.000
G1 X407.403 Y-63.092 Z0.000 F800.000
G2 X408.991 Y-64.679 Z0.000 I0.000 J-1.587 K0.000 F800.000
G1 X408.991 Y-88.179 Z0.000 F800.000
G2 X407.403 Y-89.767 Z0.000 I-1.587 J-0.000 K0.000 F800.000
G1 X347.403 Y-89.767 Z0.000 F800.000
G2 X345.816 Y-88.179 Z0.000 I-0.000 J1.587 K0.000 F800.000
G1 X345.816 Y-64.679 Z0.000 F800.000
G2 X346.945 Y-63.159 Z0.000 I1.587 J0.000 K0.000 F800.000
G0 Z8.000
G0 X347.379 Y-91.884 Z8.000
G0 X347.379 Y-91.884 Z5.000
G1 X347.379 Y-91.884 Z0.000 F200.000
G2 X347.403 Y-91.884 Z0.000 I0.024 J-1.587 K0.000 F800.000
G1 X407.403 Y-91.884 Z0.000 F800.000
G2 X408.991 Y-93.471 Z0.000 I0.000 J-1.587 K0.000 F800.000
G1 X408.991 Y-116.971 Z0.000 F800.000
G2 X407.403 Y-118.559 Z0.000 I-1.587 J-0.000 K0.000 F800.000
G1 X347.403 Y-118.559 Z0.000 F800.000
G2 X345.816 Y-116.971 Z0.000 I-0.000 J1.587 K0.000 F800.000
G1 X345.816 Y-93.471 Z0.000 F800.000
G2 X347.379 Y-91.884 Z0.000 I1.587 J0.000 K0.000 F800.000
G0 Z8.000
G0 X347.403 Y-120.675 Z8.000
G0 X347.403 Y-120.675 Z5.000
G1 X347.403 Y-120.675 Z0.000 F200.000
G1 X407.403 Y-120.675 Z0.000 F800.000
G2 X408.991 Y-122.263 Z0.000 I0.000 J-1.587 K0.000 F800.000
G1 X408.991 Y-145.763 Z0.000 F800.000
G2 X407.403 Y-147.350 Z0.000 I-1.587 J-0.000 K0.000 F800.000
G1 X347.403 Y-147.350 Z0.000 F800.000
G2 X345.816 Y-145.763 Z0.000 I-0.000 J1.587 K0.000 F800.000
G1 X345.816 Y-122.263 Z0.000 F800.000
G2 X347.403 Y-120.675 Z0.000 I1.587 J0.000 K0.000 F800.000
G0 Z8.000
G0 Y-149.467 Z8.000
G0 Y-149.467 Z5.000
G1 X347.403 Y-149.467 Z0.000 F200.000
G1 X407.403 Y-149.467 Z0.000 F800.000
G2 X408.991 Y-151.054 Z0.000 I0.000 J-1.587 K0.000 F800.000
G1 X408.991 Y-174.554 Z0.000 F800.000
G2 X407.403 Y-176.142 Z0.000 I-1.587 J-0.000 K0.000 F800.000
G1 X347.403 Y-176.142 Z0.000 F800.000
G2 X345.816 Y-174.554 Z0.000 I-0.000 J1.587 K0.000 F800.000
G1 X345.816 Y-151.054 Z0.000 F800.000
G2 X347.403 Y-149.467 Z0.000 I1.587 J0.000 K0.000 F800.000
G0 Z8.000
G0 Z8.000
(Finish operation: Profile003)
(Begin postamble)
M5
G17 G90
M2
