(Exported by FreeCAD)
(Post Processor: grbl_post)
(Output Time:2022-05-23 18:33:20.964873)
(Begin preamble)
G17 G90
G21
(Begin operation: Fixture)
(Path: Fixture)
G54
(Finish operation: Fixture)
(Begin operation: TC: 25degree_Vbit005)
(Path: TC: 25degree_Vbit005)
(TC: 25degree_Vbit005)
(Begin toolchange)
( M6 T2.0 )
M3 S12000.0
(Finish operation: TC: 25degree_Vbit005)
(Begin operation: Profile002)
(Path: Profile002)
(Profile002)
(Compensated Tool Path. Diameter: 3.175)
G0 Z-137.654
G0 X206.048 Y-186.087
G0 Z-140.654
G1 X206.048 Y-186.087 Z-148.829 F200.000
G2 X206.513 Y-187.210 Z-148.829 I-1.123 J-1.123 K0.000 F800.000
G1 X206.513 Y-324.717 Z-148.829 F800.000
G2 X204.925 Y-326.304 Z-148.829 I-1.587 J-0.000 K0.000 F800.000
G1 X144.925 Y-326.304 Z-148.829 F800.000
G2 X143.338 Y-324.717 Z-148.829 I-0.000 J1.587 K0.000 F800.000
G1 X143.338 Y-187.210 Z-148.829 F800.000
G2 X144.925 Y-185.622 Z-148.829 I1.587 J0.000 K0.000 F800.000
G1 X204.925 Y-185.622 Z-148.829 F800.000
G2 X206.048 Y-186.087 Z-148.829 I0.000 J-1.587 K0.000 F800.000
G0 Z-137.654
G0 X138.759 Y-187.184 Z-137.654
G0 X138.759 Y-187.184 Z-140.654
G1 X138.759 Y-187.184 Z-148.829 F200.000
G2 X138.760 Y-187.210 Z-148.829 I-1.587 J-0.026 K0.000 F800.000
G1 X138.760 Y-324.717 Z-148.829 F800.000
G2 X137.172 Y-326.304 Z-148.829 I-1.587 J-0.000 K0.000 F800.000
G1 X77.172 Y-326.304 Z-148.829 F800.000
G2 X75.585 Y-324.717 Z-148.829 I-0.000 J1.587 K0.000 F800.000
G1 X75.585 Y-187.210 Z-148.829 F800.000
G2 X77.172 Y-185.622 Z-148.829 I1.587 J0.000 K0.000 F800.000
G1 X137.172 Y-185.622 Z-148.829 F800.000
G2 X138.759 Y-187.184 Z-148.829 I0.000 J-1.587 K0.000 F800.000
G0 Z-137.654
G0 X71.856 Y-187.210 Z-137.654
G0 X71.856 Y-187.210 Z-140.654
G1 X71.856 Y-187.210 Z-148.829 F200.000
G1 X71.856 Y-324.717 Z-148.829 F800.000
G2 X70.268 Y-326.304 Z-148.829 I-1.587 J-0.000 K0.000 F800.000
G1 X10.268 Y-326.304 Z-148.829 F800.000
G2 X8.681 Y-324.717 Z-148.829 I-0.000 J1.587 K0.000 F800.000
G1 X8.681 Y-187.210 Z-148.829 F800.000
G2 X10.268 Y-185.622 Z-148.829 I1.587 J0.000 K0.000 F800.000
G1 X70.268 Y-185.622 Z-148.829 F800.000
G2 X71.856 Y-187.210 Z-148.829 I0.000 J-1.587 K0.000 F800.000
G1 X71.856 Y-187.210 Z-148.982 F200.000
G1 X71.856 Y-324.717 Z-148.982 F800.000
G2 X70.268 Y-326.304 Z-148.982 I-1.587 J-0.000 K0.000 F800.000
G1 X10.268 Y-326.304 Z-148.982 F800.000
G2 X8.681 Y-324.717 Z-148.982 I-0.000 J1.587 K0.000 F800.000
G1 X8.681 Y-187.210 Z-148.982 F800.000
G2 X10.268 Y-185.622 Z-148.982 I1.587 J0.000 K0.000 F800.000
G1 X70.268 Y-185.622 Z-148.982 F800.000
G2 X71.856 Y-187.210 Z-148.982 I0.000 J-1.587 K0.000 F800.000
G0 Z-137.654
G0 X75.585 Z-137.654
G0 X75.585 Z-140.654
G1 X75.585 Y-187.210 Z-148.982 F200.000
G2 X77.172 Y-185.622 Z-148.982 I1.587 J0.000 K0.000 F800.000
G1 X137.172 Y-185.622 Z-148.982 F800.000
G2 X138.760 Y-187.210 Z-148.982 I0.000 J-1.587 K0.000 F800.000
G1 X138.760 Y-324.717 Z-148.982 F800.000
G2 X137.172 Y-326.304 Z-148.982 I-1.587 J-0.000 K0.000 F800.000
G1 X77.172 Y-326.304 Z-148.982 F800.000
G2 X75.585 Y-324.717 Z-148.982 I-0.000 J1.587 K0.000 F800.000
G1 X75.585 Y-187.210 Z-148.982 F800.000
G0 Z-137.654
G0 X143.338 Z-137.654
G0 X143.338 Z-140.654
G1 X143.338 Y-187.210 Z-148.982 F200.000
G2 X144.925 Y-185.622 Z-148.982 I1.587 J0.000 K0.000 F800.000
G1 X204.925 Y-185.622 Z-148.982 F800.000
G2 X206.513 Y-187.210 Z-148.982 I0.000 J-1.587 K0.000 F800.000
G1 X206.513 Y-324.717 Z-148.982 F800.000
G2 X204.925 Y-326.304 Z-148.982 I-1.587 J-0.000 K0.000 F800.000
G1 X144.925 Y-326.304 Z-148.982 F800.000
G2 X143.338 Y-324.717 Z-148.982 I-0.000 J1.587 K0.000 F800.000
G1 X143.338 Y-187.210 Z-148.982 F800.000
G0 Z-137.654
G0 Z-137.654
(Finish operation: Profile002)
(Begin postamble)
M5
G17 G90
M2
