(Exported by FreeCAD)
(Post Processor: grbl_post)
(Output Time:2022-05-22 20:00:23.291090)
(Begin preamble)
G17 G90
G21
(Begin operation: Fixture)
(Path: Fixture)
G54
(Finish operation: Fixture)
(Begin operation: TC: 25degree_Vbit004)
(Path: TC: 25degree_Vbit004)
(TC: 25degree_Vbit004)
(Begin toolchange)
( M6 T2.0 )
M3 S12000.0
(Finish operation: TC: 25degree_Vbit004)
(Begin operation: Profile001)
(Path: Profile001)
(Profile001)
(Compensated Tool Path. Diameter: 3.175)
G0 Z8.000
G0 X206.099 Y-36.087
G0 Z5.000
G1 X206.099 Y-36.087 Z-3.000 F250.000
G2 X206.564 Y-37.210 Z-3.000 I-1.123 J-1.123 K0.000 F800.000
G1 X206.564 Y-174.717 Z-3.000 F800.000
G2 X204.977 Y-176.304 Z-3.000 I-1.587 J-0.000 K0.000 F800.000
G1 X176.977 Y-176.304 Z-3.000 F800.000
G2 X175.389 Y-174.717 Z-3.000 I-0.000 J1.587 K0.000 F800.000
G1 X175.389 Y-37.210 Z-3.000 F800.000
G2 X176.977 Y-35.622 Z-3.000 I1.587 J0.000 K0.000 F800.000
G1 X204.977 Y-35.622 Z-3.000 F800.000
G2 X206.099 Y-36.087 Z-3.000 I0.000 J-1.587 K0.000 F800.000
G0 Z8.000
G0 X173.272 Y-37.158 Z8.000
G0 X173.272 Y-37.158 Z5.000
G1 X173.272 Y-37.158 Z-3.000 F250.000
G2 X173.272 Y-37.210 Z-3.000 I-1.587 J-0.052 K0.000 F800.000
G1 X173.272 Y-174.717 Z-3.000 F800.000
G2 X171.685 Y-176.304 Z-3.000 I-1.587 J-0.000 K0.000 F800.000
G1 X143.685 Y-176.304 Z-3.000 F800.000
G2 X142.097 Y-174.717 Z-3.000 I-0.000 J1.587 K0.000 F800.000
G1 X142.097 Y-37.210 Z-3.000 F800.000
G2 X143.685 Y-35.622 Z-3.000 I1.587 J0.000 K0.000 F800.000
G1 X171.685 Y-35.622 Z-3.000 F800.000
G2 X173.272 Y-37.158 Z-3.000 I0.000 J-1.587 K0.000 F800.000
G0 Z8.000
G0 X139.981 Y-37.210 Z8.000
G0 X139.981 Y-37.210 Z5.000
G1 X139.981 Y-37.210 Z-3.000 F250.000
G1 X139.981 Y-60.710 Z-3.000 F800.000
G2 X138.393 Y-62.297 Z-3.000 I-1.587 J-0.000 K0.000 F800.000
G1 X78.393 Y-62.297 Z-3.000 F800.000
G2 X76.806 Y-60.710 Z-3.000 I-0.000 J1.587 K0.000 F800.000
G1 X76.806 Y-37.210 Z-3.000 F800.000
G2 X78.393 Y-35.622 Z-3.000 I1.587 J0.000 K0.000 F800.000
G1 X138.393 Y-35.622 Z-3.000 F800.000
G2 X139.981 Y-37.210 Z-3.000 I0.000 J-1.587 K0.000 F800.000
G0 Z8.000
G0 X138.481 Y-64.417 Z8.000
G0 X138.481 Y-64.417 Z5.000
G1 X138.481 Y-64.417 Z-3.000 F250.000
G2 X139.981 Y-66.002 Z-3.000 I-0.087 J-1.585 K0.000 F800.000
G1 X139.981 Y-89.502 Z-3.000 F800.000
G2 X138.393 Y-91.089 Z-3.000 I-1.587 J-0.000 K0.000 F800.000
G1 X78.393 Y-91.089 Z-3.000 F800.000
G2 X76.806 Y-89.502 Z-3.000 I-0.000 J1.587 K0.000 F800.000
G1 X76.806 Y-66.002 Z-3.000 F800.000
G2 X78.393 Y-64.414 Z-3.000 I1.587 J0.000 K0.000 F800.000
G1 X138.393 Y-64.414 Z-3.000 F800.000
G2 X138.481 Y-64.417 Z-3.000 I0.000 J-1.587 K0.000 F800.000
G0 Z8.000
G0 X138.393 Y-93.206 Z8.000
G0 X138.393 Y-93.206 Z5.000
G1 X138.393 Y-93.206 Z-3.000 F250.000
G2 X139.981 Y-94.793 Z-3.000 I0.000 J-1.587 K0.000 F800.000
G1 X139.981 Y-118.293 Z-3.000 F800.000
G2 X138.393 Y-119.881 Z-3.000 I-1.587 J-0.000 K0.000 F800.000
G1 X78.393 Y-119.881 Z-3.000 F800.000
G2 X76.806 Y-118.293 Z-3.000 I-0.000 J1.587 K0.000 F800.000
G1 X76.806 Y-94.793 Z-3.000 F800.000
G2 X78.393 Y-93.206 Z-3.000 I1.587 J0.000 K0.000 F800.000
G1 X138.393 Y-93.206 Z-3.000 F800.000
G0 Z8.000
G0 Y-121.997 Z8.000
G0 Y-121.997 Z5.000
G1 X138.393 Y-121.997 Z-3.000 F250.000
G2 X139.981 Y-123.585 Z-3.000 I0.000 J-1.587 K0.000 F800.000
G1 X139.981 Y-147.085 Z-3.000 F800.000
G2 X138.393 Y-148.672 Z-3.000 I-1.587 J-0.000 K0.000 F800.000
G1 X78.393 Y-148.672 Z-3.000 F800.000
G2 X76.806 Y-147.085 Z-3.000 I-0.000 J1.587 K0.000 F800.000
G1 X76.806 Y-123.585 Z-3.000 F800.000
G2 X78.393 Y-121.997 Z-3.000 I1.587 J0.000 K0.000 F800.000
G1 X138.393 Y-121.997 Z-3.000 F800.000
G0 Z8.000
G0 Y-150.789 Z8.000
G0 Y-150.789 Z5.000
G1 X138.393 Y-150.789 Z-3.000 F250.000
G2 X139.981 Y-152.376 Z-3.000 I0.000 J-1.587 K0.000 F800.000
G1 X139.981 Y-175.876 Z-3.000 F800.000
G2 X138.393 Y-177.464 Z-3.000 I-1.587 J-0.000 K0.000 F800.000
G1 X78.393 Y-177.464 Z-3.000 F800.000
G2 X76.806 Y-175.876 Z-3.000 I-0.000 J1.587 K0.000 F800.000
G1 X76.806 Y-152.376 Z-3.000 F800.000
G2 X78.393 Y-150.789 Z-3.000 I1.587 J0.000 K0.000 F800.000
G1 X138.393 Y-150.789 Z-3.000 F800.000
G0 Z8.000
G0 X74.689 Z8.000
G0 X74.689 Z5.000
G1 X74.689 Y-150.789 Z-3.000 F250.000
G1 X74.689 Y-174.717 Z-3.000 F800.000
G2 X73.102 Y-176.304 Z-3.000 I-1.587 J-0.000 K0.000 F800.000
G1 X45.102 Y-176.304 Z-3.000 F800.000
G2 X43.514 Y-174.717 Z-3.000 I-0.000 J1.587 K0.000 F800.000
G1 X43.514 Y-37.210 Z-3.000 F800.000
G2 X45.102 Y-35.622 Z-3.000 I1.587 J0.000 K0.000 F800.000
G1 X73.102 Y-35.622 Z-3.000 F800.000
G2 X74.689 Y-37.210 Z-3.000 I0.000 J-1.587 K0.000 F800.000
G1 X74.689 Y-150.789 Z-3.000 F800.000
G0 Z8.000
G0 X41.397 Z8.000
G0 X41.397 Z5.000
G1 X41.397 Y-150.789 Z-3.000 F250.000
G1 X41.397 Y-174.717 Z-3.000 F800.000
G2 X39.810 Y-176.304 Z-3.000 I-1.587 J-0.000 K0.000 F800.000
G1 X11.810 Y-176.304 Z-3.000 F800.000
G2 X10.222 Y-174.717 Z-3.000 I-0.000 J1.587 K0.000 F800.000
G1 X10.222 Y-37.210 Z-3.000 F800.000
G2 X11.810 Y-35.622 Z-3.000 I1.587 J0.000 K0.000 F800.000
G1 X39.810 Y-35.622 Z-3.000 F800.000
G2 X41.397 Y-37.210 Z-3.000 I0.000 J-1.587 K0.000 F800.000
G1 X41.397 Y-150.789 Z-3.000 F800.000
G0 Z8.000
G0 Z8.000
(Finish operation: Profile001)
(Begin postamble)
M5
G17 G90
M2
