(Exported by FreeCAD)
(Post Processor: grbl_post)
(Output Time:2022-06-01 01:14:50.293771)
(Begin preamble)
G17 G90
G21
(Begin operation: Fixture)
(Path: Fixture)
G54
(Finish operation: Fixture)
(Begin operation: TC: 3mm_Endmill_2flutes)
(Path: TC: 3mm_Endmill_2flutes)
(TC: 3mm_Endmill_2flutes)
(Begin toolchange)
( M6 T1.0 )
M3 S12000.0
(Finish operation: TC: 3mm_Endmill_2flutes)
(Begin operation: Pocket_Shape)
(Path: Pocket_Shape)
(Pocket_Shape)
G0 Z5.000
G0 X131.620 Y-70.432
G0 Z3.000
G1 X131.620 Y-70.432 Z-1.500 F250.000
G1 X109.232 Y-92.820 Z-1.500 F750.000
G2 X109.820 Y-93.019 Z-1.500 I-0.205 J-1.571 K0.000 F750.000
G1 X112.168 Y-94.375 Z-1.500 F750.000
G1 X134.467 Y-72.076 Z-1.500 F750.000
G1 X137.314 Y-73.719 Z-1.500 F750.000
G1 X115.015 Y-96.018 Z-1.500 F750.000
G1 X117.861 Y-97.662 Z-1.500 F750.000
G1 X140.160 Y-75.363 Z-1.500 F750.000
G1 X141.632 Y-76.212 Z-1.500 F750.000
G1 X138.668 Y-81.345 Z-1.500 F750.000
G1 X120.708 Y-99.305 Z-1.500 F750.000
G1 X123.554 Y-100.949 Z-1.500 F750.000
G1 X132.535 Y-91.968 Z-1.500 F750.000
G1 X126.401 Y-102.592 Z-1.500 F750.000
G0 Z5.000
G0 X109.230 Y-92.820 Z5.000
G0 X109.230 Y-92.820 Z3.000
G1 X109.230 Y-92.820 Z-1.500 F250.000
G1 X109.232 Y-92.820 Z-1.500 F750.000
G1 X131.620 Y-70.432 Z-1.500 F750.000
G1 X128.774 Y-68.789 Z-1.500 F750.000
G1 X105.257 Y-92.305 Z-1.500 F750.000
G1 X101.282 Y-91.790 Z-1.500 F750.000
G1 X125.927 Y-67.145 Z-1.500 F750.000
G1 X123.081 Y-65.502 Z-1.500 F750.000
G1 X97.306 Y-91.276 Z-1.500 F750.000
G1 X93.331 Y-90.761 Z-1.500 F750.000
G1 X120.668 Y-63.424 Z-1.500 F750.000
G1 X120.642 Y-63.177 Z-1.500 F750.000
G1 X120.642 Y-58.960 Z-1.500 F750.000
G1 X89.356 Y-90.246 Z-1.500 F750.000
G1 X85.380 Y-89.732 Z-1.500 F750.000
G1 X120.642 Y-54.470 Z-1.500 F750.000
G1 X120.642 Y-49.979 Z-1.500 F750.000
G1 X81.405 Y-89.217 Z-1.500 F750.000
G1 X77.429 Y-88.702 Z-1.500 F750.000
G1 X120.642 Y-45.489 Z-1.500 F750.000
G1 X120.642 Y-40.999 Z-1.500 F750.000
G1 X73.454 Y-88.187 Z-1.500 F750.000
G1 X71.945 Y-87.992 Z-1.500 F750.000
G1 X70.772 Y-86.379 Z-1.500 F750.000
G1 X120.642 Y-36.509 Z-1.500 F750.000
G1 X120.642 Y-32.019 Z-1.500 F750.000
G1 X68.881 Y-83.780 Z-1.500 F750.000
G1 X66.991 Y-81.180 Z-1.500 F750.000
G1 X120.642 Y-27.529 Z-1.500 F750.000
G1 X120.642 Y-23.039 Z-1.500 F750.000
G1 X65.100 Y-78.581 Z-1.500 F750.000
G1 X63.209 Y-75.981 Z-1.500 F750.000
G1 X120.642 Y-18.549 Z-1.500 F750.000
G1 X120.642 Y-14.058 Z-1.500 F750.000
G1 X61.203 Y-73.498 Z-1.500 F750.000
G3 X60.452 Y-73.302 Z-1.500 I-0.743 J-1.308 K0.000 F750.000
G1 X56.909 Y-73.302 Z-1.500 F750.000
G1 X118.214 Y-11.997 Z-1.500 F750.000
G1 X113.724 Y-11.997 Z-1.500 F750.000
G1 X52.419 Y-73.302 Z-1.500 F750.000
G1 X47.928 Y-73.302 Z-1.500 F750.000
G1 X109.233 Y-11.997 Z-1.500 F750.000
G1 X105.230 Y-11.997 Z-1.500 F750.000
G2 X104.807 Y-11.933 Z-1.500 I-0.071 J0.957 K0.000 F750.000
G1 X43.438 Y-73.302 Z-1.500 F750.000
G1 X38.948 Y-73.302 Z-1.500 F750.000
G1 X102.623 Y-9.627 Z-1.500 F750.000
G1 X98.133 Y-9.627 Z-1.500 F750.000
G1 X34.458 Y-73.302 Z-1.500 F750.000
G1 X29.968 Y-73.302 Z-1.500 F750.000
G1 X93.643 Y-9.627 Z-1.500 F750.000
G1 X89.153 Y-9.627 Z-1.500 F750.000
G1 X25.478 Y-73.302 Z-1.500 F750.000
G1 X20.988 Y-73.302 Z-1.500 F750.000
G1 X84.663 Y-9.627 Z-1.500 F750.000
G2 X83.240 Y-9.280 Z-1.500 I-0.300 J1.864 K0.000 F750.000
G2 X82.642 Y-8.039 Z-1.500 I0.990 J1.241 K0.000 F750.000
G1 X82.642 Y-7.257 Z-1.500 F750.000
G1 X82.543 Y-7.257 Z-1.500 F750.000
G1 X16.498 Y-73.302 Z-1.500 F750.000
G1 X12.007 Y-73.302 Z-1.500 F750.000
G1 X78.052 Y-7.257 Z-1.500 F750.000
G1 X73.562 Y-7.257 Z-1.500 F750.000
G1 X7.517 Y-73.302 Z-1.500 F750.000
G1 X4.817 Y-73.302 Z-1.500 F750.000
G1 X4.817 Y-71.512 Z-1.500 F750.000
G1 X69.072 Y-7.257 Z-1.500 F750.000
G1 X64.582 Y-7.257 Z-1.500 F750.000
G1 X4.817 Y-67.022 Z-1.500 F750.000
G1 X4.817 Y-62.531 Z-1.500 F750.000
G1 X57.722 Y-9.627 Z-1.500 F750.000
G1 X53.232 Y-9.627 Z-1.500 F750.000
G1 X4.817 Y-58.041 Z-1.500 F750.000
G1 X4.817 Y-53.551 Z-1.500 F750.000
G1 X48.742 Y-9.627 Z-1.500 F750.000
G1 X44.252 Y-9.627 Z-1.500 F750.000
G1 X42.817 Y-11.061 Z-1.500 F750.000
G1 X42.817 Y-9.627 Z-1.500 F750.000
G1 X44.252 Y-9.627 Z-1.500 F750.000
G0 Z5.000
G0 X39.502 Y-14.377 Z5.000
G0 X39.502 Y-14.377 Z3.000
G1 X39.502 Y-14.377 Z-1.500 F250.000
G1 X4.817 Y-49.061 Z-1.500 F750.000
G1 X4.817 Y-44.571 Z-1.500 F750.000
G1 X35.011 Y-14.377 Z-1.500 F750.000
G1 X30.521 Y-14.377 Z-1.500 F750.000
G1 X4.817 Y-40.081 Z-1.500 F750.000
G1 X4.817 Y-35.591 Z-1.500 F750.000
G1 X26.031 Y-14.377 Z-1.500 F750.000
G1 X21.541 Y-14.377 Z-1.500 F750.000
G1 X4.817 Y-31.101 Z-1.500 F750.000
G1 X4.817 Y-26.610 Z-1.500 F750.000
G1 X17.051 Y-14.377 Z-1.500 F750.000
G1 X12.561 Y-14.377 Z-1.500 F750.000
G1 X4.817 Y-22.120 Z-1.500 F750.000
G1 X4.817 Y-17.630 Z-1.500 F750.000
G1 X4.817 Y-14.377 Z-1.500 F750.000
G1 X8.071 Y-14.377 Z-1.500 F750.000
G1 X4.817 Y-17.630 Z-1.500 F750.000
G0 Z5.000
G0 Z5.000
(Finish operation: Pocket_Shape)
(Begin operation: Pocket_Shape001)
(Path: Pocket_Shape001)
(Pocket_Shape001)
G0 Z5.000
G0 X117.642 Y-14.997
G0 Z3.000
G1 X117.642 Y-14.997 Z-1.587 F250.000
G1 X113.152 Y-14.997 Z-1.587 F750.000
G1 X117.642 Y-19.487 Z-1.587 F750.000
G1 X117.642 Y-23.977 Z-1.587 F750.000
G1 X108.662 Y-14.997 Z-1.587 F750.000
G1 X104.172 Y-14.997 Z-1.587 F750.000
G1 X117.642 Y-28.467 Z-1.587 F750.000
G1 X117.642 Y-32.957 Z-1.587 F750.000
G1 X97.312 Y-12.627 Z-1.587 F750.000
G1 X92.822 Y-12.627 Z-1.587 F750.000
G1 X117.642 Y-37.447 Z-1.587 F750.000
G1 X117.642 Y-41.937 Z-1.587 F750.000
G1 X88.331 Y-12.627 Z-1.587 F750.000
G1 X83.841 Y-12.627 Z-1.587 F750.000
G1 X117.642 Y-46.428 Z-1.587 F750.000
G1 X117.642 Y-50.918 Z-1.587 F750.000
G1 X76.981 Y-10.257 Z-1.587 F750.000
G1 X72.491 Y-10.257 Z-1.587 F750.000
G1 X117.642 Y-55.408 Z-1.587 F750.000
G1 X117.642 Y-59.898 Z-1.587 F750.000
G1 X68.001 Y-10.257 Z-1.587 F750.000
G1 X64.817 Y-10.257 Z-1.587 F750.000
G2 X64.777 Y-11.392 Z-1.587 I-5.060 J-0.391 K0.000 F750.000
G1 X64.743 Y-11.489 Z-1.587 F750.000
G1 X117.642 Y-64.388 Z-1.587 F750.000
G3 X117.677 Y-65.239 Z-1.587 I4.066 J-0.261 K0.000 F750.000
G3 X118.436 Y-66.284 Z-1.587 I1.553 J0.330 K0.000 F750.000
G1 X121.044 Y-67.790 Z-1.587 F750.000
G1 X134.983 Y-81.729 Z-1.587 F750.000
G1 X133.339 Y-84.575 Z-1.587 F750.000
G1 X61.391 Y-12.627 Z-1.587 F750.000
G1 X56.901 Y-12.627 Z-1.587 F750.000
G1 X131.696 Y-87.422 Z-1.587 F750.000
G1 X130.052 Y-90.268 Z-1.587 F750.000
G1 X52.410 Y-12.627 Z-1.587 F750.000
G1 X47.920 Y-12.627 Z-1.587 F750.000
G1 X128.409 Y-93.115 Z-1.587 F750.000
G1 X126.765 Y-95.962 Z-1.587 F750.000
G1 X45.817 Y-15.014 Z-1.587 F750.000
G2 X45.777 Y-16.142 Z-1.587 I-5.029 J-0.388 K0.000 F750.000
G2 X44.230 Y-17.377 Z-1.587 I-1.548 J0.353 K0.000 F750.000
G1 X43.690 Y-17.377 Z-1.587 F750.000
G1 X124.130 Y-97.817 Z-1.587 F750.000
G1 X113.507 Y-91.684 Z-1.587 F750.000
G1 X39.200 Y-17.377 Z-1.587 F750.000
G1 X34.710 Y-17.377 Z-1.587 F750.000
G1 X106.815 Y-89.482 Z-1.587 F750.000
G1 X101.657 Y-88.814 Z-1.587 F750.000
G1 X30.220 Y-17.377 Z-1.587 F750.000
G1 X25.729 Y-17.377 Z-1.587 F750.000
G1 X96.499 Y-88.146 Z-1.587 F750.000
G1 X91.341 Y-87.478 Z-1.587 F750.000
G1 X21.239 Y-17.377 Z-1.587 F750.000
G1 X16.749 Y-17.377 Z-1.587 F750.000
G1 X86.183 Y-86.810 Z-1.587 F750.000
G1 X81.025 Y-86.143 Z-1.587 F750.000
G1 X12.259 Y-17.377 Z-1.587 F750.000
G1 X7.817 Y-17.377 Z-1.587 F750.000
G1 X7.817 Y-17.425 Z-1.587 F750.000
G1 X60.694 Y-70.302 Z-1.587 F750.000
G1 X56.204 Y-70.302 Z-1.587 F750.000
G1 X7.817 Y-21.915 Z-1.587 F750.000
G1 X7.817 Y-26.405 Z-1.587 F750.000
G1 X51.714 Y-70.302 Z-1.587 F750.000
G1 X47.224 Y-70.302 Z-1.587 F750.000
G1 X7.817 Y-30.895 Z-1.587 F750.000
G1 X7.817 Y-35.385 Z-1.587 F750.000
G1 X42.733 Y-70.302 Z-1.587 F750.000
G1 X38.243 Y-70.302 Z-1.587 F750.000
G1 X7.817 Y-39.876 Z-1.587 F750.000
G1 X7.817 Y-44.366 Z-1.587 F750.000
G1 X33.753 Y-70.302 Z-1.587 F750.000
G1 X29.263 Y-70.302 Z-1.587 F750.000
G1 X7.817 Y-48.856 Z-1.587 F750.000
G1 X7.817 Y-53.346 Z-1.587 F750.000
G1 X24.773 Y-70.302 Z-1.587 F750.000
G1 X20.283 Y-70.302 Z-1.587 F750.000
G1 X7.817 Y-57.836 Z-1.587 F750.000
G1 X7.817 Y-62.326 Z-1.587 F750.000
G1 X15.793 Y-70.302 Z-1.587 F750.000
G1 X11.303 Y-70.302 Z-1.587 F750.000
G1 X7.817 Y-70.302 Z-1.587 F750.000
G1 X7.817 Y-66.816 Z-1.587 F750.000
G1 X11.303 Y-70.302 Z-1.587 F750.000
G0 Z5.000
G0 X68.374 Y-77.982 Z5.000
G0 X68.374 Y-77.982 Z3.000
G1 X68.374 Y-77.982 Z-1.587 F250.000
G1 X73.611 Y-85.183 Z-1.587 F750.000
G1 X75.867 Y-85.475 Z-1.587 F750.000
G1 X68.374 Y-77.982 Z-1.587 F750.000
G0 Z5.000
G0 X131.667 Y-73.923 Z5.000
G0 X131.667 Y-73.923 Z3.000
G1 X131.667 Y-73.923 Z-1.587 F250.000
G1 X137.534 Y-77.310 Z-1.587 F750.000
G1 X136.626 Y-78.882 Z-1.587 F750.000
G1 X131.667 Y-73.923 Z-1.587 F750.000
G1 X121.044 Y-67.790 Z-1.587 F750.000
G1 X134.983 Y-81.729 Z-1.587 F750.000
G1 X134.983 Y-81.729 Z-3.175 F250.000
G1 X121.044 Y-67.790 Z-3.175 F750.000
G1 X131.667 Y-73.923 Z-3.175 F750.000
G1 X136.626 Y-78.882 Z-3.175 F750.000
G1 X137.534 Y-77.310 Z-3.175 F750.000
G1 X131.667 Y-73.923 Z-3.175 F750.000
G0 Z5.000
G0 X75.867 Y-85.475 Z5.000
G0 X75.867 Y-85.475 Z3.000
G1 X75.867 Y-85.475 Z-3.175 F250.000
G1 X68.374 Y-77.982 Z-3.175 F750.000
G1 X73.611 Y-85.183 Z-3.175 F750.000
G1 X75.867 Y-85.475 Z-3.175 F750.000
G0 Z5.000
G0 X11.303 Y-70.302 Z5.000
G0 X11.303 Y-70.302 Z3.000
G1 X11.303 Y-70.302 Z-3.175 F250.000
G1 X7.817 Y-66.816 Z-3.175 F750.000
G1 X7.817 Y-70.302 Z-3.175 F750.000
G1 X11.303 Y-70.302 Z-3.175 F750.000
G1 X15.793 Y-70.302 Z-3.175 F750.000
G1 X7.817 Y-62.326 Z-3.175 F750.000
G1 X7.817 Y-57.836 Z-3.175 F750.000
G1 X20.283 Y-70.302 Z-3.175 F750.000
G1 X24.773 Y-70.302 Z-3.175 F750.000
G1 X7.817 Y-53.346 Z-3.175 F750.000
G1 X7.817 Y-48.856 Z-3.175 F750.000
G1 X29.263 Y-70.302 Z-3.175 F750.000
G1 X33.753 Y-70.302 Z-3.175 F750.000
G1 X7.817 Y-44.366 Z-3.175 F750.000
G1 X7.817 Y-39.876 Z-3.175 F750.000
G1 X38.243 Y-70.302 Z-3.175 F750.000
G1 X42.733 Y-70.302 Z-3.175 F750.000
G1 X7.817 Y-35.385 Z-3.175 F750.000
G1 X7.817 Y-30.895 Z-3.175 F750.000
G1 X47.224 Y-70.302 Z-3.175 F750.000
G1 X51.714 Y-70.302 Z-3.175 F750.000
G1 X7.817 Y-26.405 Z-3.175 F750.000
G1 X7.817 Y-21.915 Z-3.175 F750.000
G1 X56.204 Y-70.302 Z-3.175 F750.000
G1 X60.694 Y-70.302 Z-3.175 F750.000
G1 X7.817 Y-17.425 Z-3.175 F750.000
G1 X7.817 Y-17.377 Z-3.175 F750.000
G1 X12.259 Y-17.377 Z-3.175 F750.000
G1 X81.025 Y-86.143 Z-3.175 F750.000
G1 X86.183 Y-86.810 Z-3.175 F750.000
G1 X16.749 Y-17.377 Z-3.175 F750.000
G1 X21.239 Y-17.377 Z-3.175 F750.000
G1 X91.341 Y-87.478 Z-3.175 F750.000
G1 X96.499 Y-88.146 Z-3.175 F750.000
G1 X25.729 Y-17.377 Z-3.175 F750.000
G1 X30.220 Y-17.377 Z-3.175 F750.000
G1 X101.657 Y-88.814 Z-3.175 F750.000
G1 X106.815 Y-89.482 Z-3.175 F750.000
G1 X34.710 Y-17.377 Z-3.175 F750.000
G1 X39.200 Y-17.377 Z-3.175 F750.000
G1 X113.507 Y-91.684 Z-3.175 F750.000
G1 X124.130 Y-97.817 Z-3.175 F750.000
G1 X43.690 Y-17.377 Z-3.175 F750.000
G1 X44.230 Y-17.377 Z-3.175 F750.000
G3 X45.777 Y-16.142 Z-3.175 I-0.000 J1.588 K0.000 F750.000
G3 X45.817 Y-15.014 Z-3.175 I-4.989 J0.741 K0.000 F750.000
G1 X126.765 Y-95.962 Z-3.175 F750.000
G1 X128.409 Y-93.115 Z-3.175 F750.000
G1 X47.920 Y-12.627 Z-3.175 F750.000
G1 X52.410 Y-12.627 Z-3.175 F750.000
G1 X130.052 Y-90.268 Z-3.175 F750.000
G1 X131.696 Y-87.422 Z-3.175 F750.000
G1 X56.901 Y-12.627 Z-3.175 F750.000
G1 X61.391 Y-12.627 Z-3.175 F750.000
G1 X133.339 Y-84.575 Z-3.175 F750.000
G1 X134.983 Y-81.729 Z-3.175 F750.000
G1 X121.044 Y-67.790 Z-3.175 F750.000
G1 X118.436 Y-66.284 Z-3.175 F750.000
G2 X117.677 Y-65.239 Z-3.175 I0.794 J1.375 K0.000 F750.000
G2 X117.642 Y-64.388 Z-3.175 I4.032 J0.591 K0.000 F750.000
G1 X64.743 Y-11.489 Z-3.175 F750.000
G1 X64.777 Y-11.392 Z-3.175 F750.000
G3 X64.817 Y-10.257 Z-3.175 I-5.020 J0.745 K0.000 F750.000
G1 X68.001 Y-10.257 Z-3.175 F750.000
G1 X117.642 Y-59.898 Z-3.175 F750.000
G1 X117.642 Y-55.408 Z-3.175 F750.000
G1 X72.491 Y-10.257 Z-3.175 F750.000
G1 X76.981 Y-10.257 Z-3.175 F750.000
G1 X117.642 Y-50.918 Z-3.175 F750.000
G1 X117.642 Y-46.428 Z-3.175 F750.000
G1 X83.841 Y-12.627 Z-3.175 F750.000
G1 X88.331 Y-12.627 Z-3.175 F750.000
G1 X117.642 Y-41.937 Z-3.175 F750.000
G1 X117.642 Y-37.447 Z-3.175 F750.000
G1 X92.822 Y-12.627 Z-3.175 F750.000
G1 X97.312 Y-12.627 Z-3.175 F750.000
G1 X117.642 Y-32.957 Z-3.175 F750.000
G1 X117.642 Y-28.467 Z-3.175 F750.000
G1 X104.172 Y-14.997 Z-3.175 F750.000
G1 X108.662 Y-14.997 Z-3.175 F750.000
G1 X117.642 Y-23.977 Z-3.175 F750.000
G1 X117.642 Y-19.487 Z-3.175 F750.000
G1 X113.152 Y-14.997 Z-3.175 F750.000
G1 X117.642 Y-14.997 Z-3.175 F750.000
G1 X117.642 Y-14.997 Z-3.600 F250.000
G1 X113.152 Y-14.997 Z-3.600 F750.000
G1 X117.642 Y-19.487 Z-3.600 F750.000
G1 X117.642 Y-23.977 Z-3.600 F750.000
G1 X108.662 Y-14.997 Z-3.600 F750.000
G1 X104.172 Y-14.997 Z-3.600 F750.000
G1 X117.642 Y-28.467 Z-3.600 F750.000
G1 X117.642 Y-32.957 Z-3.600 F750.000
G1 X97.312 Y-12.627 Z-3.600 F750.000
G1 X92.822 Y-12.627 Z-3.600 F750.000
G1 X117.642 Y-37.447 Z-3.600 F750.000
G1 X117.642 Y-41.937 Z-3.600 F750.000
G1 X88.331 Y-12.627 Z-3.600 F750.000
G1 X83.841 Y-12.627 Z-3.600 F750.000
G1 X117.642 Y-46.428 Z-3.600 F750.000
G1 X117.642 Y-50.918 Z-3.600 F750.000
G1 X76.981 Y-10.257 Z-3.600 F750.000
G1 X72.491 Y-10.257 Z-3.600 F750.000
G1 X117.642 Y-55.408 Z-3.600 F750.000
G1 X117.642 Y-59.898 Z-3.600 F750.000
G1 X68.001 Y-10.257 Z-3.600 F750.000
G1 X64.817 Y-10.257 Z-3.600 F750.000
G2 X64.777 Y-11.392 Z-3.600 I-5.060 J-0.391 K0.000 F750.000
G1 X64.743 Y-11.489 Z-3.600 F750.000
G1 X117.642 Y-64.388 Z-3.600 F750.000
G3 X117.677 Y-65.239 Z-3.600 I4.066 J-0.261 K0.000 F750.000
G3 X118.436 Y-66.284 Z-3.600 I1.553 J0.330 K0.000 F750.000
G1 X121.044 Y-67.790 Z-3.600 F750.000
G1 X134.983 Y-81.729 Z-3.600 F750.000
G1 X133.339 Y-84.575 Z-3.600 F750.000
G1 X61.391 Y-12.627 Z-3.600 F750.000
G1 X56.901 Y-12.627 Z-3.600 F750.000
G1 X131.696 Y-87.422 Z-3.600 F750.000
G1 X130.052 Y-90.268 Z-3.600 F750.000
G1 X52.410 Y-12.627 Z-3.600 F750.000
G1 X47.920 Y-12.627 Z-3.600 F750.000
G1 X128.409 Y-93.115 Z-3.600 F750.000
G1 X126.765 Y-95.962 Z-3.600 F750.000
G1 X45.817 Y-15.014 Z-3.600 F750.000
G2 X45.777 Y-16.142 Z-3.600 I-5.029 J-0.388 K0.000 F750.000
G2 X44.230 Y-17.377 Z-3.600 I-1.548 J0.353 K0.000 F750.000
G1 X43.690 Y-17.377 Z-3.600 F750.000
G1 X124.130 Y-97.817 Z-3.600 F750.000
G1 X113.507 Y-91.684 Z-3.600 F750.000
G1 X39.200 Y-17.377 Z-3.600 F750.000
G1 X34.710 Y-17.377 Z-3.600 F750.000
G1 X106.815 Y-89.482 Z-3.600 F750.000
G1 X101.657 Y-88.814 Z-3.600 F750.000
G1 X30.220 Y-17.377 Z-3.600 F750.000
G1 X25.729 Y-17.377 Z-3.600 F750.000
G1 X96.499 Y-88.146 Z-3.600 F750.000
G1 X91.341 Y-87.478 Z-3.600 F750.000
G1 X21.239 Y-17.377 Z-3.600 F750.000
G1 X16.749 Y-17.377 Z-3.600 F750.000
G1 X86.183 Y-86.810 Z-3.600 F750.000
G1 X81.025 Y-86.143 Z-3.600 F750.000
G1 X12.259 Y-17.377 Z-3.600 F750.000
G1 X7.817 Y-17.377 Z-3.600 F750.000
G1 X7.817 Y-17.425 Z-3.600 F750.000
G1 X60.694 Y-70.302 Z-3.600 F750.000
G1 X56.204 Y-70.302 Z-3.600 F750.000
G1 X7.817 Y-21.915 Z-3.600 F750.000
G1 X7.817 Y-26.405 Z-3.600 F750.000
G1 X51.714 Y-70.302 Z-3.600 F750.000
G1 X47.224 Y-70.302 Z-3.600 F750.000
G1 X7.817 Y-30.895 Z-3.600 F750.000
G1 X7.817 Y-35.385 Z-3.600 F750.000
G1 X42.733 Y-70.302 Z-3.600 F750.000
G1 X38.243 Y-70.302 Z-3.600 F750.000
G1 X7.817 Y-39.876 Z-3.600 F750.000
G1 X7.817 Y-44.366 Z-3.600 F750.000
G1 X33.753 Y-70.302 Z-3.600 F750.000
G1 X29.263 Y-70.302 Z-3.600 F750.000
G1 X7.817 Y-48.856 Z-3.600 F750.000
G1 X7.817 Y-53.346 Z-3.600 F750.000
G1 X24.773 Y-70.302 Z-3.600 F750.000
G1 X20.283 Y-70.302 Z-3.600 F750.000
G1 X7.817 Y-57.836 Z-3.600 F750.000
G1 X7.817 Y-62.326 Z-3.600 F750.000
G1 X15.793 Y-70.302 Z-3.600 F750.000
G1 X11.303 Y-70.302 Z-3.600 F750.000
G1 X7.817 Y-70.302 Z-3.600 F750.000
G1 X7.817 Y-66.816 Z-3.600 F750.000
G1 X11.303 Y-70.302 Z-3.600 F750.000
G0 Z5.000
G0 X68.374 Y-77.982 Z5.000
G0 X68.374 Y-77.982 Z3.000
G1 X68.374 Y-77.982 Z-3.600 F250.000
G1 X73.611 Y-85.183 Z-3.600 F750.000
G1 X75.867 Y-85.475 Z-3.600 F750.000
G1 X68.374 Y-77.982 Z-3.600 F750.000
G0 Z5.000
G0 X131.667 Y-73.923 Z5.000
G0 X131.667 Y-73.923 Z3.000
G1 X131.667 Y-73.923 Z-3.600 F250.000
G1 X137.534 Y-77.310 Z-3.600 F750.000
G1 X136.626 Y-78.882 Z-3.600 F750.000
G1 X131.667 Y-73.923 Z-3.600 F750.000
G1 X121.044 Y-67.790 Z-3.600 F750.000
G1 X134.983 Y-81.729 Z-3.600 F750.000
G0 Z5.000
G0 Z5.000
(Finish operation: Pocket_Shape001)
(Begin operation: cleanup1)
(Path: cleanup1)
(Profile)
(Compensated Tool Path. Diameter: 3.175)
G0 Z5.000
G0 X120.642 Y-11.997
G0 Z3.000
G1 X120.642 Y-11.997 Z-1.500 F250.000
G1 X120.642 Y-63.177 Z-1.500 F750.000
G3 X121.436 Y-64.552 Z-1.500 I1.587 J-0.000 K0.000 F750.000
G1 X141.632 Y-76.212 Z-1.500 F750.000
G1 X126.401 Y-102.592 Z-1.500 F750.000
G1 X109.820 Y-93.019 Z-1.500 F750.000
G3 X109.230 Y-92.820 Z-1.500 I-0.794 J-1.375 K0.000 F750.000
G1 X71.945 Y-87.992 Z-1.500 F750.000
G1 X61.736 Y-73.955 Z-1.500 F750.000
G3 X60.452 Y-73.302 Z-1.500 I-1.284 J-0.934 K0.000 F750.000
G1 X4.817 Y-73.302 Z-1.500 F750.000
G1 X4.817 Y-14.377 Z-1.500 F750.000
G1 X41.230 Y-14.377 Z-1.500 F750.000
G3 X42.817 Y-12.789 Z-1.500 I0.000 J1.587 K0.000 F750.000
G1 X42.817 Y-9.627 Z-1.500 F750.000
G1 X60.230 Y-9.627 Z-1.500 F750.000
G3 X61.777 Y-8.392 Z-1.500 I-0.000 J1.587 K0.000 F750.000
G3 X61.817 Y-7.257 Z-1.500 I-5.020 J0.745 K0.000 F750.000
G1 X82.642 Y-7.257 Z-1.500 F750.000
G1 X82.642 Y-8.039 Z-1.500 F750.000
G3 X84.230 Y-9.627 Z-1.500 I1.587 J-0.000 K0.000 F750.000
G1 X103.642 Y-9.627 Z-1.500 F750.000
G1 X103.642 Y-10.409 Z-1.500 F750.000
G3 X105.230 Y-11.997 Z-1.500 I1.587 J-0.000 K0.000 F750.000
G1 X120.642 Y-11.997 Z-1.500 F750.000
G0 Z5.000
G0 Z5.000
(Finish operation: cleanup1)
(Begin operation: cleanup2)
(Path: cleanup2)
(Profile001)
(Compensated Tool Path. Diameter: 3.175)
G0 Z5.000
G0 X117.642 Y-14.997
G0 Z3.000
G1 X117.642 Y-14.997 Z-1.587 F250.000
G1 X117.642 Y-64.909 Z-1.587 F750.000
G3 X118.436 Y-66.284 Z-1.587 I1.587 J-0.000 K0.000 F750.000
G1 X137.534 Y-77.310 Z-1.587 F750.000
G1 X125.303 Y-98.494 Z-1.587 F750.000
G1 X110.800 Y-90.121 Z-1.587 F750.000
G3 X110.211 Y-89.922 Z-1.587 I-0.794 J-1.375 K0.000 F750.000
G1 X73.611 Y-85.183 Z-1.587 F750.000
G1 X63.264 Y-70.955 Z-1.587 F750.000
G3 X61.980 Y-70.302 Z-1.587 I-1.284 J-0.934 K0.000 F750.000
G1 X7.817 Y-70.302 Z-1.587 F750.000
G1 X7.817 Y-17.377 Z-1.587 F750.000
G1 X44.230 Y-17.377 Z-1.587 F750.000
G3 X45.817 Y-15.789 Z-1.587 I0.000 J1.587 K0.000 F750.000
G1 X45.817 Y-12.627 Z-1.587 F750.000
G1 X63.230 Y-12.627 Z-1.587 F750.000
G3 X64.777 Y-11.392 Z-1.587 I0.000 J1.587 K0.000 F750.000
G3 X64.817 Y-10.257 Z-1.587 I-5.020 J0.745 K0.000 F750.000
G1 X79.642 Y-10.257 Z-1.587 F750.000
G1 X79.642 Y-11.039 Z-1.587 F750.000
G3 X81.230 Y-12.627 Z-1.587 I1.587 J-0.000 K0.000 F750.000
G1 X99.642 Y-12.627 Z-1.587 F750.000
G1 X99.642 Y-13.409 Z-1.587 F750.000
G3 X101.230 Y-14.997 Z-1.587 I1.587 J-0.000 K0.000 F750.000
G1 X117.642 Y-14.997 Z-1.587 F750.000
G1 X117.642 Y-14.997 Z-3.175 F250.000
G1 X117.642 Y-64.909 Z-3.175 F750.000
G3 X118.436 Y-66.284 Z-3.175 I1.587 J-0.000 K0.000 F750.000
G1 X137.534 Y-77.310 Z-3.175 F750.000
G1 X125.303 Y-98.494 Z-3.175 F750.000
G1 X110.800 Y-90.121 Z-3.175 F750.000
G3 X110.211 Y-89.922 Z-3.175 I-0.794 J-1.375 K0.000 F750.000
G1 X73.611 Y-85.183 Z-3.175 F750.000
G1 X63.264 Y-70.955 Z-3.175 F750.000
G3 X61.980 Y-70.302 Z-3.175 I-1.284 J-0.934 K0.000 F750.000
G1 X7.817 Y-70.302 Z-3.175 F750.000
G1 X7.817 Y-17.377 Z-3.175 F750.000
G1 X44.230 Y-17.377 Z-3.175 F750.000
G3 X45.817 Y-15.789 Z-3.175 I0.000 J1.587 K0.000 F750.000
G1 X45.817 Y-12.627 Z-3.175 F750.000
G1 X63.230 Y-12.627 Z-3.175 F750.000
G3 X64.777 Y-11.392 Z-3.175 I0.000 J1.587 K0.000 F750.000
G3 X64.817 Y-10.257 Z-3.175 I-5.020 J0.745 K0.000 F750.000
G1 X79.642 Y-10.257 Z-3.175 F750.000
G1 X79.642 Y-11.039 Z-3.175 F750.000
G3 X81.230 Y-12.627 Z-3.175 I1.587 J-0.000 K0.000 F750.000
G1 X99.642 Y-12.627 Z-3.175 F750.000
G1 X99.642 Y-13.409 Z-3.175 F750.000
G3 X101.230 Y-14.997 Z-3.175 I1.587 J-0.000 K0.000 F750.000
G1 X117.642 Y-14.997 Z-3.175 F750.000
G1 X117.642 Y-14.997 Z-3.600 F250.000
G1 X117.642 Y-64.909 Z-3.600 F750.000
G3 X118.436 Y-66.284 Z-3.600 I1.587 J-0.000 K0.000 F750.000
G1 X137.534 Y-77.310 Z-3.600 F750.000
G1 X125.303 Y-98.494 Z-3.600 F750.000
G1 X110.800 Y-90.121 Z-3.600 F750.000
G3 X110.211 Y-89.922 Z-3.600 I-0.794 J-1.375 K0.000 F750.000
G1 X73.611 Y-85.183 Z-3.600 F750.000
G1 X63.264 Y-70.955 Z-3.600 F750.000
G3 X61.980 Y-70.302 Z-3.600 I-1.284 J-0.934 K0.000 F750.000
G1 X7.817 Y-70.302 Z-3.600 F750.000
G1 X7.817 Y-17.377 Z-3.600 F750.000
G1 X44.230 Y-17.377 Z-3.600 F750.000
G3 X45.817 Y-15.789 Z-3.600 I0.000 J1.587 K0.000 F750.000
G1 X45.817 Y-12.627 Z-3.600 F750.000
G1 X63.230 Y-12.627 Z-3.600 F750.000
G3 X64.777 Y-11.392 Z-3.600 I0.000 J1.587 K0.000 F750.000
G3 X64.817 Y-10.257 Z-3.600 I-5.020 J0.745 K0.000 F750.000
G1 X79.642 Y-10.257 Z-3.600 F750.000
G1 X79.642 Y-11.039 Z-3.600 F750.000
G3 X81.230 Y-12.627 Z-3.600 I1.587 J-0.000 K0.000 F750.000
G1 X99.642 Y-12.627 Z-3.600 F750.000
G1 X99.642 Y-13.409 Z-3.600 F750.000
G3 X101.230 Y-14.997 Z-3.600 I1.587 J-0.000 K0.000 F750.000
G1 X117.642 Y-14.997 Z-3.600 F750.000
G0 Z5.000
G0 Z5.000
(Finish operation: cleanup2)
(Begin operation: DressupTag)
(Path: DressupTag)
G0 Z5.000
G0 X126.766 Y-7.009 Z5.000
G0 X126.766 Y-7.009 Z3.000
G1 X126.766 Y-7.009 Z-1.588 F250.000
G2 X126.817 Y-7.409 Z-1.587 I-1.536 J-0.401 K0.000 F750.000
G1 X126.817 Y-60.529 Z-1.587 F750.000
G1 X148.692 Y-73.158 Z-1.587 F750.000
G2 X149.273 Y-75.327 Z-1.587 I-0.794 J-1.375 K0.000 F750.000
G1 X129.455 Y-109.653 Z-1.587 F750.000
G2 X128.660 Y-110.337 Z-1.587 I-1.375 J0.794 K0.000 F750.000
G2 X127.286 Y-110.234 Z-1.587 I-0.580 J1.478 K0.000 F750.000
G1 X107.527 Y-98.826 Z-1.587 F750.000
G1 X69.193 Y-93.862 Z-1.587 F750.000
G2 X68.113 Y-93.222 Z-1.587 I0.204 J1.574 K0.000 F750.000
G1 X58.116 Y-79.477 Z-1.587 F750.000
G1 X0.230 Y-79.477 Z-1.587 F750.000
G2 X-1.358 Y-77.889 Z-1.587 I-0.000 J1.587 K0.000 F750.000
G1 X-1.358 Y-9.789 Z-1.587 F750.000
G2 X0.230 Y-8.202 Z-1.587 I1.587 J0.000 K0.000 F750.000
G1 X36.642 Y-8.202 Z-1.587 F750.000
G1 X36.642 Y-5.039 Z-1.587 F750.000
G2 X38.230 Y-3.452 Z-1.587 I1.587 J0.000 K0.000 F750.000
G1 X55.642 Y-3.452 Z-1.587 F750.000
G1 X55.642 Y-2.669 Z-1.587 F750.000
G2 X57.230 Y-1.082 Z-1.587 I1.587 J0.000 K0.000 F750.000
G1 X87.230 Y-1.082 Z-1.587 F750.000
G2 X88.777 Y-2.316 Z-1.587 I0.000 J-1.587 K0.000 F750.000
G2 X88.817 Y-3.452 Z-1.587 I-5.020 J-0.745 K0.000 F750.000
G1 X109.230 Y-3.452 Z-1.587 F750.000
G2 X110.777 Y-4.686 Z-1.587 I0.000 J-1.587 K0.000 F750.000
G2 X110.817 Y-5.822 Z-1.587 I-5.020 J-0.745 K0.000 F750.000
G1 X125.230 Y-5.822 Z-1.587 F750.000
G2 X126.766 Y-7.009 Z-1.587 I0.000 J-1.587 K0.000 F750.000
G1 X126.766 Y-7.009 Z-3.175 F250.000
G2 X126.817 Y-7.409 Z-3.175 I-1.536 J-0.401 K0.000 F750.000
G1 X126.817 Y-31.726 Z-3.175 F750.000
G1 X126.817 Y-31.901 Z-3.000 F500.000
G1 X126.817 Y-36.036 Z-3.000 F750.000
G1 X126.817 Y-36.211 Z-3.175 F500.000
G1 X126.817 Y-60.529 Z-3.175 F750.000
G1 X148.692 Y-73.158 Z-3.175 F750.000
G2 X149.273 Y-75.327 Z-3.175 I-0.794 J-1.375 K0.000 F750.000
G1 X140.485 Y-90.548 Z-3.175 F750.000
G1 X140.398 Y-90.699 Z-3.000 F500.000
G1 X138.330 Y-94.280 Z-3.000 F750.000
G1 X138.243 Y-94.432 Z-3.175 F500.000
G1 X129.455 Y-109.653 Z-3.175 F750.000
G2 X128.660 Y-110.337 Z-3.175 I-1.375 J0.794 K0.000 F750.000
G2 X127.286 Y-110.234 Z-3.175 I-0.580 J1.478 K0.000 F750.000
G1 X107.527 Y-98.826 Z-3.175 F750.000
G1 X69.193 Y-93.862 Z-3.175 F750.000
G2 X68.113 Y-93.222 Z-3.175 I0.204 J1.574 K0.000 F750.000
G1 X58.116 Y-79.477 Z-3.175 F750.000
G1 X31.415 Y-79.477 Z-3.175 F750.000
G1 X31.240 Y-79.477 Z-3.000 F500.000
G1 X27.105 Y-79.477 Z-3.000 F750.000
G1 X26.930 Y-79.477 Z-3.175 F500.000
G1 X0.230 Y-79.477 Z-3.175 F750.000
G2 X-1.358 Y-77.889 Z-3.175 I-0.000 J1.587 K0.000 F750.000
G1 X-1.358 Y-46.082 Z-3.175 F750.000
G1 X-1.358 Y-45.907 Z-3.000 F500.000
G1 X-1.358 Y-41.772 Z-3.000 F750.000
G1 X-1.358 Y-41.597 Z-3.175 F500.000
G1 X-1.358 Y-9.789 Z-3.175 F750.000
G2 X0.230 Y-8.202 Z-3.175 I1.587 J0.000 K0.000 F750.000
G1 X36.642 Y-8.202 Z-3.175 F750.000
G1 X36.642 Y-5.039 Z-3.175 F750.000
G2 X38.230 Y-3.452 Z-3.175 I1.587 J0.000 K0.000 F750.000
G1 X44.693 Y-3.452 Z-3.175 F750.000
G1 X44.868 Y-3.452 Z-3.000 F500.000
G1 X49.003 Y-3.452 Z-3.000 F750.000
G1 X49.178 Y-3.452 Z-3.175 F500.000
G1 X55.642 Y-3.452 Z-3.175 F750.000
G1 X55.642 Y-2.669 Z-3.175 F750.000
G2 X57.230 Y-1.082 Z-3.175 I1.587 J0.000 K0.000 F750.000
G1 X87.230 Y-1.082 Z-3.175 F750.000
G2 X88.777 Y-2.316 Z-3.175 I0.000 J-1.587 K0.000 F750.000
G2 X88.817 Y-3.452 Z-3.175 I-5.020 J-0.745 K0.000 F750.000
G1 X109.230 Y-3.452 Z-3.175 F750.000
G2 X110.777 Y-4.686 Z-3.175 I0.000 J-1.587 K0.000 F750.000
G2 X110.817 Y-5.822 Z-3.175 I-5.020 J-0.745 K0.000 F750.000
G1 X125.230 Y-5.822 Z-3.175 F750.000
G2 X126.766 Y-7.009 Z-3.175 I0.000 J-1.587 K0.000 F750.000
G1 X126.766 Y-7.009 Z-4.762 F250.000
G2 X126.817 Y-7.409 Z-4.762 I-1.536 J-0.401 K0.000 F750.000
G1 X126.817 Y-30.139 Z-4.762 F750.000
G1 X126.817 Y-31.901 Z-3.000 F500.000
G1 X126.817 Y-36.036 Z-3.000 F750.000
G1 X126.817 Y-37.799 Z-4.763 F500.000
G1 X126.817 Y-60.529 Z-4.762 F750.000
G1 X148.692 Y-73.158 Z-4.762 F750.000
G2 X149.273 Y-75.327 Z-4.762 I-0.794 J-1.375 K0.000 F750.000
G1 X141.279 Y-89.173 Z-4.762 F750.000
G1 X140.398 Y-90.699 Z-3.000 F500.000
G1 X138.330 Y-94.280 Z-3.000 F750.000
G1 X137.449 Y-95.806 Z-4.762 F500.000
G1 X129.455 Y-109.653 Z-4.762 F750.000
G2 X128.660 Y-110.337 Z-4.762 I-1.375 J0.794 K0.000 F750.000
G2 X127.286 Y-110.234 Z-4.762 I-0.580 J1.478 K0.000 F750.000
G1 X107.527 Y-98.826 Z-4.762 F750.000
G1 X69.193 Y-93.862 Z-4.762 F750.000
G2 X68.113 Y-93.222 Z-4.762 I0.204 J1.574 K0.000 F750.000
G1 X58.116 Y-79.477 Z-4.762 F750.000
G1 X33.003 Y-79.477 Z-4.762 F750.000
G1 X31.240 Y-79.477 Z-3.000 F500.000
G1 X27.105 Y-79.477 Z-3.000 F750.000
G1 X25.343 Y-79.477 Z-4.762 F500.000
G1 X0.230 Y-79.477 Z-4.762 F750.000
G2 X-1.358 Y-77.889 Z-4.762 I-0.000 J1.587 K0.000 F750.000
G1 X-1.358 Y-47.669 Z-4.762 F750.000
G1 X-1.358 Y-45.907 Z-3.000 F500.000
G1 X-1.358 Y-41.772 Z-3.000 F750.000
G1 X-1.358 Y-40.009 Z-4.762 F500.000
G1 X-1.358 Y-9.789 Z-4.762 F750.000
G2 X0.230 Y-8.202 Z-4.762 I1.587 J0.000 K0.000 F750.000
G1 X36.642 Y-8.202 Z-4.762 F750.000
G1 X36.642 Y-5.039 Z-4.762 F750.000
G2 X38.230 Y-3.452 Z-4.762 I1.587 J0.000 K0.000 F750.000
G1 X43.106 Y-3.452 Z-4.762 F750.000
G1 X44.868 Y-3.452 Z-3.000 F500.000
G1 X49.003 Y-3.452 Z-3.000 F750.000
G1 X50.766 Y-3.452 Z-4.763 F500.000
G1 X55.642 Y-3.452 Z-4.762 F750.000
G1 X55.642 Y-2.669 Z-4.762 F750.000
G2 X57.230 Y-1.082 Z-4.762 I1.587 J0.000 K0.000 F750.000
G1 X87.230 Y-1.082 Z-4.762 F750.000
G2 X88.777 Y-2.316 Z-4.762 I0.000 J-1.587 K0.000 F750.000
G2 X88.817 Y-3.452 Z-4.762 I-5.020 J-0.745 K0.000 F750.000
G1 X109.230 Y-3.452 Z-4.762 F750.000
G2 X110.777 Y-4.686 Z-4.762 I0.000 J-1.587 K0.000 F750.000
G2 X110.817 Y-5.822 Z-4.762 I-5.020 J-0.745 K0.000 F750.000
G1 X125.230 Y-5.822 Z-4.762 F750.000
G2 X126.766 Y-7.009 Z-4.762 I0.000 J-1.587 K0.000 F750.000
G1 X126.766 Y-7.009 Z-5.000 F250.000
G2 X126.817 Y-7.409 Z-5.000 I-1.536 J-0.401 K0.000 F750.000
G1 X126.817 Y-29.901 Z-5.000 F750.000
G1 X126.817 Y-31.901 Z-3.000 F500.000
G1 X126.817 Y-36.036 Z-3.000 F750.000
G1 X126.817 Y-38.036 Z-5.000 F500.000
G1 X126.817 Y-60.529 Z-5.000 F750.000
G1 X148.692 Y-73.158 Z-5.000 F750.000
G2 X149.273 Y-75.327 Z-5.000 I-0.794 J-1.375 K0.000 F750.000
G1 X141.398 Y-88.967 Z-5.000 F750.000
G1 X140.398 Y-90.699 Z-3.000 F500.000
G1 X138.330 Y-94.280 Z-3.000 F750.000
G1 X137.330 Y-96.012 Z-5.000 F500.000
G1 X129.455 Y-109.653 Z-5.000 F750.000
G2 X128.660 Y-110.337 Z-5.000 I-1.375 J0.794 K0.000 F750.000
G2 X127.286 Y-110.234 Z-5.000 I-0.580 J1.478 K0.000 F750.000
G1 X107.527 Y-98.826 Z-5.000 F750.000
G1 X69.193 Y-93.862 Z-5.000 F750.000
G2 X68.113 Y-93.222 Z-5.000 I0.204 J1.574 K0.000 F750.000
G1 X58.116 Y-79.477 Z-5.000 F750.000
G1 X33.240 Y-79.477 Z-5.000 F750.000
G1 X31.240 Y-79.477 Z-3.000 F500.000
G1 X27.105 Y-79.477 Z-3.000 F750.000
G1 X25.105 Y-79.477 Z-5.000 F500.000
G1 X0.230 Y-79.477 Z-5.000 F750.000
G2 X-1.358 Y-77.889 Z-5.000 I-0.000 J1.587 K0.000 F750.000
G1 X-1.358 Y-47.907 Z-5.000 F750.000
G1 X-1.358 Y-45.907 Z-3.000 F500.000
G1 X-1.358 Y-41.772 Z-3.000 F750.000
G1 X-1.358 Y-39.772 Z-5.000 F500.000
G1 X-1.358 Y-9.789 Z-5.000 F750.000
G2 X0.230 Y-8.202 Z-5.000 I1.587 J0.000 K0.000 F750.000
G1 X36.642 Y-8.202 Z-5.000 F750.000
G1 X36.642 Y-5.039 Z-5.000 F750.000
G2 X38.230 Y-3.452 Z-5.000 I1.587 J0.000 K0.000 F750.000
G1 X42.868 Y-3.452 Z-5.000 F750.000
G1 X44.868 Y-3.452 Z-3.000 F500.000
G1 X49.003 Y-3.452 Z-3.000 F750.000
G1 X51.003 Y-3.452 Z-5.000 F500.000
G1 X55.642 Y-3.452 Z-5.000 F750.000
G1 X55.642 Y-2.669 Z-5.000 F750.000
G2 X57.230 Y-1.082 Z-5.000 I1.587 J0.000 K0.000 F750.000
G1 X87.230 Y-1.082 Z-5.000 F750.000
G2 X88.777 Y-2.316 Z-5.000 I0.000 J-1.587 K0.000 F750.000
G2 X88.817 Y-3.452 Z-5.000 I-5.020 J-0.745 K0.000 F750.000
G1 X109.230 Y-3.452 Z-5.000 F750.000
G2 X110.777 Y-4.686 Z-5.000 I0.000 J-1.587 K0.000 F750.000
G2 X110.817 Y-5.822 Z-5.000 I-5.020 J-0.745 K0.000 F750.000
G1 X125.230 Y-5.822 Z-5.000 F750.000
G2 X126.766 Y-7.009 Z-5.000 I0.000 J-1.587 K0.000 F750.000
G0 X126.766 Y-7.009 Z5.000
(Finish operation: DressupTag)
(Begin postamble)
M5
G17 G90
M2
