(Exported by FreeCAD)
(Post Processor: grbl_post)
(Output Time:2022-06-05 14:10:31.976499)
(Begin preamble)
G17 G90
G21
(Begin operation: Fixture)
(Path: Fixture)
G54
(Finish operation: Fixture)
(Begin operation: 3mm_Endmill_3022)
(Path: 3mm_Endmill_3022)
(3mm_Endmill_3022)
(Begin toolchange)
( M6 T4.0 )
M3 S8000.0
(Finish operation: 3mm_Endmill_3022)
(Begin operation: Pocket_Shape)
(Path: Pocket_Shape)
(Pocket_Shape)
G0 Z10.000
G0 X36.063 Y-31.020
G0 Z8.000
G1 X36.063 Y-31.020 Z4.000 F250.000
G3 X36.407 Y-26.186 Z4.000 I-2.433 J2.603 K0.000 F750.000
G1 X31.480 Y-31.113 Z4.000 F750.000
G2 X30.293 Y-27.809 Z4.000 I2.254 J2.674 K0.000 F750.000
G2 X33.198 Y-24.905 Z4.000 I3.480 J-0.575 K0.000 F750.000
G1 X30.293 Y-27.809 Z4.000 F750.000
G1 X30.293 Y-27.809 Z3.000 F250.000
G1 X33.198 Y-24.905 Z3.000 F750.000
G3 X30.293 Y-27.809 Z3.000 I0.575 J-3.480 K0.000 F750.000
G3 X31.480 Y-31.113 Z3.000 I3.441 J-0.629 K0.000 F750.000
G1 X36.407 Y-26.186 Z3.000 F750.000
G2 X36.063 Y-31.020 Z3.000 I-2.778 J-2.232 K0.000 F750.000
G0 Z10.000
G0 Z10.000
G0 X36.063 Y-31.020
G0 X42.026 Y-27.661
G0 X42.026 Y-27.661 Z8.000
G1 X42.026 Y-27.661 Z4.000 F250.000
G1 X44.562 Y-25.124 Z4.000 F750.000
G1 X44.562 Y-24.863 Z4.000 F750.000
G2 X42.858 Y-23.276 Z4.000 I-0.110 J1.591 K0.000 F750.000
G1 X42.858 Y-22.338 Z4.000 F750.000
G1 X40.953 Y-24.243 Z4.000 F750.000
G0 Z10.000
G0 X40.953 Y-15.262 Z10.000
G0 X40.953 Y-15.262 Z8.000
G1 X40.953 Y-15.262 Z4.000 F250.000
G1 X35.815 Y-20.401 Z4.000 F750.000
G3 X31.213 Y-20.513 Z4.000 I-2.087 J-8.817 K0.000 F750.000
G1 X39.542 Y-12.184 Z4.000 F750.000
G0 Z10.000
G0 X45.469 Y-10.747 Z10.000
G0 X45.469 Y-10.747 Z8.000
G1 X45.469 Y-10.747 Z4.000 F250.000
G1 X45.289 Y-10.747 Z4.000 F750.000
G2 X45.359 Y-10.857 Z4.000 I-1.010 J-0.728 K0.000 F750.000
G1 X45.469 Y-10.747 Z4.000 F750.000
G1 X49.959 Y-10.747 Z4.000 F750.000
G1 X38.838 Y-21.868 Z4.000 F750.000
G2 X40.953 Y-24.243 Z4.000 I-4.992 J-6.575 K0.000 F750.000
G1 X42.858 Y-22.338 Z4.000 F750.000
G1 X42.858 Y-21.746 Z4.000 F750.000
G2 X44.562 Y-20.159 Z4.000 I1.595 J-0.004 K0.000 F750.000
G2 X44.582 Y-19.353 Z4.000 I13.412 J0.076 K0.000 F750.000
G2 X45.696 Y-16.650 Z4.000 I3.743 J0.038 K0.000 F750.000
G2 X49.569 Y-15.627 Z4.000 I3.041 J-3.669 K0.000 F750.000
G1 X54.449 Y-10.747 Z4.000 F750.000
G1 X58.939 Y-10.747 Z4.000 F750.000
G1 X52.291 Y-17.396 Z4.000 F750.000
G1 X52.301 Y-17.493 Z4.000 F750.000
G1 X52.301 Y-19.078 Z4.000 F750.000
G2 X51.478 Y-20.468 Z4.000 I-1.583 J-0.002 K0.000 F750.000
G2 X52.134 Y-22.042 Z4.000 I-0.972 J-1.329 K0.000 F750.000
G1 X71.675 Y-2.502 Z4.000 F750.000
G2 X75.393 Y-3.273 Z4.000 I-0.187 J-10.251 K0.000 F750.000
G1 X57.795 Y-20.872 Z4.000 F750.000
G3 X56.481 Y-20.159 Z4.000 I-1.293 J-0.816 K0.000 F750.000
G1 X54.793 Y-20.159 Z4.000 F750.000
G3 X53.205 Y-21.746 Z4.000 I0.000 J-1.588 K0.000 F750.000
G1 X53.205 Y-25.461 Z4.000 F750.000
G1 X49.418 Y-29.249 Z4.000 F750.000
G1 X49.412 Y-33.745 Z4.000 F750.000
G1 X53.294 Y-29.863 Z4.000 F750.000
G3 X54.291 Y-33.356 Z4.000 I8.262 J0.469 K0.000 F750.000
G1 X48.320 Y-39.326 Z4.000 F750.000
G1 X52.811 Y-39.326 Z4.000 F750.000
G1 X56.526 Y-35.611 Z4.000 F750.000
G3 X60.058 Y-36.569 Z4.000 I3.596 J6.274 K0.000 F750.000
G1 X57.301 Y-39.326 Z4.000 F750.000
G1 X59.341 Y-39.326 Z4.000 F750.000
G2 X60.811 Y-40.306 Z4.000 I-0.003 J-1.597 K0.000 F750.000
G1 X75.828 Y-25.289 Z4.000 F750.000
G3 X76.704 Y-26.561 Z4.000 I1.865 J0.347 K0.000 F750.000
G2 X78.100 Y-27.507 Z4.000 I-29.495 J-45.051 K0.000 F750.000
G1 X62.432 Y-43.176 Z4.000 F750.000
G3 X64.698 Y-45.400 Z4.000 I8.025 J5.912 K0.000 F750.000
G1 X80.329 Y-29.768 Z4.000 F750.000
G2 X81.891 Y-32.696 Z4.000 I-7.468 J-5.865 K0.000 F750.000
G1 X67.640 Y-46.948 Z4.000 F750.000
G3 X71.500 Y-47.578 Z4.000 I3.695 J10.499 K0.000 F750.000
G1 X82.545 Y-36.533 Z4.000 F750.000
G2 X79.416 Y-44.152 Z4.000 I-10.984 J0.059 K0.000 F750.000
G0 Z10.000
G0 X67.730 Y-28.897 Z10.000
G0 X67.730 Y-28.897 Z8.000
G1 X67.730 Y-28.897 Z4.000 F250.000
G1 X82.450 Y-14.177 Z4.000 F750.000
G3 X82.361 Y-11.453 Z4.000 I-19.141 J0.741 K0.000 F750.000
G3 X81.988 Y-10.149 Z4.000 I-8.504 J-1.730 K0.000 F750.000
G1 X67.754 Y-24.383 Z4.000 F750.000
G1 X67.754 Y-21.746 Z4.000 F750.000
G3 X67.147 Y-20.499 Z4.000 I-1.577 J0.004 K0.000 F750.000
G1 X80.430 Y-7.216 Z4.000 F750.000
G0 Z10.000
G0 X75.393 Y-3.273 Z10.000
G0 X75.393 Y-3.273 Z8.000
G1 X75.393 Y-3.273 Z4.000 F250.000
G1 X57.795 Y-20.872 Z4.000 F750.000
G2 X58.069 Y-21.746 Z4.000 I-1.113 J-0.829 K0.000 F750.000
G1 X58.069 Y-25.088 Z4.000 F750.000
G1 X78.222 Y-4.935 Z4.000 F750.000
G2 X80.430 Y-7.216 Z4.000 I-7.962 J-9.915 K0.000 F750.000
G1 X67.147 Y-20.499 Z4.000 F750.000
G3 X66.167 Y-20.159 Z4.000 I-0.977 J-1.231 K0.000 F750.000
G1 X64.462 Y-20.159 Z4.000 F750.000
G3 X62.875 Y-21.746 Z4.000 I0.000 J-1.588 K0.000 F750.000
G1 X62.875 Y-24.772 Z4.000 F750.000
G1 X58.123 Y-29.524 Z4.000 F750.000
G3 X58.245 Y-30.437 Z4.000 I5.495 J0.269 K0.000 F750.000
G3 X60.267 Y-31.870 Z4.000 I1.978 J0.650 K0.000 F750.000
G1 X62.839 Y-29.298 Z4.000 F750.000
G2 X62.736 Y-30.395 Z4.000 I-7.817 J0.180 K0.000 F750.000
G2 X61.941 Y-31.501 Z4.000 I-1.795 J0.452 K0.000 F750.000
G2 X60.267 Y-31.870 Z4.000 I-1.367 J2.226 K0.000 F750.000
G0 Z10.000
G0 X46.569 Y-36.587 Z10.000
G0 X46.569 Y-36.587 Z8.000
G1 X46.569 Y-36.587 Z4.000 F250.000
G1 X43.830 Y-39.326 Z4.000 F750.000
G1 X39.340 Y-39.326 Z4.000 F750.000
G1 X44.562 Y-34.104 Z4.000 F750.000
G1 X44.562 Y-29.614 Z4.000 F750.000
G1 X34.850 Y-39.326 Z4.000 F750.000
G1 X30.360 Y-39.326 Z4.000 F750.000
G1 X33.125 Y-36.561 Z4.000 F750.000
G2 X29.601 Y-35.596 Z4.000 I0.321 J8.084 K0.000 F750.000
G1 X25.834 Y-39.362 Z4.000 F750.000
G3 X24.743 Y-40.197 Z4.000 I0.317 J-1.544 K0.000 F750.000
G1 X24.480 Y-40.716 Z4.000 F750.000
G1 X18.601 Y-46.595 Z4.000 F750.000
G2 X16.782 Y-47.292 Z4.000 I-5.188 J10.823 K0.000 F750.000
G2 X13.141 Y-47.565 Z4.000 I-2.606 J10.350 K0.000 F750.000
G1 X27.172 Y-33.534 Z4.000 F750.000
G2 X25.641 Y-30.575 Z4.000 I5.985 J4.972 K0.000 F750.000
G1 X21.203 Y-35.013 Z4.000 F750.000
G1 X21.205 Y-35.000 Z4.000 F750.000
G1 X21.205 Y-30.521 Z4.000 F750.000
G1 X25.706 Y-26.020 Z4.000 F750.000
G2 X31.213 Y-20.513 Z4.000 I7.909 J-2.402 K0.000 F750.000
G1 X39.542 Y-12.184 Z4.000 F750.000
G2 X40.101 Y-10.747 Z4.000 I3.073 J-0.368 K0.000 F750.000
G1 X36.489 Y-10.747 Z4.000 F750.000
G1 X21.205 Y-26.031 Z4.000 F750.000
G1 X21.205 Y-21.541 Z4.000 F750.000
G1 X21.205 Y-20.785 Z4.000 F750.000
G1 X21.960 Y-20.785 Z4.000 F750.000
G1 X21.205 Y-21.541 Z4.000 F750.000
G0 Z10.000
G0 X25.119 Y-17.627 Z10.000
G0 X25.119 Y-17.627 Z8.000
G1 X25.119 Y-17.627 Z4.000 F250.000
G1 X31.998 Y-10.747 Z4.000 F750.000
G1 X27.508 Y-10.747 Z4.000 F750.000
G1 X22.175 Y-16.081 Z4.000 F750.000
G1 X17.684 Y-16.081 Z4.000 F750.000
G1 X24.451 Y-9.314 Z4.000 F750.000
G0 Z10.000
G0 X2.968 Y-12.836 Z10.000
G0 X2.968 Y-12.836 Z8.000
G1 X2.968 Y-12.836 Z4.000 F250.000
G2 X3.585 Y-9.882 Z4.000 I8.341 J-0.200 K0.000 F750.000
G2 X13.254 Y-2.551 Z4.000 I10.549 J-3.870 K0.000 F750.000
G1 X2.968 Y-12.836 Z4.000 F750.000
G3 X2.924 Y-13.784 Z4.000 I11.202 J-0.998 K0.000 F750.000
G3 X3.352 Y-16.942 Z4.000 I8.758 J-0.421 K0.000 F750.000
G1 X17.295 Y-3.000 Z4.000 F750.000
G2 X20.353 Y-4.432 Z4.000 I-2.572 J-9.479 K0.000 F750.000
G1 X4.840 Y-19.945 Z4.000 F750.000
G3 X6.946 Y-22.329 Z4.000 I9.282 J6.080 K0.000 F750.000
G1 X22.652 Y-6.623 Z4.000 F750.000
G2 X24.451 Y-9.314 Z4.000 I-11.153 J-9.398 K0.000 F750.000
G1 X17.684 Y-16.081 Z4.000 F750.000
G1 X13.898 Y-16.081 Z4.000 F750.000
G3 X12.311 Y-17.668 Z4.000 I0.000 J-1.588 K0.000 F750.000
G1 X12.311 Y-19.198 Z4.000 F750.000
G3 X13.165 Y-20.600 Z4.000 I1.573 J-0.003 K0.000 F750.000
G1 X9.406 Y-24.359 Z4.000 F750.000
G2 X9.027 Y-26.298 Z4.000 I-1.440 J-0.725 K0.000 F750.000
G2 X7.501 Y-27.378 Z4.000 I-11.066 J14.025 K0.000 F750.000
G3 X5.944 Y-28.817 Z4.000 I8.543 J-10.803 K0.000 F750.000
G3 X2.943 Y-35.312 Z4.000 I7.236 J-7.284 K0.000 F750.000
G1 X16.237 Y-22.018 Z4.000 F750.000
G1 X16.237 Y-26.508 Z4.000 F750.000
G1 X3.329 Y-39.416 Z4.000 F750.000
G3 X4.728 Y-42.508 Z4.000 I10.333 J2.810 K0.000 F750.000
G1 X16.237 Y-30.998 Z4.000 F750.000
G1 X16.237 Y-35.000 Z4.000 F750.000
G3 X16.302 Y-35.424 Z4.000 I0.961 J-0.071 K0.000 F750.000
G1 X6.816 Y-44.910 Z4.000 F750.000
G3 X9.569 Y-46.646 Z4.000 I6.905 J7.897 K0.000 F750.000
G1 X19.630 Y-36.586 Z4.000 F750.000
G0 Z10.000
G0 X24.120 Y-41.076 Z10.000
G0 X24.120 Y-41.076 Z8.000
G1 X24.120 Y-41.076 Z4.000 F250.000
G1 X24.480 Y-40.716 Z4.000 F750.000
G2 X23.796 Y-41.992 Z4.000 I-18.916 J9.321 K0.000 F750.000
G2 X18.601 Y-46.595 Z4.000 I-9.437 J5.417 K0.000 F750.000
G1 X24.120 Y-41.076 Z4.000 F750.000
G0 Z10.000
G0 X62.088 Y-7.599 Z10.000
G0 X62.088 Y-7.599 Z8.000
G1 X62.088 Y-7.599 Z4.000 F250.000
G1 X62.522 Y-6.948 Z4.000 F750.000
G2 X65.471 Y-4.215 Z4.000 I7.646 J-5.295 K0.000 F750.000
G1 X62.088 Y-7.599 Z4.000 F750.000
G1 X62.088 Y-7.599 Z3.000 F250.000
G1 X62.522 Y-6.948 Z3.000 F750.000
G2 X65.471 Y-4.215 Z3.000 I7.646 J-5.295 K0.000 F750.000
G1 X62.088 Y-7.599 Z3.000 F750.000
G0 Z10.000
G0 X75.393 Y-3.273 Z10.000
G0 X75.393 Y-3.273 Z8.000
G1 X75.393 Y-3.273 Z3.000 F250.000
G1 X57.795 Y-20.872 Z3.000 F750.000
G2 X58.069 Y-21.746 Z3.000 I-1.113 J-0.829 K0.000 F750.000
G1 X58.069 Y-25.088 Z3.000 F750.000
G1 X78.222 Y-4.935 Z3.000 F750.000
G2 X80.430 Y-7.216 Z3.000 I-7.962 J-9.915 K0.000 F750.000
G1 X67.147 Y-20.499 Z3.000 F750.000
G3 X66.167 Y-20.159 Z3.000 I-0.977 J-1.231 K0.000 F750.000
G1 X64.462 Y-20.159 Z3.000 F750.000
G3 X62.875 Y-21.746 Z3.000 I0.000 J-1.588 K0.000 F750.000
G1 X62.875 Y-24.772 Z3.000 F750.000
G1 X58.123 Y-29.524 Z3.000 F750.000
G3 X58.245 Y-30.437 Z3.000 I5.495 J0.269 K0.000 F750.000
G3 X60.267 Y-31.870 Z3.000 I1.978 J0.650 K0.000 F750.000
G1 X62.839 Y-29.298 Z3.000 F750.000
G2 X62.736 Y-30.395 Z3.000 I-7.817 J0.180 K0.000 F750.000
G2 X61.941 Y-31.501 Z3.000 I-1.795 J0.452 K0.000 F750.000
G2 X60.267 Y-31.870 Z3.000 I-1.367 J2.226 K0.000 F750.000
G0 Z10.000
G0 X67.730 Y-28.897 Z10.000
G0 X67.730 Y-28.897 Z8.000
G1 X67.730 Y-28.897 Z3.000 F250.000
G1 X82.450 Y-14.177 Z3.000 F750.000
G3 X82.361 Y-11.453 Z3.000 I-19.141 J0.741 K0.000 F750.000
G3 X81.988 Y-10.149 Z3.000 I-8.504 J-1.730 K0.000 F750.000
G1 X67.754 Y-24.383 Z3.000 F750.000
G1 X67.754 Y-21.746 Z3.000 F750.000
G3 X67.147 Y-20.499 Z3.000 I-1.577 J0.004 K0.000 F750.000
G1 X80.430 Y-7.216 Z3.000 F750.000
G0 Z10.000
G0 X45.469 Y-10.747 Z10.000
G0 X45.469 Y-10.747 Z8.000
G1 X45.469 Y-10.747 Z3.000 F250.000
G1 X45.289 Y-10.747 Z3.000 F750.000
G2 X45.359 Y-10.857 Z3.000 I-1.010 J-0.728 K0.000 F750.000
G1 X45.469 Y-10.747 Z3.000 F750.000
G1 X49.959 Y-10.747 Z3.000 F750.000
G1 X38.838 Y-21.868 Z3.000 F750.000
G2 X40.953 Y-24.243 Z3.000 I-4.992 J-6.575 K0.000 F750.000
G1 X42.858 Y-22.338 Z3.000 F750.000
G1 X42.858 Y-21.746 Z3.000 F750.000
G2 X44.562 Y-20.159 Z3.000 I1.595 J-0.004 K0.000 F750.000
G2 X44.582 Y-19.353 Z3.000 I13.412 J0.076 K0.000 F750.000
G2 X45.696 Y-16.650 Z3.000 I3.743 J0.038 K0.000 F750.000
G2 X49.569 Y-15.627 Z3.000 I3.041 J-3.669 K0.000 F750.000
G1 X54.449 Y-10.747 Z3.000 F750.000
G1 X58.939 Y-10.747 Z3.000 F750.000
G1 X52.291 Y-17.396 Z3.000 F750.000
G1 X52.301 Y-17.493 Z3.000 F750.000
G1 X52.301 Y-19.078 Z3.000 F750.000
G2 X51.478 Y-20.468 Z3.000 I-1.583 J-0.002 K0.000 F750.000
G2 X52.134 Y-22.042 Z3.000 I-0.972 J-1.329 K0.000 F750.000
G1 X71.675 Y-2.502 Z3.000 F750.000
G2 X75.393 Y-3.273 Z3.000 I-0.187 J-10.251 K0.000 F750.000
G1 X57.795 Y-20.872 Z3.000 F750.000
G3 X56.481 Y-20.159 Z3.000 I-1.293 J-0.816 K0.000 F750.000
G1 X54.793 Y-20.159 Z3.000 F750.000
G3 X53.205 Y-21.746 Z3.000 I0.000 J-1.588 K0.000 F750.000
G1 X53.205 Y-25.461 Z3.000 F750.000
G1 X49.418 Y-29.249 Z3.000 F750.000
G1 X49.412 Y-33.745 Z3.000 F750.000
G1 X53.294 Y-29.863 Z3.000 F750.000
G3 X54.291 Y-33.356 Z3.000 I8.262 J0.469 K0.000 F750.000
G1 X48.320 Y-39.326 Z3.000 F750.000
G1 X52.811 Y-39.326 Z3.000 F750.000
G1 X56.526 Y-35.611 Z3.000 F750.000
G3 X60.058 Y-36.569 Z3.000 I3.596 J6.274 K0.000 F750.000
G1 X57.301 Y-39.326 Z3.000 F750.000
G1 X59.341 Y-39.326 Z3.000 F750.000
G2 X60.811 Y-40.306 Z3.000 I-0.003 J-1.597 K0.000 F750.000
G1 X75.828 Y-25.289 Z3.000 F750.000
G3 X76.704 Y-26.561 Z3.000 I1.865 J0.347 K0.000 F750.000
G2 X78.100 Y-27.507 Z3.000 I-29.495 J-45.051 K0.000 F750.000
G1 X62.432 Y-43.176 Z3.000 F750.000
G3 X64.698 Y-45.400 Z3.000 I8.025 J5.912 K0.000 F750.000
G1 X80.329 Y-29.768 Z3.000 F750.000
G2 X81.891 Y-32.696 Z3.000 I-7.468 J-5.865 K0.000 F750.000
G1 X67.640 Y-46.948 Z3.000 F750.000
G3 X71.500 Y-47.578 Z3.000 I3.695 J10.499 K0.000 F750.000
G1 X82.545 Y-36.533 Z3.000 F750.000
G2 X79.416 Y-44.152 Z3.000 I-10.984 J0.059 K0.000 F750.000
G0 Z10.000
G0 X46.569 Y-36.587 Z10.000
G0 X46.569 Y-36.587 Z8.000
G1 X46.569 Y-36.587 Z3.000 F250.000
G1 X43.830 Y-39.326 Z3.000 F750.000
G1 X39.340 Y-39.326 Z3.000 F750.000
G1 X44.562 Y-34.104 Z3.000 F750.000
G1 X44.562 Y-29.614 Z3.000 F750.000
G1 X34.850 Y-39.326 Z3.000 F750.000
G1 X30.360 Y-39.326 Z3.000 F750.000
G1 X33.125 Y-36.561 Z3.000 F750.000
G2 X29.601 Y-35.596 Z3.000 I0.321 J8.084 K0.000 F750.000
G1 X25.834 Y-39.362 Z3.000 F750.000
G3 X24.743 Y-40.197 Z3.000 I0.317 J-1.544 K0.000 F750.000
G1 X24.480 Y-40.716 Z3.000 F750.000
G1 X18.601 Y-46.595 Z3.000 F750.000
G2 X16.782 Y-47.292 Z3.000 I-5.188 J10.823 K0.000 F750.000
G2 X13.141 Y-47.565 Z3.000 I-2.606 J10.350 K0.000 F750.000
G1 X27.172 Y-33.534 Z3.000 F750.000
G2 X25.641 Y-30.575 Z3.000 I5.985 J4.972 K0.000 F750.000
G1 X21.203 Y-35.013 Z3.000 F750.000
G1 X21.205 Y-35.000 Z3.000 F750.000
G1 X21.205 Y-30.521 Z3.000 F750.000
G1 X25.706 Y-26.020 Z3.000 F750.000
G2 X31.213 Y-20.513 Z3.000 I7.909 J-2.402 K0.000 F750.000
G1 X39.542 Y-12.184 Z3.000 F750.000
G2 X40.101 Y-10.747 Z3.000 I3.073 J-0.368 K0.000 F750.000
G1 X36.489 Y-10.747 Z3.000 F750.000
G1 X21.205 Y-26.031 Z3.000 F750.000
G1 X21.205 Y-21.541 Z3.000 F750.000
G1 X21.205 Y-20.785 Z3.000 F750.000
G1 X21.960 Y-20.785 Z3.000 F750.000
G1 X21.205 Y-21.541 Z3.000 F750.000
G0 Z10.000
G0 X25.119 Y-17.627 Z10.000
G0 X25.119 Y-17.627 Z8.000
G1 X25.119 Y-17.627 Z3.000 F250.000
G1 X31.998 Y-10.747 Z3.000 F750.000
G1 X27.508 Y-10.747 Z3.000 F750.000
G1 X22.175 Y-16.081 Z3.000 F750.000
G1 X17.684 Y-16.081 Z3.000 F750.000
G1 X24.451 Y-9.314 Z3.000 F750.000
G0 Z10.000
G0 X39.542 Y-12.184 Z10.000
G0 X39.542 Y-12.184 Z8.000
G1 X39.542 Y-12.184 Z3.000 F250.000
G1 X31.213 Y-20.513 Z3.000 F750.000
G2 X35.815 Y-20.401 Z3.000 I2.515 J-8.705 K0.000 F750.000
G1 X40.953 Y-15.262 Z3.000 F750.000
G0 Z10.000
G0 X40.953 Y-24.243 Z10.000
G0 X40.953 Y-24.243 Z8.000
G1 X40.953 Y-24.243 Z3.000 F250.000
G1 X42.858 Y-22.338 Z3.000 F750.000
G1 X42.858 Y-23.276 Z3.000 F750.000
G3 X44.562 Y-24.863 Z3.000 I1.595 J0.004 K0.000 F750.000
G1 X44.562 Y-25.124 Z3.000 F750.000
G1 X42.026 Y-27.661 Z3.000 F750.000
G0 Z10.000
G0 X24.480 Y-40.716 Z10.000
G0 X24.480 Y-40.716 Z8.000
G1 X24.480 Y-40.716 Z3.000 F250.000
G2 X23.796 Y-41.992 Z3.000 I-18.916 J9.321 K0.000 F750.000
G2 X18.601 Y-46.595 Z3.000 I-9.437 J5.417 K0.000 F750.000
G1 X24.480 Y-40.716 Z3.000 F750.000
G0 Z10.000
G0 X19.630 Y-36.586 Z10.000
G0 X19.630 Y-36.586 Z8.000
G1 X19.630 Y-36.586 Z3.000 F250.000
G1 X9.569 Y-46.646 Z3.000 F750.000
G2 X6.816 Y-44.910 Z3.000 I4.151 J9.634 K0.000 F750.000
G1 X16.302 Y-35.424 Z3.000 F750.000
G2 X16.237 Y-35.000 Z3.000 I0.896 J0.353 K0.000 F750.000
G1 X16.237 Y-30.998 Z3.000 F750.000
G1 X4.728 Y-42.508 Z3.000 F750.000
G2 X3.329 Y-39.416 Z3.000 I8.935 J5.902 K0.000 F750.000
G1 X16.237 Y-26.508 Z3.000 F750.000
G1 X16.237 Y-22.018 Z3.000 F750.000
G1 X2.943 Y-35.312 Z3.000 F750.000
G2 X5.944 Y-28.817 Z3.000 I10.237 J-0.789 K0.000 F750.000
G2 X7.501 Y-27.378 Z3.000 I10.100 J-9.363 K0.000 F750.000
G3 X9.027 Y-26.298 Z3.000 I-9.541 J15.105 K0.000 F750.000
G3 X9.406 Y-24.359 Z3.000 I-1.062 J1.214 K0.000 F750.000
G1 X13.165 Y-20.600 Z3.000 F750.000
G2 X12.311 Y-19.198 Z3.000 I0.718 J1.399 K0.000 F750.000
G1 X12.311 Y-17.668 Z3.000 F750.000
G2 X13.898 Y-16.081 Z3.000 I1.588 J-0.000 K0.000 F750.000
G1 X17.684 Y-16.081 Z3.000 F750.000
G1 X24.451 Y-9.314 Z3.000 F750.000
G3 X22.652 Y-6.623 Z3.000 I-12.951 J-6.706 K0.000 F750.000
G1 X6.946 Y-22.329 Z3.000 F750.000
G2 X4.840 Y-19.945 Z3.000 I7.175 J8.464 K0.000 F750.000
G1 X20.353 Y-4.432 Z3.000 F750.000
G3 X17.295 Y-3.000 Z3.000 I-5.631 J-8.047 K0.000 F750.000
G1 X3.352 Y-16.942 Z3.000 F750.000
G2 X2.924 Y-13.784 Z3.000 I8.330 J2.738 K0.000 F750.000
G2 X2.968 Y-12.836 Z3.000 I11.246 J-0.050 K0.000 F750.000
G1 X13.254 Y-2.551 Z3.000 F750.000
G3 X3.585 Y-9.882 Z3.000 I0.880 J-11.202 K0.000 F750.000
G3 X2.968 Y-12.836 Z3.000 I7.725 J-3.154 K0.000 F750.000
G0 Z10.000
G0 Z10.000
(Finish operation: Pocket_Shape)
(Begin operation: Adaptive)
(Path: Adaptive)
(Adaptive)
(Helix to depth: 2.500000)
G0 Z10.000
G0 X72.553 Y-11.234 Z10.000
G0 X72.553 Y-11.234 Z8.000
G1 X72.553 Y-11.234 Z3.500 F250.000
G1 X72.553 Y-11.234 Z3.500 F250.000
G1 X72.332 Y-11.166 Z3.480 F250.000
G1 X72.103 Y-11.141 Z3.459 F250.000
G1 X71.873 Y-11.163 Z3.439 F250.000
G1 X71.652 Y-11.228 Z3.418 F250.000
G1 X71.448 Y-11.336 Z3.398 F250.000
G1 X71.268 Y-11.481 Z3.378 F250.000
G1 X71.121 Y-11.659 Z3.357 F250.000
G1 X71.011 Y-11.861 Z3.337 F250.000
G1 X70.942 Y-12.082 Z3.316 F250.000
G1 X70.918 Y-12.311 Z3.296 F250.000
G1 X70.940 Y-12.541 Z3.276 F250.000
G1 X71.005 Y-12.762 Z3.255 F250.000
G1 X71.113 Y-12.967 Z3.235 F250.000
G1 X71.258 Y-13.146 Z3.214 F250.000
G1 X71.436 Y-13.294 Z3.194 F250.000
G1 X71.638 Y-13.404 Z3.174 F250.000
G1 X71.859 Y-13.472 Z3.153 F250.000
G1 X72.088 Y-13.496 Z3.133 F250.000
G1 X72.318 Y-13.475 Z3.112 F250.000
G1 X72.539 Y-13.409 Z3.092 F250.000
G1 X72.744 Y-13.302 Z3.072 F250.000
G1 X72.923 Y-13.156 Z3.051 F250.000
G1 X73.070 Y-12.979 Z3.031 F250.000
G1 X73.180 Y-12.776 Z3.011 F250.000
G1 X73.249 Y-12.556 Z2.990 F250.000
G1 X73.273 Y-12.326 Z2.970 F250.000
G1 X73.252 Y-12.096 Z2.949 F250.000
G1 X73.186 Y-11.875 Z2.929 F250.000
G1 X73.079 Y-11.671 Z2.909 F250.000
G1 X72.933 Y-11.491 Z2.888 F250.000
G1 X72.756 Y-11.344 Z2.868 F250.000
G1 X72.553 Y-11.234 Z2.847 F250.000
G1 X72.332 Y-11.166 Z2.827 F250.000
G1 X72.103 Y-11.141 Z2.807 F250.000
G1 X71.873 Y-11.163 Z2.786 F250.000
G1 X71.652 Y-11.228 Z2.766 F250.000
G1 X71.448 Y-11.336 Z2.745 F250.000
G1 X71.268 Y-11.481 Z2.725 F250.000
G1 X71.121 Y-11.659 Z2.705 F250.000
G1 X71.011 Y-11.861 Z2.684 F250.000
G1 X70.942 Y-12.082 Z2.664 F250.000
G1 X70.918 Y-12.311 Z2.643 F250.000
G1 X70.940 Y-12.541 Z2.623 F250.000
G1 X71.005 Y-12.762 Z2.603 F250.000
G1 X71.113 Y-12.967 Z2.582 F250.000
G1 X71.258 Y-13.146 Z2.562 F250.000
G1 X71.436 Y-13.294 Z2.541 F250.000
G1 X71.638 Y-13.404 Z2.521 F250.000
G1 X71.859 Y-13.472 Z2.501 F250.000
G1 X72.088 Y-13.496 Z2.500 F750.000
G1 X72.318 Y-13.475 Z2.500 F750.000
G1 X72.539 Y-13.409 Z2.500 F750.000
G1 X72.744 Y-13.302 Z2.500 F750.000
G1 X72.923 Y-13.156 Z2.500 F750.000
G1 X73.070 Y-12.979 Z2.500 F750.000
G1 X73.180 Y-12.776 Z2.500 F750.000
G1 X73.249 Y-12.556 Z2.500 F750.000
G1 X73.273 Y-12.326 Z2.500 F750.000
G1 X73.252 Y-12.096 Z2.500 F750.000
G1 X73.186 Y-11.875 Z2.500 F750.000
G1 X73.079 Y-11.671 Z2.500 F750.000
G1 X72.933 Y-11.491 Z2.500 F750.000
G1 X72.756 Y-11.344 Z2.500 F750.000
G1 X72.553 Y-11.234 Z2.500 F750.000
G1 X72.332 Y-11.166 Z2.500 F750.000
G1 X72.103 Y-11.141 Z2.500 F750.000
G1 X71.873 Y-11.163 Z2.500 F750.000
G1 X71.652 Y-11.228 Z2.500 F750.000
G1 X71.448 Y-11.336 Z2.500 F750.000
G1 X71.268 Y-11.481 Z2.500 F750.000
G1 X71.121 Y-11.659 Z2.500 F750.000
G1 X71.011 Y-11.861 Z2.500 F750.000
G1 X70.942 Y-12.082 Z2.500 F750.000
G1 X70.918 Y-12.311 Z2.500 F750.000
G1 X70.940 Y-12.541 Z2.500 F750.000
G1 X71.005 Y-12.762 Z2.500 F750.000
G1 X71.113 Y-12.967 Z2.500 F750.000
G1 X71.258 Y-13.146 Z2.500 F750.000
G1 X71.436 Y-13.294 Z2.500 F750.000
G1 X71.638 Y-13.404 Z2.500 F750.000
G1 X71.859 Y-13.472 Z2.500 F750.000
(Adaptive - depth: 2.500000)
G1 X72.096 Y-13.506 F750.000
G1 X72.139 Y-13.550 F750.000
G1 X72.255 Y-13.590 F750.000
G1 X72.434 Y-13.606 F750.000
G1 X72.614 Y-13.582 F750.000
G1 X72.980 Y-13.438 F750.000
G1 X73.159 Y-13.295 F750.000
G1 X73.251 Y-13.191 F750.000
G1 X73.339 Y-13.072 F750.000
G1 X73.442 Y-12.884 F750.000
G1 X73.526 Y-12.649 F750.000
G1 X73.562 Y-12.430 F750.000
G1 X73.570 Y-12.239 F750.000
G1 X73.546 Y-12.024 F750.000
G1 X73.490 Y-11.821 F750.000
G1 X73.410 Y-11.629 F750.000
G1 X73.291 Y-11.434 F750.000
G1 X73.151 Y-11.267 F750.000
G1 X72.992 Y-11.120 F750.000
G1 X72.809 Y-10.996 F750.000
G1 X72.614 Y-10.900 F750.000
G1 X72.406 Y-10.837 F750.000
G1 X72.191 Y-10.809 F750.000
G1 X71.996 Y-10.809 F750.000
G1 X71.789 Y-10.837 F750.000
G1 X71.574 Y-10.896 F750.000
G1 X71.359 Y-10.992 F750.000
G1 X71.167 Y-11.112 F750.000
G1 X71.000 Y-11.267 F750.000
G1 X70.876 Y-11.414 F750.000
G1 X70.761 Y-11.590 F750.000
G1 X70.665 Y-11.813 F750.000
G1 X70.606 Y-12.020 F750.000
G1 X70.574 Y-12.239 F750.000
G1 X70.578 Y-12.458 F750.000
G1 X70.610 Y-12.673 F750.000
G1 X70.673 Y-12.884 F750.000
G1 X70.769 Y-13.084 F750.000
G1 X70.896 Y-13.263 F750.000
G1 X71.032 Y-13.406 F750.000
G1 X71.195 Y-13.542 F750.000
G1 X71.382 Y-13.665 F750.000
G1 X71.622 Y-13.789 F750.000
G1 X71.900 Y-13.888 F750.000
G1 X72.259 Y-13.928 F750.000
G1 X72.438 Y-13.924 F750.000
G1 X72.825 Y-13.853 F750.000
G1 X73.135 Y-13.705 F750.000
G1 X73.267 Y-13.606 F750.000
G1 X73.375 Y-13.506 F750.000
G1 X73.502 Y-13.367 F750.000
G1 X73.673 Y-13.120 F750.000
G1 X73.797 Y-12.873 F750.000
G1 X73.865 Y-12.633 F750.000
G1 X73.892 Y-12.442 F750.000
G1 X73.896 Y-12.235 F750.000
G1 X73.873 Y-11.996 F750.000
G1 X73.817 Y-11.745 F750.000
G1 X73.729 Y-11.506 F750.000
G1 X73.606 Y-11.291 F750.000
G1 X73.478 Y-11.120 F750.000
G1 X73.315 Y-10.944 F750.000
G1 X73.116 Y-10.781 F750.000
G1 X72.892 Y-10.649 F750.000
G1 X72.689 Y-10.558 F750.000
G1 X72.454 Y-10.486 F750.000
G1 X72.215 Y-10.450 F750.000
G1 X71.984 Y-10.446 F750.000
G1 X71.745 Y-10.474 F750.000
G1 X71.514 Y-10.530 F750.000
G1 X71.295 Y-10.618 F750.000
G1 X71.088 Y-10.733 F750.000
G1 X70.892 Y-10.869 F750.000
G1 X70.689 Y-11.060 F750.000
G1 X70.530 Y-11.251 F750.000
G1 X70.402 Y-11.470 F750.000
G1 X70.319 Y-11.661 F750.000
G1 X70.251 Y-11.884 F750.000
G1 X70.207 Y-12.139 F750.000
G1 X70.195 Y-12.398 F750.000
G1 X70.223 Y-12.645 F750.000
G1 X70.275 Y-12.869 F750.000
G1 X70.363 Y-13.096 F750.000
G1 X70.478 Y-13.307 F750.000
G1 X70.618 Y-13.498 F750.000
G1 X70.781 Y-13.673 F750.000
G1 X70.960 Y-13.833 F750.000
G1 X71.199 Y-14.000 F750.000
G1 X71.466 Y-14.139 F750.000
G1 X71.725 Y-14.223 F750.000
G1 X71.932 Y-14.271 F750.000
G1 X72.187 Y-14.299 F750.000
G1 X72.462 Y-14.295 F750.000
G1 X72.725 Y-14.259 F750.000
G1 X72.980 Y-14.179 F750.000
G1 X73.175 Y-14.092 F750.000
G1 X73.386 Y-13.964 F750.000
G1 X73.574 Y-13.809 F750.000
G1 X73.737 Y-13.637 F750.000
G1 X73.884 Y-13.446 F750.000
G1 X74.028 Y-13.211 F750.000
G1 X74.143 Y-12.952 F750.000
G1 X74.211 Y-12.693 F750.000
G1 X74.247 Y-12.466 F750.000
G1 X74.255 Y-12.211 F750.000
G1 X74.235 Y-11.964 F750.000
G1 X74.179 Y-11.689 F750.000
G1 X74.096 Y-11.438 F750.000
G1 X73.984 Y-11.199 F750.000
G1 X73.841 Y-10.972 F750.000
G1 X73.673 Y-10.765 F750.000
G1 X73.482 Y-10.578 F750.000
G1 X73.267 Y-10.414 F750.000
G1 X73.040 Y-10.279 F750.000
G1 X72.793 Y-10.179 F750.000
G1 X72.570 Y-10.116 F750.000
G1 X72.319 Y-10.076 F750.000
G1 X72.072 Y-10.060 F750.000
G1 X71.773 Y-10.076 F750.000
G1 X71.486 Y-10.127 F750.000
G1 X71.223 Y-10.219 F750.000
G1 X71.020 Y-10.311 F750.000
G1 X70.797 Y-10.442 F750.000
G1 X70.562 Y-10.622 F750.000
G1 X70.363 Y-10.817 F750.000
G1 X70.191 Y-11.036 F750.000
G1 X70.068 Y-11.239 F750.000
G1 X69.956 Y-11.474 F750.000
G1 X69.873 Y-11.737 F750.000
G1 X69.821 Y-11.988 F750.000
G1 X69.793 Y-12.251 F750.000
G1 X69.805 Y-12.546 F750.000
G1 X69.845 Y-12.817 F750.000
G1 X69.928 Y-13.080 F750.000
G1 X70.016 Y-13.287 F750.000
G1 X70.139 Y-13.514 F750.000
G1 X70.315 Y-13.757 F750.000
G1 X70.514 Y-13.980 F750.000
G1 X70.725 Y-14.171 F750.000
G1 X70.968 Y-14.335 F750.000
G1 X71.187 Y-14.450 F750.000
G1 X71.442 Y-14.550 F750.000
G1 X71.705 Y-14.629 F750.000
G1 X72.024 Y-14.685 F750.000
G1 X72.311 Y-14.701 F750.000
G1 X72.602 Y-14.673 F750.000
G1 X72.841 Y-14.629 F750.000
G1 X73.100 Y-14.546 F750.000
G1 X73.339 Y-14.434 F750.000
G1 X73.558 Y-14.299 F750.000
G1 X73.773 Y-14.139 F750.000
G1 X73.988 Y-13.928 F750.000
G1 X74.163 Y-13.717 F750.000
G1 X74.319 Y-13.482 F750.000
G1 X74.446 Y-13.223 F750.000
G1 X74.546 Y-12.956 F750.000
G1 X74.614 Y-12.681 F750.000
G1 X74.645 Y-12.398 F750.000
G1 X74.645 Y-12.147 F750.000
G1 X74.622 Y-11.876 F750.000
G1 X74.562 Y-11.582 F750.000
G1 X74.470 Y-11.295 F750.000
G1 X74.351 Y-11.028 F750.000
G1 X74.191 Y-10.777 F750.000
G1 X74.040 Y-10.578 F750.000
G1 X73.853 Y-10.375 F750.000
G1 X73.614 Y-10.171 F750.000
G1 X73.355 Y-9.992 F750.000
G1 X73.084 Y-9.857 F750.000
G1 X72.849 Y-9.765 F750.000
G1 X72.574 Y-9.693 F750.000
G1 X72.295 Y-9.649 F750.000
G1 X72.000 Y-9.637 F750.000
G1 X71.713 Y-9.657 F750.000
G1 X71.430 Y-9.709 F750.000
G1 X71.151 Y-9.793 F750.000
G1 X70.884 Y-9.904 F750.000
G1 X70.633 Y-10.044 F750.000
G1 X70.398 Y-10.211 F750.000
G1 X70.183 Y-10.402 F750.000
G1 X69.988 Y-10.610 F750.000
G1 X69.797 Y-10.865 F750.000
G1 X69.645 Y-11.120 F750.000
G1 X69.530 Y-11.394 F750.000
G1 X69.458 Y-11.633 F750.000
G1 X69.402 Y-11.908 F750.000
G1 X69.367 Y-12.215 F750.000
G1 X69.378 Y-12.554 F750.000
G1 X69.410 Y-12.813 F750.000
G1 X69.478 Y-13.104 F750.000
G1 X69.578 Y-13.382 F750.000
G1 X69.701 Y-13.637 F750.000
G1 X69.857 Y-13.884 F750.000
G1 X70.040 Y-14.112 F750.000
G1 X70.243 Y-14.319 F750.000
G1 X70.466 Y-14.510 F750.000
G1 X70.737 Y-14.693 F750.000
G1 X71.004 Y-14.837 F750.000
G1 X71.287 Y-14.956 F750.000
G1 X71.586 Y-15.044 F750.000
G1 X71.888 Y-15.100 F750.000
G1 X72.195 Y-15.127 F750.000
G1 X72.502 Y-15.112 F750.000
G1 X72.761 Y-15.072 F750.000
G1 X73.044 Y-14.996 F750.000
G1 X73.311 Y-14.896 F750.000
G1 X73.598 Y-14.753 F750.000
G1 X73.853 Y-14.590 F750.000
G1 X74.092 Y-14.402 F750.000
G1 X74.315 Y-14.183 F750.000
G1 X74.502 Y-13.944 F750.000
G1 X74.645 Y-13.721 F750.000
G1 X74.785 Y-13.462 F750.000
G1 X74.908 Y-13.139 F750.000
G1 X74.988 Y-12.853 F750.000
G1 X75.040 Y-12.550 F750.000
G1 X75.060 Y-12.235 F750.000
G1 X75.048 Y-11.928 F750.000
G1 X75.004 Y-11.618 F750.000
G1 X74.928 Y-11.315 F750.000
G1 X74.813 Y-11.028 F750.000
G1 X74.693 Y-10.789 F750.000
G1 X74.534 Y-10.542 F750.000
G1 X74.359 Y-10.311 F750.000
G1 X74.116 Y-10.044 F750.000
G1 X73.845 Y-9.805 F750.000
G1 X73.566 Y-9.625 F750.000
G1 X73.347 Y-9.506 F750.000
G1 X73.064 Y-9.390 F750.000
G1 X72.785 Y-9.303 F750.000
G1 X72.446 Y-9.235 F750.000
G1 X72.135 Y-9.207 F750.000
G1 X71.825 Y-9.207 F750.000
G1 X71.506 Y-9.243 F750.000
G1 X71.195 Y-9.307 F750.000
G1 X70.896 Y-9.410 F750.000
G1 X70.653 Y-9.522 F750.000
G1 X70.390 Y-9.665 F750.000
G1 X70.104 Y-9.876 F750.000
G1 X69.876 Y-10.076 F750.000
G1 X69.661 Y-10.307 F750.000
G1 X69.466 Y-10.566 F750.000
G1 X69.303 Y-10.833 F750.000
G1 X69.167 Y-11.116 F750.000
G1 X69.060 Y-11.414 F750.000
G1 X68.984 Y-11.717 F750.000
G1 X68.940 Y-12.028 F750.000
G1 X68.924 Y-12.339 F750.000
G1 X68.940 Y-12.649 F750.000
G1 X68.988 Y-12.956 F750.000
G1 X69.068 Y-13.259 F750.000
G1 X69.175 Y-13.550 F750.000
G1 X69.307 Y-13.833 F750.000
G1 X69.486 Y-14.131 F750.000
G1 X69.681 Y-14.390 F750.000
G1 X69.912 Y-14.625 F750.000
G1 X70.116 Y-14.801 F750.000
G1 X70.359 Y-14.984 F750.000
G1 X70.681 Y-15.179 F750.000
G1 X71.012 Y-15.339 F750.000
G1 X71.343 Y-15.446 F750.000
G1 X71.606 Y-15.510 F750.000
G1 X71.928 Y-15.550 F750.000
G1 X72.235 Y-15.558 F750.000
G1 X72.566 Y-15.534 F750.000
G1 X72.880 Y-15.482 F750.000
G1 X73.191 Y-15.398 F750.000
G1 X73.494 Y-15.283 F750.000
G1 X73.781 Y-15.139 F750.000
G1 X74.056 Y-14.968 F750.000
G1 X74.315 Y-14.769 F750.000
G1 X74.550 Y-14.550 F750.000
G1 X74.765 Y-14.303 F750.000
G1 X74.956 Y-14.036 F750.000
G1 X75.120 Y-13.753 F750.000
G1 X75.255 Y-13.454 F750.000
G1 X75.363 Y-13.143 F750.000
G1 X75.438 Y-12.825 F750.000
G1 X75.482 Y-12.498 F750.000
G1 X75.494 Y-12.171 F750.000
G1 X75.474 Y-11.845 F750.000
G1 X75.422 Y-11.518 F750.000
G1 X75.343 Y-11.199 F750.000
G1 X75.231 Y-10.888 F750.000
G1 X75.092 Y-10.590 F750.000
G1 X74.920 Y-10.307 F750.000
G1 X74.725 Y-10.040 F750.000
G1 X74.506 Y-9.797 F750.000
G1 X74.263 Y-9.574 F750.000
G1 X74.000 Y-9.375 F750.000
G1 X73.717 Y-9.203 F750.000
G1 X73.422 Y-9.060 F750.000
G1 X73.116 Y-8.940 F750.000
G1 X72.765 Y-8.845 F750.000
G1 X72.430 Y-8.785 F750.000
G1 X72.088 Y-8.753 F750.000
G1 X71.741 Y-8.753 F750.000
G1 X71.398 Y-8.797 F750.000
G1 X71.116 Y-8.857 F750.000
G1 X70.809 Y-8.956 F750.000
G1 X70.518 Y-9.076 F750.000
G1 X70.203 Y-9.247 F750.000
G1 X69.928 Y-9.430 F750.000
G1 X69.665 Y-9.641 F750.000
G1 X69.422 Y-9.880 F750.000
G1 X69.207 Y-10.135 F750.000
G1 X69.012 Y-10.414 F750.000
G1 X68.845 Y-10.709 F750.000
G1 X68.705 Y-11.016 F750.000
G1 X68.598 Y-11.335 F750.000
G1 X68.522 Y-11.661 F750.000
G1 X68.474 Y-11.996 F750.000
G1 X68.458 Y-12.331 F750.000
G1 X68.474 Y-12.665 F750.000
G1 X68.522 Y-13.000 F750.000
G1 X68.602 Y-13.327 F750.000
G1 X68.713 Y-13.645 F750.000
G1 X68.853 Y-13.952 F750.000
G1 X69.020 Y-14.243 F750.000
G1 X69.211 Y-14.522 F750.000
G1 X69.454 Y-14.809 F750.000
G1 X69.701 Y-15.056 F750.000
G1 X69.972 Y-15.283 F750.000
G1 X70.267 Y-15.486 F750.000
G1 X70.574 Y-15.657 F750.000
G1 X70.900 Y-15.793 F750.000
G1 X71.183 Y-15.884 F750.000
G1 X71.510 Y-15.952 F750.000
G1 X71.833 Y-15.996 F750.000
G1 X72.211 Y-16.008 F750.000
G1 X72.554 Y-15.988 F750.000
G1 X72.900 Y-15.940 F750.000
G1 X73.247 Y-15.857 F750.000
G1 X73.578 Y-15.745 F750.000
G1 X73.900 Y-15.602 F750.000
G1 X74.203 Y-15.418 F750.000
G1 X74.434 Y-15.255 F750.000
G1 X74.685 Y-15.044 F750.000
G1 X74.944 Y-14.789 F750.000
G1 X75.195 Y-14.486 F750.000
G1 X75.390 Y-14.183 F750.000
G1 X75.538 Y-13.912 F750.000
G1 X75.677 Y-13.590 F750.000
G1 X75.789 Y-13.267 F750.000
G1 X75.880 Y-12.884 F750.000
G1 X75.932 Y-12.530 F750.000
G1 X75.940 Y-12.171 F750.000
G1 X75.924 Y-11.876 F750.000
G1 X75.884 Y-11.542 F750.000
G1 X75.801 Y-11.159 F750.000
G1 X75.689 Y-10.801 F750.000
G1 X75.534 Y-10.466 F750.000
G1 X75.394 Y-10.215 F750.000
G1 X75.207 Y-9.932 F750.000
G1 X74.976 Y-9.641 F750.000
G1 X74.709 Y-9.363 F750.000
G1 X74.438 Y-9.120 F750.000
G1 X74.131 Y-8.908 F750.000
G1 X73.873 Y-8.757 F750.000
G1 X73.562 Y-8.614 F750.000
G1 X73.247 Y-8.494 F750.000
G1 X72.865 Y-8.390 F750.000
G1 X72.514 Y-8.327 F750.000
G1 X72.151 Y-8.291 F750.000
G1 X71.781 Y-8.287 F750.000
G1 X71.418 Y-8.315 F750.000
G1 X71.056 Y-8.386 F750.000
G1 X70.761 Y-8.470 F750.000
G1 X70.442 Y-8.594 F750.000
G1 X70.139 Y-8.737 F750.000
G1 X69.801 Y-8.940 F750.000
G1 X69.514 Y-9.147 F750.000
G1 X69.243 Y-9.382 F750.000
G1 X68.988 Y-9.645 F750.000
G1 X68.761 Y-9.924 F750.000
G1 X68.558 Y-10.223 F750.000
G1 X68.382 Y-10.538 F750.000
G1 X68.235 Y-10.869 F750.000
G1 X68.116 Y-11.211 F750.000
G1 X68.028 Y-11.562 F750.000
G1 X67.972 Y-11.916 F750.000
G1 X67.960 Y-12.275 F750.000
G1 X67.972 Y-12.574 F750.000
G1 X68.012 Y-12.908 F750.000
G1 X68.092 Y-13.287 F750.000
G1 X68.203 Y-13.661 F750.000
G1 X68.339 Y-14.008 F750.000
G1 X68.522 Y-14.347 F750.000
G1 X68.681 Y-14.602 F750.000
G1 X68.884 Y-14.884 F750.000
G1 X69.139 Y-15.183 F750.000
G1 X69.418 Y-15.458 F750.000
G1 X69.729 Y-15.697 F750.000
G1 X69.988 Y-15.873 F750.000
G1 X70.319 Y-16.052 F750.000
G1 X70.649 Y-16.195 F750.000
G1 X70.980 Y-16.307 F750.000
G1 X71.331 Y-16.390 F750.000
G1 X71.685 Y-16.442 F750.000
G1 X72.040 Y-16.470 F750.000
G1 X72.430 Y-16.462 F750.000
G1 X72.801 Y-16.426 F750.000
G1 X73.175 Y-16.359 F750.000
G1 X73.550 Y-16.259 F750.000
G1 X73.904 Y-16.116 F750.000
G1 X74.183 Y-15.980 F750.000
G1 X74.490 Y-15.793 F750.000
G1 X74.765 Y-15.582 F750.000
G1 X75.024 Y-15.363 F750.000
G1 X75.303 Y-15.084 F750.000
G1 X75.554 Y-14.781 F750.000
G1 X75.761 Y-14.458 F750.000
G1 X75.912 Y-14.187 F750.000
G1 X76.068 Y-13.861 F750.000
G1 X76.207 Y-13.490 F750.000
G1 X76.303 Y-13.108 F750.000
G1 X76.367 Y-12.777 F750.000
G1 X76.406 Y-12.386 F750.000
G1 X76.410 Y-12.008 F750.000
G1 X76.386 Y-11.641 F750.000
G1 X76.327 Y-11.267 F750.000
G1 X76.223 Y-10.904 F750.000
G1 X76.120 Y-10.614 F750.000
G1 X75.976 Y-10.291 F750.000
G1 X75.789 Y-9.952 F750.000
G1 X75.566 Y-9.622 F750.000
G1 X75.331 Y-9.323 F750.000
G1 X75.064 Y-9.036 F750.000
G1 X74.773 Y-8.773 F750.000
G1 X74.454 Y-8.550 F750.000
G1 X74.199 Y-8.394 F750.000
G1 X73.884 Y-8.231 F750.000
G1 X73.518 Y-8.080 F750.000
G1 X73.139 Y-7.960 F750.000
G1 X72.753 Y-7.865 F750.000
G1 X72.359 Y-7.813 F750.000
G1 X72.020 Y-7.793 F750.000
G1 X71.641 Y-7.805 F750.000
G1 X71.267 Y-7.849 F750.000
G1 X70.908 Y-7.920 F750.000
G1 X70.550 Y-8.024 F750.000
G1 X70.203 Y-8.159 F750.000
G1 X69.873 Y-8.323 F750.000
G1 X69.554 Y-8.514 F750.000
G1 X69.251 Y-8.725 F750.000
G1 X68.948 Y-8.980 F750.000
G1 X68.677 Y-9.251 F750.000
G1 X68.422 Y-9.546 F750.000
G1 X68.191 Y-9.865 F750.000
G1 X67.988 Y-10.195 F750.000
G1 X67.813 Y-10.542 F750.000
G1 X67.677 Y-10.912 F750.000
G1 X67.590 Y-11.215 F750.000
G1 X67.522 Y-11.574 F750.000
G1 X67.478 Y-11.928 F750.000
G1 X67.466 Y-12.319 F750.000
G1 X67.486 Y-12.689 F750.000
G1 X67.538 Y-13.064 F750.000
G1 X67.622 Y-13.438 F750.000
G1 X67.737 Y-13.801 F750.000
G1 X67.873 Y-14.155 F750.000
G1 X68.044 Y-14.506 F750.000
G1 X68.243 Y-14.845 F750.000
G1 X68.466 Y-15.167 F750.000
G1 X68.717 Y-15.470 F750.000
G1 X69.000 Y-15.741 F750.000
G1 X69.243 Y-15.944 F750.000
G1 X69.542 Y-16.163 F750.000
G1 X69.876 Y-16.371 F750.000
G1 X70.227 Y-16.550 F750.000
G1 X70.594 Y-16.689 F750.000
G1 X70.908 Y-16.785 F750.000
G1 X71.287 Y-16.873 F750.000
G1 X71.673 Y-16.928 F750.000
G1 X72.064 Y-16.956 F750.000
G1 X72.454 Y-16.952 F750.000
G1 X72.845 Y-16.920 F750.000
G1 X73.231 Y-16.857 F750.000
G1 X73.610 Y-16.745 F750.000
G1 X73.892 Y-16.641 F750.000
G1 X74.231 Y-16.490 F750.000
G1 X74.574 Y-16.299 F750.000
G1 X74.900 Y-16.080 F750.000
G1 X75.211 Y-15.837 F750.000
G1 X75.502 Y-15.570 F750.000
G1 X75.761 Y-15.271 F750.000
G1 X75.952 Y-15.016 F750.000
G1 X76.159 Y-14.705 F750.000
G1 X76.351 Y-14.359 F750.000
G1 X76.518 Y-14.000 F750.000
G1 X76.661 Y-13.629 F750.000
G1 X76.761 Y-13.247 F750.000
G1 X76.829 Y-12.904 F750.000
G1 X76.873 Y-12.510 F750.000
G1 X76.888 Y-12.120 F750.000
G1 X76.873 Y-11.725 F750.000
G1 X76.825 Y-11.331 F750.000
G1 X76.733 Y-10.944 F750.000
G1 X76.637 Y-10.633 F750.000
G1 X76.494 Y-10.279 F750.000
G1 X76.335 Y-9.944 F750.000
G1 X76.131 Y-9.602 F750.000
G1 X75.908 Y-9.271 F750.000
G1 X75.661 Y-8.960 F750.000
G1 X75.390 Y-8.669 F750.000
G1 X75.092 Y-8.406 F750.000
G1 X74.821 Y-8.199 F750.000
G1 X74.486 Y-7.984 F750.000
G1 X74.139 Y-7.805 F750.000
G1 X73.797 Y-7.657 F750.000
G1 X73.430 Y-7.526 F750.000
G1 X73.044 Y-7.426 F750.000
G1 X72.653 Y-7.355 F750.000
G1 X72.259 Y-7.311 F750.000
G1 X71.865 Y-7.303 F750.000
G1 X71.470 Y-7.323 F750.000
G1 X71.076 Y-7.375 F750.000
G1 X70.689 Y-7.454 F750.000
G1 X70.311 Y-7.566 F750.000
G1 X69.948 Y-7.721 F750.000
G1 X69.661 Y-7.865 F750.000
G1 X69.335 Y-8.052 F750.000
G1 X69.008 Y-8.275 F750.000
G1 X68.701 Y-8.522 F750.000
G1 X68.410 Y-8.789 F750.000
G1 X68.139 Y-9.076 F750.000
G1 X67.892 Y-9.382 F750.000
G1 X67.677 Y-9.713 F750.000
G1 X67.498 Y-10.024 F750.000
G1 X67.331 Y-10.382 F750.000
G1 X67.195 Y-10.753 F750.000
G1 X67.088 Y-11.127 F750.000
G1 X67.012 Y-11.514 F750.000
G1 X66.968 Y-11.904 F750.000
G1 X66.956 Y-12.295 F750.000
G1 X66.976 Y-12.685 F750.000
G1 X67.028 Y-13.076 F750.000
G1 X67.108 Y-13.458 F750.000
G1 X67.211 Y-13.837 F750.000
G1 X67.347 Y-14.203 F750.000
G1 X67.502 Y-14.562 F750.000
G1 X67.685 Y-14.908 F750.000
G1 X67.892 Y-15.239 F750.000
G1 X68.131 Y-15.550 F750.000
G1 X68.371 Y-15.821 F750.000
G1 X68.653 Y-16.092 F750.000
G1 X68.952 Y-16.347 F750.000
G1 X69.271 Y-16.578 F750.000
G1 X69.606 Y-16.785 F750.000
G1 X69.952 Y-16.968 F750.000
G1 X70.311 Y-17.124 F750.000
G1 X70.681 Y-17.251 F750.000
G1 X71.064 Y-17.343 F750.000
G1 X71.430 Y-17.406 F750.000
G1 X71.821 Y-17.442 F750.000
G1 X72.211 Y-17.458 F750.000
G1 X72.602 Y-17.438 F750.000
G1 X72.992 Y-17.390 F750.000
G1 X73.378 Y-17.319 F750.000
G1 X73.757 Y-17.219 F750.000
G1 X74.124 Y-17.076 F750.000
G1 X74.426 Y-16.936 F750.000
G1 X74.773 Y-16.749 F750.000
G1 X75.104 Y-16.534 F750.000
G1 X75.418 Y-16.295 F750.000
G1 X75.713 Y-16.036 F750.000
G1 X75.992 Y-15.753 F750.000
G1 X76.247 Y-15.454 F750.000
G1 X76.482 Y-15.135 F750.000
G1 X76.693 Y-14.801 F750.000
G1 X76.873 Y-14.450 F750.000
G1 X77.028 Y-14.092 F750.000
G1 X77.155 Y-13.717 F750.000
G1 X77.251 Y-13.335 F750.000
G1 X77.319 Y-12.944 F750.000
G1 X77.359 Y-12.550 F750.000
G1 X77.378 Y-12.155 F750.000
G1 X77.363 Y-11.761 F750.000
G1 X77.323 Y-11.367 F750.000
G1 X77.243 Y-10.976 F750.000
G1 X77.147 Y-10.622 F750.000
G1 X77.012 Y-10.247 F750.000
G1 X76.853 Y-9.884 F750.000
G1 X76.665 Y-9.534 F750.000
G1 X76.458 Y-9.195 F750.000
G1 X76.227 Y-8.873 F750.000
G1 X75.972 Y-8.566 F750.000
G1 X75.701 Y-8.275 F750.000
G1 X75.410 Y-8.008 F750.000
G1 X75.088 Y-7.777 F750.000
G1 X74.801 Y-7.590 F750.000
G1 X74.450 Y-7.402 F750.000
G1 X74.088 Y-7.235 F750.000
G1 X73.717 Y-7.092 F750.000
G1 X73.339 Y-6.976 F750.000
G1 X72.952 Y-6.884 F750.000
G1 X72.562 Y-6.821 F750.000
G1 X72.167 Y-6.785 F750.000
G1 X71.773 Y-6.785 F750.000
G1 X71.394 Y-6.809 F750.000
G1 X71.004 Y-6.865 F750.000
G1 X70.618 Y-6.952 F750.000
G1 X70.239 Y-7.064 F750.000
G1 X69.869 Y-7.207 F750.000
G1 X69.510 Y-7.378 F750.000
G1 X69.159 Y-7.566 F750.000
G1 X68.829 Y-7.781 F750.000
G1 X68.514 Y-8.016 F750.000
G1 X68.211 Y-8.271 F750.000
G1 X67.932 Y-8.550 F750.000
G1 X67.669 Y-8.845 F750.000
G1 X67.430 Y-9.155 F750.000
G1 X67.211 Y-9.482 F750.000
G1 X67.016 Y-9.825 F750.000
G1 X66.845 Y-10.179 F750.000
G1 X66.713 Y-10.550 F750.000
G1 X66.614 Y-10.888 F750.000
G1 X66.534 Y-11.275 F750.000
G1 X66.474 Y-11.665 F750.000
G1 X66.450 Y-12.056 F750.000
G1 X66.450 Y-12.446 F750.000
G1 X66.478 Y-12.837 F750.000
G1 X66.534 Y-13.223 F750.000
G1 X66.618 Y-13.606 F750.000
G1 X66.717 Y-13.984 F750.000
G1 X66.849 Y-14.355 F750.000
G1 X67.000 Y-14.717 F750.000
G1 X67.175 Y-15.068 F750.000
G1 X67.375 Y-15.406 F750.000
G1 X67.602 Y-15.725 F750.000
G1 X67.849 Y-16.032 F750.000
G1 X68.116 Y-16.319 F750.000
G1 X68.406 Y-16.582 F750.000
G1 X68.713 Y-16.825 F750.000
G1 X69.036 Y-17.044 F750.000
G1 X69.371 Y-17.247 F750.000
G1 X69.721 Y-17.422 F750.000
G1 X70.084 Y-17.574 F750.000
G1 X70.454 Y-17.701 F750.000
G1 X70.833 Y-17.805 F750.000
G1 X71.215 Y-17.880 F750.000
G1 X71.606 Y-17.932 F750.000
G1 X71.996 Y-17.956 F750.000
G1 X72.386 Y-17.956 F750.000
G1 X72.777 Y-17.928 F750.000
G1 X73.167 Y-17.873 F750.000
G1 X73.554 Y-17.793 F750.000
G1 X73.932 Y-17.685 F750.000
G1 X74.303 Y-17.554 F750.000
G1 X74.657 Y-17.386 F750.000
G1 X74.996 Y-17.203 F750.000
G1 X75.327 Y-16.988 F750.000
G1 X75.645 Y-16.757 F750.000
G1 X75.944 Y-16.502 F750.000
G1 X76.227 Y-16.227 F750.000
G1 X76.490 Y-15.932 F750.000
G1 X76.733 Y-15.622 F750.000
G1 X76.960 Y-15.299 F750.000
G1 X77.163 Y-14.960 F750.000
G1 X77.343 Y-14.610 F750.000
G1 X77.502 Y-14.247 F750.000
G1 X77.622 Y-13.869 F750.000
G1 X77.717 Y-13.506 F750.000
G1 X77.789 Y-13.116 F750.000
G1 X77.841 Y-12.721 F750.000
G1 X77.865 Y-12.327 F750.000
G1 X77.861 Y-11.932 F750.000
G1 X77.833 Y-11.538 F750.000
G1 X77.777 Y-11.143 F750.000
G1 X77.697 Y-10.753 F750.000
G1 X77.594 Y-10.371 F750.000
G1 X77.450 Y-10.000 F750.000
G1 X77.295 Y-9.657 F750.000
G1 X77.116 Y-9.303 F750.000
G1 X76.912 Y-8.960 F750.000
G1 X76.685 Y-8.633 F750.000
G1 X76.442 Y-8.319 F750.000
G1 X76.167 Y-8.032 F750.000
G1 X75.876 Y-7.761 F750.000
G1 X75.570 Y-7.510 F750.000
G1 X75.243 Y-7.283 F750.000
G1 X74.908 Y-7.072 F750.000
G1 X74.558 Y-6.888 F750.000
G1 X74.195 Y-6.729 F750.000
G1 X73.825 Y-6.586 F750.000
G1 X73.446 Y-6.470 F750.000
G1 X73.060 Y-6.378 F750.000
G1 X72.669 Y-6.307 F750.000
G1 X72.275 Y-6.263 F750.000
G1 X71.880 Y-6.259 F750.000
G1 X71.502 Y-6.275 F750.000
G1 X71.108 Y-6.319 F750.000
G1 X70.717 Y-6.386 F750.000
G1 X70.335 Y-6.482 F750.000
G1 X69.960 Y-6.606 F750.000
G1 X69.594 Y-6.749 F750.000
G1 X69.235 Y-6.920 F750.000
G1 X68.892 Y-7.116 F750.000
G1 X68.562 Y-7.331 F750.000
G1 X68.239 Y-7.562 F750.000
G1 X67.936 Y-7.813 F750.000
G1 X67.649 Y-8.084 F750.000
G1 X67.378 Y-8.371 F750.000
G1 X67.127 Y-8.673 F750.000
G1 X66.892 Y-8.988 F750.000
G1 X66.677 Y-9.319 F750.000
G1 X66.494 Y-9.669 F750.000
G1 X66.331 Y-10.028 F750.000
G1 X66.207 Y-10.402 F750.000
G1 X66.112 Y-10.757 F750.000
G1 X66.024 Y-11.139 F750.000
G1 X65.964 Y-11.526 F750.000
G1 X65.932 Y-11.916 F750.000
G1 X65.920 Y-12.307 F750.000
G1 X65.936 Y-12.697 F750.000
G1 X65.976 Y-13.088 F750.000
G1 X66.040 Y-13.474 F750.000
G1 X66.127 Y-13.857 F750.000
G1 X66.239 Y-14.231 F750.000
G1 X66.371 Y-14.602 F750.000
G1 X66.526 Y-14.960 F750.000
G1 X66.705 Y-15.311 F750.000
G1 X66.904 Y-15.649 F750.000
G1 X67.124 Y-15.972 F750.000
G1 X67.363 Y-16.283 F750.000
G1 X67.629 Y-16.570 F750.000
G1 X67.912 Y-16.841 F750.000
G1 X68.211 Y-17.092 F750.000
G1 X68.526 Y-17.327 F750.000
G1 X68.857 Y-17.538 F750.000
G1 X69.199 Y-17.729 F750.000
G1 X69.550 Y-17.908 F750.000
G1 X69.912 Y-18.060 F750.000
G1 X70.283 Y-18.191 F750.000
G1 X70.657 Y-18.303 F750.000
G1 X71.044 Y-18.375 F750.000
G1 X71.430 Y-18.430 F750.000
G1 X71.821 Y-18.458 F750.000
G1 X72.211 Y-18.470 F750.000
G1 X72.602 Y-18.454 F750.000
G1 X72.992 Y-18.414 F750.000
G1 X73.378 Y-18.355 F750.000
G1 X73.761 Y-18.271 F750.000
G1 X74.135 Y-18.151 F750.000
G1 X74.506 Y-18.016 F750.000
G1 X74.865 Y-17.853 F750.000
G1 X75.211 Y-17.665 F750.000
G1 X75.546 Y-17.454 F750.000
G1 X75.865 Y-17.223 F750.000
G1 X76.167 Y-16.968 F750.000
G1 X76.458 Y-16.705 F750.000
G1 X76.729 Y-16.418 F750.000
G1 X76.984 Y-16.116 F750.000
G1 X77.223 Y-15.801 F750.000
G1 X77.438 Y-15.470 F750.000
G1 X77.633 Y-15.127 F750.000
G1 X77.809 Y-14.773 F750.000
G1 X77.964 Y-14.410 F750.000
G1 X78.096 Y-14.036 F750.000
G1 X78.207 Y-13.657 F750.000
G1 X78.279 Y-13.267 F750.000
G1 X78.331 Y-12.873 F750.000
G1 X78.363 Y-12.478 F750.000
G1 X78.371 Y-12.084 F750.000
G1 X78.355 Y-11.689 F750.000
G1 X78.315 Y-11.295 F750.000
G1 X78.255 Y-10.904 F750.000
G1 X78.171 Y-10.518 F750.000
G1 X78.048 Y-10.139 F750.000
G1 X77.908 Y-9.777 F750.000
G1 X77.749 Y-9.414 F750.000
G1 X77.570 Y-9.060 F750.000
G1 X77.371 Y-8.717 F750.000
G1 X77.151 Y-8.386 F750.000
G1 X76.900 Y-8.076 F750.000
G1 X76.637 Y-7.777 F750.000
G1 X76.355 Y-7.498 F750.000
G1 X76.052 Y-7.239 F750.000
G1 X75.733 Y-7.000 F750.000
G1 X75.406 Y-6.773 F750.000
G1 X75.064 Y-6.574 F750.000
G1 X74.709 Y-6.394 F750.000
G1 X74.347 Y-6.231 F750.000
G1 X73.976 Y-6.096 F750.000
G1 X73.598 Y-5.972 F750.000
G1 X73.215 Y-5.873 F750.000
G1 X72.825 Y-5.797 F750.000
G1 X72.430 Y-5.753 F750.000
G1 X72.036 Y-5.725 F750.000
G1 X71.641 Y-5.725 F750.000
G1 X71.247 Y-5.753 F750.000
G1 X70.857 Y-5.817 F750.000
G1 X70.482 Y-5.900 F750.000
G1 X70.100 Y-6.000 F750.000
G1 X69.725 Y-6.124 F750.000
G1 X69.359 Y-6.267 F750.000
G1 X69.004 Y-6.442 F750.000
G1 X68.657 Y-6.633 F750.000
G1 X68.323 Y-6.841 F750.000
G1 X68.000 Y-7.068 F750.000
G1 X67.689 Y-7.311 F750.000
G1 X67.390 Y-7.570 F750.000
G1 X67.108 Y-7.845 F750.000
G1 X66.841 Y-8.135 F750.000
G1 X66.598 Y-8.446 F750.000
G1 X66.371 Y-8.769 F750.000
G1 X66.175 Y-9.112 F750.000
G1 X66.000 Y-9.462 F750.000
G1 X65.845 Y-9.825 F750.000
G1 X65.709 Y-10.195 F750.000
G1 X65.602 Y-10.574 F750.000
G1 X65.518 Y-10.956 F750.000
G1 X65.446 Y-11.343 F750.000
G1 X65.406 Y-11.733 F750.000
G1 X65.386 Y-12.124 F750.000
G1 X65.386 Y-12.514 F750.000
G1 X65.410 Y-12.904 F750.000
G1 X65.458 Y-13.295 F750.000
G1 X65.526 Y-13.681 F750.000
G1 X65.618 Y-14.064 F750.000
G1 X65.729 Y-14.438 F750.000
G1 X65.865 Y-14.805 F750.000
G1 X66.020 Y-15.163 F750.000
G1 X66.195 Y-15.514 F750.000
G1 X66.390 Y-15.853 F750.000
G1 X66.606 Y-16.179 F750.000
G1 X66.837 Y-16.494 F750.000
G1 X67.100 Y-16.785 F750.000
G1 X67.375 Y-17.064 F750.000
G1 X67.669 Y-17.323 F750.000
G1 X67.976 Y-17.566 F750.000
G1 X68.295 Y-17.797 F750.000
G1 X68.625 Y-18.004 F750.000
G1 X68.964 Y-18.199 F750.000
G1 X69.315 Y-18.375 F750.000
G1 X69.673 Y-18.530 F750.000
G1 X70.040 Y-18.665 F750.000
G1 X70.414 Y-18.781 F750.000
G1 X70.797 Y-18.861 F750.000
G1 X71.183 Y-18.924 F750.000
G1 X71.574 Y-18.964 F750.000
G1 X71.964 Y-18.984 F750.000
G1 X72.355 Y-18.980 F750.000
G1 X72.745 Y-18.960 F750.000
G1 X73.135 Y-18.916 F750.000
G1 X73.522 Y-18.853 F750.000
G1 X73.904 Y-18.761 F750.000
G1 X74.283 Y-18.653 F750.000
G1 X74.653 Y-18.522 F750.000
G1 X75.008 Y-18.355 F750.000
G1 X75.359 Y-18.171 F750.000
G1 X75.693 Y-17.964 F750.000
G1 X76.020 Y-17.741 F750.000
G1 X76.331 Y-17.498 F750.000
G1 X76.625 Y-17.235 F750.000
G1 X76.912 Y-16.964 F750.000
G1 X77.179 Y-16.673 F750.000
G1 X77.430 Y-16.367 F750.000
G1 X77.665 Y-16.048 F750.000
G1 X77.880 Y-15.717 F750.000
G1 X78.080 Y-15.375 F750.000
G1 X78.259 Y-15.024 F750.000
G1 X78.418 Y-14.661 F750.000
G1 X78.558 Y-14.291 F750.000
G1 X78.661 Y-13.908 F750.000
G1 X78.749 Y-13.522 F750.000
G1 X78.813 Y-13.131 F750.000
G1 X78.861 Y-12.737 F750.000
G1 X78.880 Y-12.343 F750.000
G1 X78.880 Y-11.948 F750.000
G1 X78.857 Y-11.554 F750.000
G1 X78.809 Y-11.159 F750.000
G1 X78.741 Y-10.769 F750.000
G1 X78.653 Y-10.382 F750.000
G1 X78.542 Y-10.000 F750.000
G1 X78.410 Y-9.625 F750.000
G1 X78.255 Y-9.259 F750.000
G1 X78.080 Y-8.900 F750.000
G1 X77.884 Y-8.554 F750.000
G1 X77.673 Y-8.219 F750.000
G1 X77.442 Y-7.896 F750.000
G1 X77.179 Y-7.598 F750.000
G1 X76.904 Y-7.311 F750.000
G1 X76.618 Y-7.036 F750.000
G1 X76.315 Y-6.781 F750.000
G1 X75.996 Y-6.542 F750.000
G1 X75.665 Y-6.319 F750.000
G1 X75.323 Y-6.116 F750.000
G1 X74.972 Y-5.932 F750.000
G1 X74.610 Y-5.769 F750.000
G1 X74.239 Y-5.625 F750.000
G1 X73.861 Y-5.502 F750.000
G1 X73.478 Y-5.398 F750.000
G1 X73.092 Y-5.315 F750.000
G1 X72.701 Y-5.255 F750.000
G1 X72.307 Y-5.215 F750.000
G1 X71.912 Y-5.199 F750.000
G1 X71.518 Y-5.203 F750.000
G1 X71.124 Y-5.231 F750.000
G1 X70.733 Y-5.291 F750.000
G1 X70.343 Y-5.367 F750.000
G1 X69.960 Y-5.466 F750.000
G1 X69.586 Y-5.594 F750.000
G1 X69.219 Y-5.741 F750.000
G1 X68.861 Y-5.904 F750.000
G1 X68.514 Y-6.092 F750.000
G1 X68.171 Y-6.291 F750.000
G1 X67.841 Y-6.510 F750.000
G1 X67.526 Y-6.745 F750.000
G1 X67.219 Y-6.996 F750.000
G1 X66.928 Y-7.263 F750.000
G1 X66.649 Y-7.542 F750.000
G1 X66.386 Y-7.837 F750.000
G1 X66.139 Y-8.143 F750.000
G1 X65.920 Y-8.470 F750.000
G1 X65.713 Y-8.805 F750.000
G1 X65.538 Y-9.159 F750.000
G1 X65.382 Y-9.522 F750.000
G1 X65.251 Y-9.892 F750.000
G1 X65.131 Y-10.267 F750.000
G1 X65.032 Y-10.645 F750.000
G1 X64.952 Y-11.032 F750.000
G1 X64.888 Y-11.418 F750.000
G1 X64.845 Y-11.809 F750.000
G1 X64.833 Y-12.199 F750.000
G1 X64.837 Y-12.590 F750.000
G1 X64.865 Y-12.980 F750.000
G1 X64.916 Y-13.371 F750.000
G1 X64.988 Y-13.757 F750.000
G1 X65.084 Y-14.139 F750.000
G1 X65.191 Y-14.518 F750.000
G1 X65.323 Y-14.888 F750.000
G1 X65.474 Y-15.251 F750.000
G1 X65.641 Y-15.606 F750.000
G1 X65.829 Y-15.952 F750.000
G1 X66.032 Y-16.287 F750.000
G1 X66.251 Y-16.610 F750.000
G1 X66.502 Y-16.912 F750.000
G1 X66.761 Y-17.203 F750.000
G1 X67.040 Y-17.478 F750.000
G1 X67.331 Y-17.737 F750.000
G1 X67.637 Y-17.980 F750.000
G1 X67.952 Y-18.211 F750.000
G1 X68.283 Y-18.422 F750.000
G1 X68.622 Y-18.618 F750.000
G1 X68.968 Y-18.797 F750.000
G1 X69.327 Y-18.956 F750.000
G1 X69.693 Y-19.100 F750.000
G1 X70.064 Y-19.223 F750.000
G1 X70.442 Y-19.327 F750.000
G1 X70.825 Y-19.410 F750.000
G1 X71.215 Y-19.462 F750.000
G1 X71.606 Y-19.502 F750.000
G1 X71.996 Y-19.518 F750.000
G1 X72.386 Y-19.514 F750.000
G1 X72.777 Y-19.486 F750.000
G1 X73.167 Y-19.438 F750.000
G1 X73.554 Y-19.371 F750.000
G1 X73.936 Y-19.283 F750.000
G1 X74.315 Y-19.175 F750.000
G1 X74.685 Y-19.048 F750.000
G1 X75.048 Y-18.900 F750.000
G1 X75.402 Y-18.733 F750.000
G1 X75.749 Y-18.546 F750.000
G1 X76.080 Y-18.335 F750.000
G1 X76.402 Y-18.108 F750.000
G1 X76.709 Y-17.861 F750.000
G1 X77.004 Y-17.598 F750.000
G1 X77.283 Y-17.319 F750.000
G1 X77.554 Y-17.032 F750.000
G1 X77.805 Y-16.729 F750.000
G1 X78.040 Y-16.414 F750.000
G1 X78.263 Y-16.088 F750.000
G1 X78.466 Y-15.749 F750.000
G1 X78.653 Y-15.402 F750.000
G1 X78.825 Y-15.048 F750.000
G1 X78.964 Y-14.677 F750.000
G1 X79.088 Y-14.303 F750.000
G1 X79.187 Y-13.920 F750.000
G1 X79.271 Y-13.534 F750.000
G1 X79.331 Y-13.143 F750.000
G1 X79.371 Y-12.749 F750.000
G1 X79.390 Y-12.355 F750.000
G1 X79.394 Y-11.960 F750.000
G1 X79.375 Y-11.566 F750.000
G1 X79.339 Y-11.171 F750.000
G1 X79.283 Y-10.777 F750.000
G1 X79.207 Y-10.386 F750.000
G1 X79.100 Y-10.004 F750.000
G1 X78.980 Y-9.625 F750.000
G1 X78.837 Y-9.255 F750.000
G1 X78.669 Y-8.896 F750.000
G1 X78.486 Y-8.546 F750.000
G1 X78.291 Y-8.199 F750.000
G1 X78.072 Y-7.869 F750.000
G1 X77.837 Y-7.550 F750.000
G1 X77.574 Y-7.251 F750.000
G1 X77.299 Y-6.964 F750.000
G1 X77.012 Y-6.689 F750.000
G1 X76.713 Y-6.426 F750.000
G1 X76.402 Y-6.179 F750.000
G1 X76.080 Y-5.948 F750.000
G1 X75.745 Y-5.733 F750.000
G1 X75.402 Y-5.534 F750.000
G1 X75.040 Y-5.367 F750.000
G1 X74.673 Y-5.211 F750.000
G1 X74.299 Y-5.080 F750.000
G1 X73.920 Y-4.960 F750.000
G1 X73.534 Y-4.865 F750.000
G1 X73.147 Y-4.781 F750.000
G1 X72.757 Y-4.717 F750.000
G1 X72.363 Y-4.673 F750.000
G1 X71.968 Y-4.657 F750.000
G1 X71.574 Y-4.653 F750.000
G1 X71.179 Y-4.673 F750.000
G1 X70.785 Y-4.717 F750.000
G1 X70.394 Y-4.789 F750.000
G1 X70.008 Y-4.876 F750.000
G1 X69.629 Y-4.988 F750.000
G1 X69.259 Y-5.127 F750.000
G1 X68.538 Y-5.454 F750.000
G1 X67.849 Y-5.845 F750.000
G1 X67.518 Y-6.064 F750.000
G1 X67.199 Y-6.299 F750.000
G1 X66.888 Y-6.546 F750.000
G1 X66.594 Y-6.805 F750.000
G1 X66.311 Y-7.080 F750.000
G1 X65.801 Y-7.677 F750.000
G1 X65.570 Y-7.996 F750.000
G1 X65.359 Y-8.327 F750.000
G1 X65.163 Y-8.669 F750.000
G1 X64.988 Y-9.020 F750.000
G1 X64.833 Y-9.382 F750.000
G1 X64.697 Y-9.753 F750.000
G1 X64.582 Y-10.127 F750.000
G1 X64.406 Y-10.892 F750.000
G1 X64.351 Y-11.283 F750.000
G1 X64.311 Y-11.673 F750.000
G1 X64.287 Y-12.064 F750.000
G1 X64.287 Y-12.454 F750.000
G1 X64.303 Y-12.845 F750.000
G1 X64.339 Y-13.235 F750.000
G1 X64.394 Y-13.622 F750.000
G1 X64.470 Y-14.008 F750.000
G1 X64.566 Y-14.390 F750.000
G1 X64.677 Y-14.765 F750.000
G1 X64.809 Y-15.135 F750.000
G1 X64.956 Y-15.498 F750.000
G1 X65.124 Y-15.853 F750.000
G1 X65.319 Y-16.191 F750.000
G1 X65.526 Y-16.522 F750.000
G1 X65.753 Y-16.841 F750.000
G1 X65.996 Y-17.147 F750.000
G1 X66.255 Y-17.442 F750.000
G1 X66.530 Y-17.721 F750.000
G1 X66.817 Y-17.988 F750.000
G1 X67.112 Y-18.247 F750.000
G1 X67.422 Y-18.486 F750.000
G1 X67.741 Y-18.713 F750.000
G1 X68.072 Y-18.924 F750.000
G1 X68.410 Y-19.120 F750.000
G1 X68.757 Y-19.299 F750.000
G1 X69.112 Y-19.462 F750.000
G1 X69.474 Y-19.610 F750.000
G1 X69.849 Y-19.725 F750.000
G1 X70.227 Y-19.829 F750.000
G1 X70.610 Y-19.908 F750.000
G1 X70.996 Y-19.972 F750.000
G1 X71.386 Y-20.016 F750.000
G1 X71.777 Y-20.040 F750.000
G1 X72.167 Y-20.044 F750.000
G1 X72.558 Y-20.028 F750.000
G1 X72.948 Y-19.992 F750.000
G1 X73.339 Y-19.940 F750.000
G1 X73.725 Y-19.869 F750.000
G1 X74.108 Y-19.777 F750.000
G1 X74.486 Y-19.665 F750.000
G1 X74.857 Y-19.538 F750.000
G1 X75.223 Y-19.390 F750.000
G1 X75.582 Y-19.227 F750.000
G1 X75.932 Y-19.044 F750.000
G1 X76.271 Y-18.845 F750.000
G1 X76.594 Y-18.622 F750.000
G1 X76.908 Y-18.386 F750.000
G1 X77.211 Y-18.131 F750.000
G1 X77.498 Y-17.861 F750.000
G1 X77.769 Y-17.574 F750.000
G1 X78.032 Y-17.279 F750.000
G1 X78.514 Y-16.653 F750.000
G1 X78.733 Y-16.327 F750.000
G1 X78.936 Y-15.988 F750.000
G1 X79.120 Y-15.637 F750.000
G1 X79.291 Y-15.279 F750.000
G1 X79.442 Y-14.912 F750.000
G1 X79.574 Y-14.542 F750.000
G1 X79.673 Y-14.159 F750.000
G1 X79.761 Y-13.773 F750.000
G1 X79.833 Y-13.382 F750.000
G1 X79.880 Y-12.988 F750.000
G1 X79.908 Y-12.594 F750.000
G1 X79.920 Y-12.199 F750.000
G1 X79.912 Y-11.805 F750.000
G1 X79.892 Y-11.410 F750.000
G1 X79.853 Y-11.016 F750.000
G1 X79.781 Y-10.625 F750.000
G1 X79.697 Y-10.239 F750.000
G1 X79.602 Y-9.853 F750.000
G1 X79.478 Y-9.474 F750.000
G1 X79.343 Y-9.100 F750.000
G1 X79.187 Y-8.733 F750.000
G1 X79.012 Y-8.375 F750.000
G1 X78.809 Y-8.032 F750.000
G1 X78.594 Y-7.697 F750.000
G1 X78.359 Y-7.378 F750.000
G1 X78.112 Y-7.068 F750.000
G1 X77.845 Y-6.773 F750.000
G1 X77.566 Y-6.490 F750.000
G1 X77.279 Y-6.215 F750.000
G1 X76.976 Y-5.956 F750.000
G1 X76.661 Y-5.713 F750.000
G1 X76.339 Y-5.482 F750.000
G1 X76.004 Y-5.267 F750.000
G1 X75.661 Y-5.068 F750.000
G1 X75.307 Y-4.892 F750.000
G1 X74.944 Y-4.729 F750.000
G1 X74.574 Y-4.586 F750.000
G1 X74.195 Y-4.466 F750.000
G1 X73.813 Y-4.363 F750.000
G1 X73.426 Y-4.279 F750.000
G1 X73.036 Y-4.207 F750.000
G1 X72.641 Y-4.159 F750.000
G1 X72.247 Y-4.127 F750.000
G1 X71.853 Y-4.112 F750.000
G1 X71.458 Y-4.116 F750.000
G1 X71.064 Y-4.135 F750.000
G1 X70.669 Y-4.183 F750.000
G1 X70.279 Y-4.247 F750.000
G1 X69.892 Y-4.331 F750.000
G1 X69.514 Y-4.446 F750.000
G1 X69.139 Y-4.574 F750.000
G1 X68.773 Y-4.725 F750.000
G1 X68.414 Y-4.888 F750.000
G1 X68.064 Y-5.072 F750.000
G1 X67.721 Y-5.267 F750.000
G1 X67.386 Y-5.478 F750.000
G1 X67.064 Y-5.705 F750.000
G1 X66.749 Y-5.944 F750.000
G1 X66.446 Y-6.199 F750.000
G1 X66.155 Y-6.466 F750.000
G1 X65.876 Y-6.745 F750.000
G1 X65.610 Y-7.036 F750.000
G1 X65.359 Y-7.339 F750.000
G1 X64.912 Y-7.988 F750.000
G1 X64.713 Y-8.327 F750.000
G1 X64.534 Y-8.677 F750.000
G1 X64.375 Y-9.036 F750.000
G1 X64.235 Y-9.402 F750.000
G1 X64.108 Y-9.773 F750.000
G1 X64.000 Y-10.151 F750.000
G1 X63.912 Y-10.534 F750.000
G1 X63.841 Y-10.920 F750.000
G1 X63.789 Y-11.311 F750.000
G1 X63.749 Y-11.701 F750.000
G1 X63.729 Y-12.092 F750.000
G1 X63.725 Y-12.482 F750.000
G1 X63.737 Y-12.873 F750.000
G1 X63.769 Y-13.263 F750.000
G1 X63.833 Y-13.649 F750.000
G1 X63.908 Y-14.036 F750.000
G1 X63.996 Y-14.418 F750.000
G1 X64.104 Y-14.797 F750.000
G1 X64.227 Y-15.167 F750.000
G1 X64.367 Y-15.534 F750.000
G1 X64.522 Y-15.892 F750.000
G1 X64.904 Y-16.574 F750.000
G1 X65.120 Y-16.900 F750.000
G1 X65.351 Y-17.215 F750.000
G1 X65.598 Y-17.518 F750.000
G1 X65.861 Y-17.809 F750.000
G1 X66.131 Y-18.092 F750.000
G1 X66.418 Y-18.359 F750.000
G1 X66.717 Y-18.614 F750.000
G1 X67.024 Y-18.857 F750.000
G1 X67.339 Y-19.088 F750.000
G1 X67.665 Y-19.303 F750.000
G1 X68.000 Y-19.506 F750.000
G1 X68.343 Y-19.697 F750.000
G1 X68.693 Y-19.873 F750.000
G1 X69.056 Y-20.024 F750.000
G1 X69.422 Y-20.163 F750.000
G1 X69.801 Y-20.271 F750.000
G1 X70.183 Y-20.363 F750.000
G1 X70.566 Y-20.442 F750.000
G1 X70.952 Y-20.502 F750.000
G1 X71.343 Y-20.542 F750.000
G1 X71.733 Y-20.566 F750.000
G1 X72.124 Y-20.574 F750.000
G1 X72.514 Y-20.562 F750.000
G1 X72.904 Y-20.534 F750.000
G1 X73.295 Y-20.486 F750.000
G1 X73.681 Y-20.418 F750.000
G1 X74.064 Y-20.335 F750.000
G1 X74.442 Y-20.235 F750.000
G1 X74.817 Y-20.116 F750.000
G1 X75.187 Y-19.980 F750.000
G1 X75.550 Y-19.829 F750.000
G1 X75.904 Y-19.661 F750.000
G1 X76.251 Y-19.478 F750.000
G1 X76.590 Y-19.279 F750.000
G1 X77.219 Y-18.809 F750.000
G1 X77.522 Y-18.558 F750.000
G1 X77.813 Y-18.291 F750.000
G1 X78.088 Y-18.008 F750.000
G1 X78.351 Y-17.717 F750.000
G1 X78.845 Y-17.100 F750.000
G1 X79.072 Y-16.777 F750.000
G1 X79.287 Y-16.446 F750.000
G1 X79.653 Y-15.745 F750.000
G1 X79.813 Y-15.382 F750.000
G1 X79.956 Y-15.016 F750.000
G1 X80.084 Y-14.641 F750.000
G1 X80.195 Y-14.263 F750.000
G1 X80.283 Y-13.876 F750.000
G1 X80.355 Y-13.486 F750.000
G1 X80.406 Y-13.092 F750.000
G1 X80.438 Y-12.697 F750.000
G1 X80.454 Y-11.908 F750.000
G1 X80.434 Y-11.514 F750.000
G1 X80.398 Y-11.120 F750.000
G1 X80.347 Y-10.725 F750.000
G1 X80.275 Y-10.335 F750.000
G1 X80.187 Y-9.948 F750.000
G1 X80.084 Y-9.566 F750.000
G1 X79.964 Y-9.187 F750.000
G1 X79.817 Y-8.817 F750.000
G1 X79.657 Y-8.454 F750.000
G1 X79.478 Y-8.100 F750.000
G1 X79.279 Y-7.757 F750.000
G1 X79.064 Y-7.422 F750.000
G1 X78.833 Y-7.100 F750.000
G1 X78.586 Y-6.789 F750.000
G1 X78.323 Y-6.490 F750.000
G1 X78.052 Y-6.199 F750.000
G1 X77.765 Y-5.924 F750.000
G1 X77.466 Y-5.661 F750.000
G1 X77.159 Y-5.410 F750.000
G1 X76.514 Y-4.948 F750.000
G1 X76.175 Y-4.737 F750.000
G1 X75.829 Y-4.542 F750.000
G1 X75.478 Y-4.359 F750.000
G1 X74.741 Y-4.064 F750.000
G1 X74.363 Y-3.940 F750.000
G1 X73.980 Y-3.833 F750.000
G1 X73.594 Y-3.745 F750.000
G1 X73.203 Y-3.673 F750.000
G1 X72.809 Y-3.622 F750.000
G1 X72.414 Y-3.586 F750.000
G1 X72.020 Y-3.562 F750.000
G1 X71.625 Y-3.558 F750.000
G1 X71.231 Y-3.570 F750.000
G1 X70.837 Y-3.598 F750.000
G1 X70.442 Y-3.649 F750.000
G1 X70.052 Y-3.717 F750.000
G1 X69.669 Y-3.821 F750.000
G1 X68.916 Y-4.068 F750.000
G1 X68.550 Y-4.215 F750.000
G1 X68.191 Y-4.378 F750.000
G1 X67.837 Y-4.558 F750.000
G1 X67.494 Y-4.753 F750.000
G1 X67.159 Y-4.960 F750.000
G1 X66.833 Y-5.183 F750.000
G1 X66.518 Y-5.418 F750.000
G1 X66.211 Y-5.669 F750.000
G1 X65.916 Y-5.932 F750.000
G1 X65.629 Y-6.203 F750.000
G1 X65.355 Y-6.486 F750.000
G1 X65.092 Y-6.781 F750.000
G1 X64.622 Y-7.410 F750.000
G1 X64.406 Y-7.741 F750.000
G1 X64.211 Y-8.084 F750.000
G1 X64.028 Y-8.434 F750.000
G1 X63.865 Y-8.793 F750.000
G1 X63.717 Y-9.159 F750.000
G1 X63.586 Y-9.530 F750.000
G1 X63.474 Y-9.908 F750.000
G1 X63.382 Y-10.291 F750.000
G1 X63.307 Y-10.677 F750.000
G1 X63.203 Y-11.458 F750.000
G1 X63.171 Y-11.849 F750.000
G1 X63.155 Y-12.239 F750.000
G1 X63.151 Y-12.629 F750.000
G1 X63.223 Y-13.410 F750.000
G1 X63.287 Y-13.797 F750.000
G1 X63.363 Y-14.183 F750.000
G1 X63.454 Y-14.566 F750.000
G1 X63.566 Y-14.940 F750.000
G1 X63.689 Y-15.311 F750.000
G1 X63.833 Y-15.677 F750.000
G1 X63.988 Y-16.036 F750.000
G1 X64.159 Y-16.386 F750.000
G1 X64.347 Y-16.729 F750.000
G1 X64.550 Y-17.064 F750.000
G1 X65.028 Y-17.685 F750.000
G1 X65.279 Y-17.988 F750.000
G1 X65.542 Y-18.279 F750.000
G1 X65.817 Y-18.558 F750.000
G1 X66.104 Y-18.825 F750.000
G1 X66.398 Y-19.080 F750.000
G1 X66.705 Y-19.323 F750.000
G1 X67.020 Y-19.554 F750.000
G1 X67.343 Y-19.773 F750.000
G1 X67.677 Y-19.980 F750.000
G1 X68.020 Y-20.171 F750.000
G1 X68.733 Y-20.490 F750.000
G1 X69.100 Y-20.625 F750.000
G1 X69.474 Y-20.745 F750.000
G1 X69.853 Y-20.849 F750.000
G1 X70.235 Y-20.932 F750.000
G1 X70.622 Y-21.000 F750.000
G1 X71.402 Y-21.088 F750.000
G1 X71.793 Y-21.108 F750.000
G1 X72.183 Y-21.112 F750.000
G1 X72.574 Y-21.100 F750.000
G1 X72.964 Y-21.068 F750.000
G1 X73.355 Y-21.024 F750.000
G1 X73.741 Y-20.964 F750.000
G1 X74.127 Y-20.888 F750.000
G1 X74.506 Y-20.781 F750.000
G1 X75.251 Y-20.534 F750.000
G1 X75.618 Y-20.386 F750.000
G1 X75.976 Y-20.223 F750.000
G1 X76.331 Y-20.048 F750.000
G1 X76.669 Y-19.849 F750.000
G1 X77.004 Y-19.637 F750.000
G1 X77.327 Y-19.410 F750.000
G1 X77.637 Y-19.167 F750.000
G1 X77.936 Y-18.912 F750.000
G1 X78.223 Y-18.641 F750.000
G1 X78.761 Y-18.064 F750.000
G1 X79.016 Y-17.765 F750.000
G1 X79.486 Y-17.135 F750.000
G1 X79.693 Y-16.797 F750.000
G1 X79.888 Y-16.454 F750.000
G1 X80.068 Y-16.104 F750.000
G1 X80.235 Y-15.745 F750.000
G1 X80.386 Y-15.378 F750.000
G1 X80.522 Y-15.008 F750.000
G1 X80.645 Y-14.633 F750.000
G1 X80.749 Y-14.251 F750.000
G1 X80.837 Y-13.865 F750.000
G1 X80.900 Y-13.474 F750.000
G1 X80.948 Y-13.080 F750.000
G1 X80.976 Y-12.685 F750.000
G1 X80.992 Y-12.291 F750.000
G1 X80.988 Y-11.896 F750.000
G1 X80.968 Y-11.502 F750.000
G1 X80.932 Y-11.108 F750.000
G1 X80.813 Y-10.323 F750.000
G1 X80.729 Y-9.936 F750.000
G1 X80.633 Y-9.550 F750.000
G1 X80.522 Y-9.167 F750.000
G1 X80.394 Y-8.793 F750.000
G1 X80.068 Y-8.072 F750.000
G1 X79.880 Y-7.721 F750.000
G1 X79.677 Y-7.378 F750.000
G1 X79.458 Y-7.048 F750.000
G1 X79.223 Y-6.725 F750.000
G1 X78.976 Y-6.414 F750.000
G1 X78.713 Y-6.116 F750.000
G1 X77.175 Y-4.761 F750.000
G1 X75.869 Y-3.964 F750.000
G1 X74.841 Y-3.518 F750.000
G1 X73.693 Y-3.191 F750.000
G1 X71.908 Y-2.964 F750.000
G1 X70.825 Y-2.992 F750.000
G1 X69.996 Y-3.127 F750.000
G1 X69.614 Y-3.227 F750.000
G1 X69.235 Y-3.343 F750.000
G1 X68.861 Y-3.474 F750.000
G1 X68.124 Y-3.769 F750.000
G1 X67.765 Y-3.936 F750.000
G1 X67.076 Y-4.327 F750.000
G1 X66.745 Y-4.538 F750.000
G1 X66.108 Y-5.008 F750.000
G1 X65.510 Y-5.522 F750.000
G1 X65.227 Y-5.797 F750.000
G1 X64.952 Y-6.080 F750.000
G1 X64.689 Y-6.371 F750.000
G1 X64.438 Y-6.673 F750.000
G1 X63.996 Y-7.323 F750.000
G1 X63.797 Y-7.661 F750.000
G1 X63.610 Y-8.008 F750.000
G1 X63.438 Y-8.363 F750.000
G1 X63.283 Y-8.725 F750.000
G1 X63.143 Y-9.092 F750.000
G1 X63.020 Y-9.466 F750.000
G1 X62.912 Y-9.845 F750.000
G1 X62.821 Y-10.227 F750.000
G1 X62.745 Y-10.614 F750.000
G1 X62.641 Y-11.394 F750.000
G1 X62.606 Y-11.785 F750.000
G1 X62.586 Y-12.175 F750.000
G1 X62.602 Y-12.956 F750.000
G1 X62.641 Y-13.347 F750.000
G1 X62.697 Y-13.737 F750.000
G1 X62.769 Y-14.124 F750.000
G1 X62.861 Y-14.506 F750.000
G1 X63.084 Y-15.259 F750.000
G1 X63.211 Y-15.629 F750.000
G1 X63.355 Y-15.992 F750.000
G1 X63.510 Y-16.351 F750.000
G1 X63.884 Y-17.040 F750.000
G1 X64.092 Y-17.371 F750.000
G1 X64.319 Y-17.689 F750.000
G1 X64.558 Y-18.000 F750.000
G1 X64.813 Y-18.299 F750.000
G1 X65.076 Y-18.590 F750.000
G1 X65.351 Y-18.869 F750.000
G1 X65.633 Y-19.139 F750.000
G1 X65.924 Y-19.398 F750.000
G1 X66.825 Y-20.084 F750.000
G1 X67.976 Y-20.749 F750.000
G1 X68.809 Y-21.104 F750.000
G1 X69.179 Y-21.227 F750.000
G1 X69.558 Y-21.335 F750.000
G1 X70.323 Y-21.498 F750.000
G1 X70.709 Y-21.562 F750.000
G1 X71.100 Y-21.606 F750.000
G1 X71.490 Y-21.637 F750.000
G1 X71.880 Y-21.653 F750.000
G1 X72.271 Y-21.653 F750.000
G1 X72.661 Y-21.637 F750.000
G1 X73.052 Y-21.606 F750.000
G1 X73.442 Y-21.558 F750.000
G1 X73.829 Y-21.494 F750.000
G1 X74.215 Y-21.414 F750.000
G1 X74.598 Y-21.323 F750.000
G1 X74.976 Y-21.215 F750.000
G1 X75.351 Y-21.092 F750.000
G1 X75.717 Y-20.952 F750.000
G1 X76.430 Y-20.618 F750.000
G1 X76.777 Y-20.426 F750.000
G1 X77.112 Y-20.219 F750.000
G1 X77.438 Y-19.996 F750.000
G1 X77.753 Y-19.761 F750.000
G1 X78.355 Y-19.251 F750.000
G1 X78.916 Y-18.697 F750.000
G1 X79.183 Y-18.406 F750.000
G1 X79.685 Y-17.797 F750.000
G1 X80.116 Y-17.131 F750.000
G1 X80.311 Y-16.789 F750.000
G1 X80.494 Y-16.438 F750.000
G1 X80.825 Y-15.721 F750.000
G1 X80.972 Y-15.355 F750.000
G1 X81.108 Y-14.984 F750.000
G1 X81.307 Y-14.219 F750.000
G1 X81.382 Y-13.829 F750.000
G1 X81.442 Y-13.438 F750.000
G1 X81.486 Y-13.044 F750.000
G1 X81.526 Y-12.255 F750.000
G1 X81.522 Y-11.861 F750.000
G1 X81.506 Y-11.466 F750.000
G1 X81.474 Y-11.072 F750.000
G1 X81.426 Y-10.677 F750.000
G1 X81.363 Y-10.287 F750.000
G1 X81.287 Y-9.896 F750.000
G1 X81.195 Y-9.510 F750.000
G1 X80.542 Y-7.908 F750.000
G1 X79.988 Y-6.936 F750.000
G1 X79.120 Y-5.829 F750.000
G1 X78.355 Y-5.076 F750.000
G1 X77.231 Y-4.247 F750.000
G1 X76.068 Y-3.614 F750.000
G1 X75.227 Y-3.231 F750.000
G1 X74.143 Y-2.880 F750.000
G1 X73.315 Y-2.693 F750.000
G1 X72.741 Y-2.598 F750.000
G1 X71.466 Y-2.518 F750.000
G1 X70.829 Y-2.534 F750.000
G1 X69.108 Y-2.773 F750.000
G1 X68.155 Y-3.048 F750.000
G1 X67.562 Y-3.311 F750.000
G1 X65.928 Y-4.339 F750.000
G1 X64.681 Y-5.422 F750.000
G1 X63.940 Y-6.343 F750.000
G1 X63.506 Y-7.000 F750.000
G1 X63.303 Y-7.339 F750.000
G1 X63.116 Y-7.685 F750.000
G1 X62.797 Y-8.406 F750.000
G1 X62.653 Y-8.773 F750.000
G1 X62.530 Y-9.147 F750.000
G1 X62.418 Y-9.526 F750.000
G1 X62.235 Y-10.291 F750.000
G1 X62.163 Y-10.677 F750.000
G1 X62.108 Y-11.068 F750.000
G1 X62.064 Y-11.458 F750.000
G1 X62.032 Y-11.849 F750.000
G1 X62.016 Y-12.239 F750.000
G1 X62.012 Y-12.629 F750.000
G1 X62.076 Y-13.410 F750.000
G1 X62.131 Y-13.797 F750.000
G1 X62.207 Y-14.183 F750.000
G1 X62.295 Y-14.566 F750.000
G1 X62.394 Y-14.944 F750.000
G1 X62.506 Y-15.319 F750.000
G1 X62.769 Y-16.056 F750.000
G1 X62.916 Y-16.418 F750.000
G1 X63.279 Y-17.116 F750.000
G1 X63.478 Y-17.450 F750.000
G1 X63.697 Y-17.777 F750.000
G1 X63.928 Y-18.096 F750.000
G1 X64.422 Y-18.701 F750.000
G1 X64.960 Y-19.271 F750.000
G1 X65.243 Y-19.542 F750.000
G1 X65.869 Y-20.080 F750.000
G1 X65.980 Y-20.131 F750.000
G1 X66.339 Y-20.139 F750.000
G1 X66.339 Y-20.139 F750.000
G1 X66.351 Y-20.135 F750.000
G1 X66.355 Y-20.135 F750.000
G1 X66.398 Y-20.143 F750.000
G1 X66.398 Y-20.143 F750.000
G1 X66.637 Y-20.207 F750.000
G1 X66.637 Y-20.207 F750.000
G1 X66.733 Y-20.219 F750.000
G1 X66.765 Y-20.227 F750.000
G1 X66.936 Y-20.331 F750.000
G1 X66.936 Y-20.331 F750.000
G1 X67.191 Y-20.498 F750.000
G1 X67.367 Y-20.665 F750.000
G1 X67.653 Y-20.980 F750.000
G1 X68.116 Y-21.283 F750.000
G1 X68.633 Y-21.538 F750.000
G1 X68.996 Y-21.685 F750.000
G1 X69.367 Y-21.809 F750.000
G1 X69.745 Y-21.916 F750.000
G1 X70.127 Y-22.004 F750.000
G1 X70.514 Y-22.072 F750.000
G1 X70.900 Y-22.127 F750.000
G1 X71.291 Y-22.167 F750.000
G1 X71.681 Y-22.187 F750.000
G1 X72.072 Y-22.195 F750.000
G1 X72.462 Y-22.187 F750.000
G1 X72.853 Y-22.167 F750.000
G1 X73.243 Y-22.131 F750.000
G1 X73.633 Y-22.080 F750.000
G1 X74.020 Y-22.016 F750.000
G1 X74.406 Y-21.936 F750.000
G1 X74.789 Y-21.845 F750.000
G1 X75.534 Y-21.598 F750.000
G1 X76.263 Y-21.295 F750.000
G1 X76.618 Y-21.124 F750.000
G1 X76.964 Y-20.936 F750.000
G1 X77.303 Y-20.737 F750.000
G1 X77.633 Y-20.526 F750.000
G1 X77.956 Y-20.299 F750.000
G1 X78.558 Y-19.789 F750.000
G1 X78.853 Y-19.526 F750.000
G1 X79.135 Y-19.251 F750.000
G1 X79.406 Y-18.964 F750.000
G1 X79.669 Y-18.669 F750.000
G1 X80.163 Y-18.056 F750.000
G1 X80.590 Y-17.390 F750.000
G1 X80.785 Y-17.048 F750.000
G1 X81.143 Y-16.343 F750.000
G1 X81.454 Y-15.614 F750.000
G1 X81.582 Y-15.239 F750.000
G1 X81.697 Y-14.861 F750.000
G1 X81.797 Y-14.478 F750.000
G1 X81.880 Y-14.092 F750.000
G1 X81.948 Y-13.701 F750.000
G1 X82.012 Y-11.916 F750.000
G1 X81.873 Y-10.386 F750.000
G1 X81.633 Y-9.430 F750.000
G1 X81.438 Y-8.932 F750.000
G1 X81.139 Y-8.335 F750.000
G1 X80.689 Y-7.610 F750.000
G1 X79.303 Y-5.948 F750.000
G1 X79.255 Y-5.900 F750.000
G1 X79.255 Y-5.900 F750.000
G1 X79.139 Y-5.821 F750.000
G1 X79.076 Y-5.805 F750.000
G1 X79.044 Y-5.805 F750.000
G0 X79.016 Y-5.813
G0 X78.928 Y-5.888
G0 X67.673 Y-20.450
G1 X67.622 Y-20.518 F750.000
G1 X67.526 Y-20.657 F750.000
G1 X67.506 Y-20.749 F750.000
G1 X67.530 Y-20.880 F750.000
G1 X67.562 Y-20.944 F750.000
G1 X67.562 Y-20.944 F750.000
G1 X67.598 Y-20.996 F750.000
G1 X67.725 Y-21.271 F750.000
G1 X67.821 Y-21.422 F750.000
G1 X68.143 Y-21.701 F750.000
G1 X68.299 Y-21.805 F750.000
G1 X68.637 Y-22.004 F750.000
G1 X68.992 Y-22.171 F750.000
G1 X69.359 Y-22.315 F750.000
G1 X69.733 Y-22.426 F750.000
G1 X70.112 Y-22.522 F750.000
G1 X70.494 Y-22.598 F750.000
G1 X70.880 Y-22.657 F750.000
G1 X71.271 Y-22.701 F750.000
G1 X71.661 Y-22.725 F750.000
G1 X72.052 Y-22.737 F750.000
G1 X72.833 Y-22.717 F750.000
G1 X73.223 Y-22.685 F750.000
G1 X73.614 Y-22.641 F750.000
G1 X74.004 Y-22.586 F750.000
G1 X74.390 Y-22.514 F750.000
G1 X75.151 Y-22.315 F750.000
G1 X75.526 Y-22.195 F750.000
G1 X75.892 Y-22.056 F750.000
G1 X76.255 Y-21.904 F750.000
G1 X76.610 Y-21.737 F750.000
G1 X76.960 Y-21.554 F750.000
G1 X77.641 Y-21.155 F750.000
G1 X78.291 Y-20.709 F750.000
G1 X78.606 Y-20.470 F750.000
G1 X79.203 Y-19.960 F750.000
G1 X79.490 Y-19.689 F750.000
G1 X79.765 Y-19.406 F750.000
G1 X80.032 Y-19.116 F750.000
G1 X80.510 Y-18.490 F750.000
G1 X80.737 Y-18.167 F750.000
G1 X80.952 Y-17.837 F750.000
G1 X81.155 Y-17.498 F750.000
G1 X81.347 Y-17.151 F750.000
G1 X81.526 Y-16.797 F750.000
G1 X81.693 Y-16.438 F750.000
G1 X82.235 Y-14.625 F750.000
G1 X82.351 Y-13.988 F750.000
G1 X82.422 Y-13.032 F750.000
G1 X82.394 Y-12.076 F750.000
G1 X82.367 Y-11.693 F750.000
G1 X82.247 Y-11.056 F750.000
G1 X81.641 Y-9.343 F750.000
G1 X81.641 Y-9.343 F750.000
G1 X81.534 Y-9.203 F750.000
G1 X81.482 Y-9.175 F750.000
G0 X81.454 Y-9.171
G0 X81.359 Y-9.227
G0 X67.968 Y-20.896
G1 X67.900 Y-20.956 F750.000
G1 X67.773 Y-21.088 F750.000
G1 X67.721 Y-21.219 F750.000
G1 X67.725 Y-21.355 F750.000
G1 X67.725 Y-21.355 F750.000
G1 X67.817 Y-21.709 F750.000
G1 X67.873 Y-21.817 F750.000
G1 X68.163 Y-22.124 F750.000
G1 X68.307 Y-22.243 F750.000
G1 X68.629 Y-22.462 F750.000
G1 X68.976 Y-22.645 F750.000
G1 X69.307 Y-22.789 F750.000
G1 X69.637 Y-22.908 F750.000
G1 X70.016 Y-23.016 F750.000
G1 X70.398 Y-23.104 F750.000
G1 X70.785 Y-23.175 F750.000
G1 X71.175 Y-23.219 F750.000
G1 X71.956 Y-23.275 F750.000
G1 X72.347 Y-23.275 F750.000
G1 X72.737 Y-23.263 F750.000
G1 X73.518 Y-23.199 F750.000
G1 X73.908 Y-23.147 F750.000
G1 X74.295 Y-23.084 F750.000
G1 X74.681 Y-23.008 F750.000
G1 X75.064 Y-22.916 F750.000
G1 X75.809 Y-22.669 F750.000
G1 X76.175 Y-22.526 F750.000
G1 X76.538 Y-22.371 F750.000
G1 X76.892 Y-22.199 F750.000
G1 X77.239 Y-22.016 F750.000
G1 X77.920 Y-21.618 F750.000
G1 X78.251 Y-21.402 F750.000
G1 X78.892 Y-20.940 F750.000
G1 X79.502 Y-20.438 F750.000
G1 X79.785 Y-20.163 F750.000
G1 X80.649 Y-19.155 F750.000
G1 X81.709 Y-17.462 F750.000
G1 X82.267 Y-16.084 F750.000
G1 X82.347 Y-15.765 F750.000
G1 X82.394 Y-15.382 F750.000
G1 X82.426 Y-13.406 F750.000
G1 X82.426 Y-13.406 F750.000
G1 X82.394 Y-13.271 F750.000
G1 X82.363 Y-13.211 F750.000
G1 X82.343 Y-13.191 F750.000
G0 X82.319 Y-13.183
G0 X82.215 Y-13.215
G0 X68.088 Y-21.339
G1 X68.012 Y-21.382 F750.000
G1 X67.865 Y-21.482 F750.000
G1 X67.805 Y-21.566 F750.000
G1 X67.773 Y-21.733 F750.000
G1 X67.773 Y-21.733 F750.000
G1 X67.813 Y-22.032 F750.000
G1 X67.849 Y-22.147 F750.000
G1 X68.064 Y-22.446 F750.000
G1 X68.327 Y-22.697 F750.000
G1 X68.641 Y-22.932 F750.000
G1 X68.980 Y-23.131 F750.000
G1 X69.335 Y-23.299 F750.000
G1 X69.649 Y-23.418 F750.000
G1 X69.988 Y-23.522 F750.000
G1 X70.371 Y-23.614 F750.000
G1 X70.757 Y-23.689 F750.000
G1 X71.143 Y-23.749 F750.000
G1 X71.534 Y-23.789 F750.000
G1 X71.924 Y-23.813 F750.000
G1 X72.705 Y-23.813 F750.000
G1 X73.486 Y-23.757 F750.000
G1 X73.876 Y-23.709 F750.000
G1 X74.263 Y-23.645 F750.000
G1 X74.649 Y-23.570 F750.000
G1 X75.032 Y-23.482 F750.000
G1 X75.410 Y-23.378 F750.000
G1 X75.785 Y-23.263 F750.000
G1 X76.155 Y-23.135 F750.000
G1 X76.876 Y-22.817 F750.000
G1 X77.785 Y-22.319 F750.000
G1 X78.773 Y-21.669 F750.000
G1 X79.713 Y-20.904 F750.000
G1 X80.606 Y-19.916 F750.000
G1 X81.092 Y-19.151 F750.000
G1 X81.829 Y-17.522 F750.000
G1 X82.064 Y-16.924 F750.000
G1 X82.295 Y-16.116 F750.000
G1 X82.295 Y-16.112 F750.000
G1 X82.287 Y-15.940 F750.000
G1 X82.263 Y-15.888 F750.000
G0 X82.243 Y-15.876
G0 X82.139 Y-15.892
G0 X68.116 Y-21.689
G1 X68.040 Y-21.721 F750.000
G1 X67.884 Y-21.805 F750.000
G1 X67.821 Y-21.884 F750.000
G1 X67.777 Y-22.048 F750.000
G1 X67.777 Y-22.048 F750.000
G1 X67.797 Y-22.406 F750.000
G1 X67.845 Y-22.586 F750.000
G1 X68.012 Y-22.841 F750.000
G1 X68.303 Y-23.147 F750.000
G1 X68.606 Y-23.394 F750.000
G1 X68.936 Y-23.602 F750.000
G1 X69.275 Y-23.773 F750.000
G1 X69.570 Y-23.892 F750.000
G1 X69.888 Y-24.000 F750.000
G1 X70.267 Y-24.108 F750.000
G1 X70.649 Y-24.195 F750.000
G1 X71.036 Y-24.263 F750.000
G1 X71.426 Y-24.311 F750.000
G1 X71.817 Y-24.339 F750.000
G1 X72.207 Y-24.355 F750.000
G1 X72.598 Y-24.359 F750.000
G1 X72.988 Y-24.351 F750.000
G1 X73.378 Y-24.327 F750.000
G1 X73.769 Y-24.291 F750.000
G1 X74.159 Y-24.239 F750.000
G1 X74.546 Y-24.175 F750.000
G1 X75.311 Y-23.992 F750.000
G1 X76.733 Y-23.454 F750.000
G1 X77.554 Y-22.984 F750.000
G1 X78.275 Y-22.446 F750.000
G1 X79.582 Y-21.175 F750.000
G1 X80.219 Y-20.398 F750.000
G1 X80.219 Y-20.398 F750.000
G1 X80.279 Y-20.275 F750.000
G1 X80.287 Y-20.211 F750.000
G1 X80.283 Y-20.187 F750.000
G0 X80.271 Y-20.171
G0 X80.171 Y-20.163
G0 X68.120 Y-22.199
G1 X68.048 Y-22.211 F750.000
G1 X67.916 Y-22.239 F750.000
G1 X67.861 Y-22.279 F750.000
G1 X67.805 Y-22.363 F750.000
G1 X67.777 Y-22.494 F750.000
G1 X67.777 Y-22.494 F750.000
G1 X67.801 Y-22.912 F750.000
G1 X67.849 Y-23.088 F750.000
G1 X68.052 Y-23.390 F750.000
G1 X68.307 Y-23.649 F750.000
G1 X68.610 Y-23.896 F750.000
G1 X68.940 Y-24.104 F750.000
G1 X69.271 Y-24.275 F750.000
G1 X69.598 Y-24.410 F750.000
G1 X69.920 Y-24.526 F750.000
G1 X70.295 Y-24.637 F750.000
G1 X70.677 Y-24.725 F750.000
G1 X71.064 Y-24.789 F750.000
G1 X71.454 Y-24.841 F750.000
G1 X71.845 Y-24.876 F750.000
G1 X72.235 Y-24.900 F750.000
G1 X72.625 Y-24.904 F750.000
G1 X73.016 Y-24.896 F750.000
G1 X73.406 Y-24.873 F750.000
G1 X73.797 Y-24.833 F750.000
G1 X74.187 Y-24.777 F750.000
G1 X74.960 Y-24.633 F750.000
G1 X75.343 Y-24.542 F750.000
G1 X75.721 Y-24.438 F750.000
G1 X75.900 Y-24.371 F750.000
G1 X75.996 Y-24.287 F750.000
G1 X76.028 Y-24.231 F750.000
G1 X76.028 Y-24.231 F750.000
G1 X76.064 Y-24.100 F750.000
G1 X76.064 Y-24.036 F750.000
G1 X76.056 Y-24.008 F750.000
G0 X76.040 Y-23.988
G0 X75.936 Y-23.948
G0 X68.096 Y-22.777
G1 X68.036 Y-22.769 F750.000
G1 X67.916 Y-22.761 F750.000
G1 X67.861 Y-22.789 F750.000
G1 X67.805 Y-22.869 F750.000
G1 X67.777 Y-23.000 F750.000
G1 X67.777 Y-23.000 F750.000
G1 X67.797 Y-23.359 F750.000
G1 X67.857 Y-23.594 F750.000
G1 X68.104 Y-23.940 F750.000
G1 X68.319 Y-24.155 F750.000
G1 X68.622 Y-24.402 F750.000
G1 X68.948 Y-24.618 F750.000
G1 X69.295 Y-24.801 F750.000
G1 X69.618 Y-24.936 F750.000
G1 X69.936 Y-25.052 F750.000
G1 X70.311 Y-25.163 F750.000
G1 X70.693 Y-25.251 F750.000
G1 X71.080 Y-25.323 F750.000
G1 X71.466 Y-25.378 F750.000
G1 X71.857 Y-25.418 F750.000
G1 X72.247 Y-25.438 F750.000
G1 X73.028 Y-25.438 F750.000
G1 X73.418 Y-25.414 F750.000
G1 X73.809 Y-25.375 F750.000
G1 X74.586 Y-25.263 F750.000
G1 X74.972 Y-25.187 F750.000
G1 X75.355 Y-25.100 F750.000
G1 X75.749 Y-24.916 F750.000
G1 X75.789 Y-24.869 F750.000
G1 X75.896 Y-24.490 F750.000
G1 X75.980 Y-24.315 F750.000
G1 X75.980 Y-24.315 F750.000
G1 X76.016 Y-24.183 F750.000
G1 X76.016 Y-24.120 F750.000
G1 X76.008 Y-24.092 F750.000
G0 X75.992 Y-24.072
G0 X75.884 Y-24.040
G0 X68.096 Y-23.215
G1 X68.036 Y-23.211 F750.000
G1 X67.916 Y-23.207 F750.000
G1 X67.861 Y-23.235 F750.000
G1 X67.805 Y-23.315 F750.000
G1 X67.777 Y-23.446 F750.000
G1 X67.777 Y-23.446 F750.000
G1 X67.797 Y-23.865 F750.000
G1 X67.845 Y-24.044 F750.000
G1 X68.080 Y-24.398 F750.000
G1 X68.287 Y-24.622 F750.000
G1 X68.590 Y-24.873 F750.000
G1 X68.912 Y-25.096 F750.000
G1 X69.255 Y-25.287 F750.000
G1 X69.578 Y-25.426 F750.000
G1 X69.892 Y-25.546 F750.000
G1 X70.267 Y-25.665 F750.000
G1 X70.645 Y-25.765 F750.000
G1 X71.028 Y-25.845 F750.000
G1 X71.414 Y-25.900 F750.000
G1 X71.805 Y-25.944 F750.000
G1 X72.195 Y-25.976 F750.000
G1 X72.586 Y-25.984 F750.000
G1 X72.976 Y-25.980 F750.000
G1 X73.757 Y-25.932 F750.000
G1 X74.147 Y-25.884 F750.000
G1 X74.534 Y-25.825 F750.000
G1 X74.920 Y-25.753 F750.000
G1 X75.295 Y-25.637 F750.000
G1 X75.645 Y-25.462 F750.000
G1 X75.737 Y-25.378 F750.000
G1 X75.777 Y-25.331 F750.000
G1 X75.797 Y-25.271 F750.000
G1 X75.789 Y-24.952 F750.000
G1 X75.797 Y-24.888 F750.000
G1 X75.797 Y-24.888 F750.000
G1 X75.781 Y-24.753 F750.000
G1 X75.737 Y-24.665 F750.000
G0 X75.713 Y-24.649
G0 X75.602 Y-24.614
G0 X68.092 Y-23.725
G1 X68.036 Y-23.717 F750.000
G1 X67.916 Y-23.713 F750.000
G1 X67.861 Y-23.741 F750.000
G1 X67.805 Y-23.821 F750.000
G1 X67.777 Y-23.952 F750.000
G1 X67.777 Y-23.952 F750.000
G1 X67.801 Y-24.371 F750.000
G1 X67.849 Y-24.550 F750.000
G1 X68.080 Y-24.904 F750.000
G1 X68.291 Y-25.127 F750.000
G1 X68.590 Y-25.382 F750.000
G1 X68.912 Y-25.606 F750.000
G1 X69.255 Y-25.797 F750.000
G1 X69.582 Y-25.944 F750.000
G1 X69.900 Y-26.072 F750.000
G1 X70.275 Y-26.191 F750.000
G1 X70.653 Y-26.291 F750.000
G1 X71.036 Y-26.375 F750.000
G1 X71.422 Y-26.438 F750.000
G1 X71.813 Y-26.478 F750.000
G1 X72.594 Y-26.518 F750.000
G1 X72.984 Y-26.522 F750.000
G1 X73.375 Y-26.506 F750.000
G1 X73.765 Y-26.478 F750.000
G1 X74.155 Y-26.438 F750.000
G1 X74.542 Y-26.367 F750.000
G1 X74.924 Y-26.275 F750.000
G1 X75.295 Y-26.143 F750.000
G1 X75.637 Y-25.948 F750.000
G1 X75.773 Y-25.809 F750.000
G1 X75.849 Y-25.705 F750.000
G1 X75.873 Y-25.645 F750.000
G1 X75.805 Y-25.327 F750.000
G1 X75.805 Y-25.327 F750.000
G1 X75.761 Y-25.195 F750.000
G1 X75.701 Y-25.116 F750.000
G0 X75.677 Y-25.100
G0 X75.558 Y-25.068
G0 X68.092 Y-24.227
G1 X68.036 Y-24.223 F750.000
G1 X67.916 Y-24.219 F750.000
G1 X67.861 Y-24.247 F750.000
G1 X67.805 Y-24.327 F750.000
G1 X67.777 Y-24.458 F750.000
G1 X67.777 Y-24.458 F750.000
G1 X67.801 Y-24.876 F750.000
G1 X67.849 Y-25.056 F750.000
G1 X68.044 Y-25.363 F750.000
G1 X68.287 Y-25.637 F750.000
G1 X68.582 Y-25.892 F750.000
G1 X68.904 Y-26.116 F750.000
G1 X69.227 Y-26.299 F750.000
G1 X69.538 Y-26.454 F750.000
G1 X69.904 Y-26.594 F750.000
G1 X70.259 Y-26.713 F750.000
G1 X70.637 Y-26.817 F750.000
G1 X71.020 Y-26.900 F750.000
G1 X71.406 Y-26.960 F750.000
G1 X71.797 Y-27.008 F750.000
G1 X72.187 Y-27.044 F750.000
G1 X72.578 Y-27.064 F750.000
G1 X72.968 Y-27.068 F750.000
G1 X73.359 Y-27.056 F750.000
G1 X73.749 Y-27.032 F750.000
G1 X74.526 Y-26.912 F750.000
G1 X74.904 Y-26.809 F750.000
G1 X75.271 Y-26.669 F750.000
G1 X75.590 Y-26.490 F750.000
G1 X75.785 Y-26.335 F750.000
G1 X75.936 Y-26.131 F750.000
G1 X76.020 Y-25.956 F750.000
G1 X76.004 Y-25.892 F750.000
G1 X75.896 Y-25.649 F750.000
G1 X75.896 Y-25.649 F750.000
G1 X75.817 Y-25.534 F750.000
G1 X75.737 Y-25.470 F750.000
G0 X75.709 Y-25.458
G0 X75.586 Y-25.434
G0 X68.092 Y-24.733
G1 X68.036 Y-24.729 F750.000
G1 X67.916 Y-24.729 F750.000
G1 X67.861 Y-24.757 F750.000
G1 X67.805 Y-24.837 F750.000
G1 X67.777 Y-24.968 F750.000
G1 X67.777 Y-24.968 F750.000
G1 X67.797 Y-25.386 F750.000
G1 X67.841 Y-25.566 F750.000
G1 X68.036 Y-25.876 F750.000
G1 X68.327 Y-26.191 F750.000
G1 X68.625 Y-26.446 F750.000
G1 X68.952 Y-26.665 F750.000
G1 X69.291 Y-26.857 F750.000
G1 X69.606 Y-27.012 F750.000
G1 X69.972 Y-27.151 F750.000
G1 X70.347 Y-27.271 F750.000
G1 X70.725 Y-27.371 F750.000
G1 X71.108 Y-27.450 F750.000
G1 X71.494 Y-27.514 F750.000
G1 X71.884 Y-27.562 F750.000
G1 X72.275 Y-27.590 F750.000
G1 X72.665 Y-27.602 F750.000
G1 X73.056 Y-27.598 F750.000
G1 X73.446 Y-27.582 F750.000
G1 X73.837 Y-27.546 F750.000
G1 X74.227 Y-27.498 F750.000
G1 X74.614 Y-27.418 F750.000
G1 X74.988 Y-27.303 F750.000
G1 X75.351 Y-27.151 F750.000
G1 X75.641 Y-26.980 F750.000
G1 X75.857 Y-26.809 F750.000
G1 X76.020 Y-26.629 F750.000
G1 X76.120 Y-26.466 F750.000
G1 X76.199 Y-26.219 F750.000
G1 X76.191 Y-26.155 F750.000
G1 X76.032 Y-25.936 F750.000
G1 X76.032 Y-25.936 F750.000
G1 X75.932 Y-25.837 F750.000
G1 X75.845 Y-25.789 F750.000
G0 X75.813 Y-25.781
G0 X68.096 Y-25.235
G1 X68.036 Y-25.231 F750.000
G1 X67.916 Y-25.231 F750.000
G1 X67.861 Y-25.263 F750.000
G1 X67.805 Y-25.343 F750.000
G1 X67.777 Y-25.474 F750.000
G1 X67.777 Y-25.474 F750.000
G1 X67.801 Y-25.892 F750.000
G1 X67.841 Y-26.072 F750.000
G1 X67.924 Y-26.231 F750.000
G1 X68.231 Y-26.610 F750.000
G1 X68.319 Y-26.697 F750.000
G1 X68.618 Y-26.952 F750.000
G1 X68.936 Y-27.175 F750.000
G1 X69.275 Y-27.371 F750.000
G1 X69.594 Y-27.534 F750.000
G1 X69.956 Y-27.681 F750.000
G1 X70.331 Y-27.801 F750.000
G1 X70.709 Y-27.904 F750.000
G1 X71.092 Y-27.988 F750.000
G1 X71.478 Y-28.052 F750.000
G1 X71.869 Y-28.100 F750.000
G1 X72.259 Y-28.127 F750.000
G1 X72.649 Y-28.143 F750.000
G1 X73.040 Y-28.139 F750.000
G1 X73.430 Y-28.120 F750.000
G1 X73.821 Y-28.084 F750.000
G1 X74.211 Y-28.032 F750.000
G1 X74.594 Y-27.948 F750.000
G1 X74.968 Y-27.837 F750.000
G1 X75.331 Y-27.685 F750.000
G1 X75.645 Y-27.514 F750.000
G1 X75.892 Y-27.327 F750.000
G1 X76.076 Y-27.147 F750.000
G1 X76.235 Y-26.952 F750.000
G1 X76.371 Y-26.717 F750.000
G1 X76.418 Y-26.526 F750.000
G1 X76.426 Y-26.462 F750.000
G1 X76.418 Y-26.398 F750.000
G1 X76.386 Y-26.343 F750.000
G1 X76.243 Y-26.199 F750.000
G1 X76.243 Y-26.199 F750.000
G1 X76.092 Y-26.108 F750.000
G1 X76.028 Y-26.088 F750.000
G0 X75.996 Y-26.084
G0 X68.096 Y-25.733
G1 X68.036 Y-25.733 F750.000
G1 X67.916 Y-25.737 F750.000
G1 X67.861 Y-25.769 F750.000
G1 X67.805 Y-25.849 F750.000
G1 X67.777 Y-25.980 F750.000
G1 X67.777 Y-25.980 F750.000
G1 X67.801 Y-26.398 F750.000
G1 X67.841 Y-26.578 F750.000
G1 X67.924 Y-26.737 F750.000
G1 X68.223 Y-27.124 F750.000
G1 X68.311 Y-27.211 F750.000
G1 X68.606 Y-27.470 F750.000
G1 X68.924 Y-27.697 F750.000
G1 X69.263 Y-27.896 F750.000
G1 X69.586 Y-28.056 F750.000
G1 X69.932 Y-28.191 F750.000
G1 X70.299 Y-28.319 F750.000
G1 X70.677 Y-28.426 F750.000
G1 X71.060 Y-28.514 F750.000
G1 X71.446 Y-28.578 F750.000
G1 X71.837 Y-28.629 F750.000
G1 X72.227 Y-28.661 F750.000
G1 X73.008 Y-28.677 F750.000
G1 X73.398 Y-28.657 F750.000
G1 X73.789 Y-28.622 F750.000
G1 X74.179 Y-28.570 F750.000
G1 X74.562 Y-28.478 F750.000
G1 X74.936 Y-28.363 F750.000
G1 X75.303 Y-28.215 F750.000
G1 X75.649 Y-28.048 F750.000
G1 X75.976 Y-27.829 F750.000
G1 X76.195 Y-27.633 F750.000
G1 X76.363 Y-27.446 F750.000
G1 X76.506 Y-27.239 F750.000
G1 X76.625 Y-27.004 F750.000
G1 X76.673 Y-26.749 F750.000
G1 X76.673 Y-26.622 F750.000
G1 X76.657 Y-26.558 F750.000
G1 X76.610 Y-26.510 F750.000
G1 X76.442 Y-26.398 F750.000
G1 X76.442 Y-26.398 F750.000
G1 X76.291 Y-26.307 F750.000
G1 X76.227 Y-26.287 F750.000
G0 X76.195 Y-26.283
G0 X68.096 Y-26.239
G1 X68.040 Y-26.239 F750.000
G1 X67.916 Y-26.247 F750.000
G1 X67.861 Y-26.279 F750.000
G1 X67.805 Y-26.359 F750.000
G1 X67.777 Y-26.490 F750.000
G1 X67.777 Y-26.490 F750.000
G1 X67.781 Y-26.789 F750.000
G1 X67.837 Y-27.088 F750.000
G1 X67.884 Y-27.199 F750.000
G1 X68.131 Y-27.546 F750.000
G1 X68.295 Y-27.721 F750.000
G1 X68.586 Y-27.984 F750.000
G1 X68.904 Y-28.215 F750.000
G1 X69.243 Y-28.414 F750.000
G1 X69.550 Y-28.562 F750.000
G1 X69.880 Y-28.701 F750.000
G1 X70.251 Y-28.833 F750.000
G1 X70.625 Y-28.940 F750.000
G1 X71.008 Y-29.032 F750.000
G1 X71.394 Y-29.100 F750.000
G1 X72.175 Y-29.187 F750.000
G1 X72.566 Y-29.207 F750.000
G1 X72.956 Y-29.207 F750.000
G1 X73.347 Y-29.195 F750.000
G1 X73.737 Y-29.167 F750.000
G1 X74.124 Y-29.108 F750.000
G1 X74.506 Y-29.020 F750.000
G1 X74.884 Y-28.916 F750.000
G1 X75.255 Y-28.781 F750.000
G1 X75.610 Y-28.606 F750.000
G1 X75.916 Y-28.422 F750.000
G1 X76.195 Y-28.227 F750.000
G1 X76.482 Y-27.960 F750.000
G1 X76.673 Y-27.725 F750.000
G1 X76.801 Y-27.506 F750.000
G1 X76.888 Y-27.311 F750.000
G1 X76.956 Y-27.068 F750.000
G1 X76.956 Y-26.813 F750.000
G1 X76.936 Y-26.749 F750.000
G1 X76.892 Y-26.701 F750.000
G1 X76.725 Y-26.590 F750.000
G1 X76.725 Y-26.590 F750.000
G1 X76.598 Y-26.530 F750.000
G1 X76.498 Y-26.518 F750.000
G0 X76.466 Y-26.518
G0 X68.100 Y-26.733
G1 X68.040 Y-26.737 F750.000
G1 X67.916 Y-26.749 F750.000
G1 X67.861 Y-26.781 F750.000
G1 X67.805 Y-26.865 F750.000
G1 X67.777 Y-26.996 F750.000
G1 X67.777 Y-26.996 F750.000
G1 X67.797 Y-27.474 F750.000
G1 X67.841 Y-27.653 F750.000
G1 X68.036 Y-27.964 F750.000
G1 X68.323 Y-28.287 F750.000
G1 X68.618 Y-28.542 F750.000
G1 X68.940 Y-28.765 F750.000
G1 X69.279 Y-28.960 F750.000
G1 X69.610 Y-29.116 F750.000
G1 X69.956 Y-29.259 F750.000
G1 X70.327 Y-29.386 F750.000
G1 X70.705 Y-29.490 F750.000
G1 X71.088 Y-29.578 F750.000
G1 X71.474 Y-29.645 F750.000
G1 X71.861 Y-29.701 F750.000
G1 X72.251 Y-29.733 F750.000
G1 X72.641 Y-29.749 F750.000
G1 X73.032 Y-29.749 F750.000
G1 X73.422 Y-29.729 F750.000
G1 X73.813 Y-29.693 F750.000
G1 X74.199 Y-29.622 F750.000
G1 X74.582 Y-29.538 F750.000
G1 X74.960 Y-29.430 F750.000
G1 X75.331 Y-29.299 F750.000
G1 X75.685 Y-29.131 F750.000
G1 X76.016 Y-28.932 F750.000
G1 X76.283 Y-28.749 F750.000
G1 X76.586 Y-28.494 F750.000
G1 X76.833 Y-28.223 F750.000
G1 X77.000 Y-27.984 F750.000
G1 X77.124 Y-27.753 F750.000
G1 X77.215 Y-27.518 F750.000
G1 X77.255 Y-27.199 F750.000
G1 X77.247 Y-27.008 F750.000
G1 X77.227 Y-26.944 F750.000
G1 X77.183 Y-26.892 F750.000
G1 X76.960 Y-26.745 F750.000
G1 X76.960 Y-26.745 F750.000
G1 X76.833 Y-26.685 F750.000
G1 X76.733 Y-26.673 F750.000
G0 X76.701 Y-26.673
G0 X68.100 Y-27.295
G1 X68.040 Y-27.299 F750.000
G1 X67.916 Y-27.319 F750.000
G1 X67.861 Y-27.351 F750.000
G1 X67.805 Y-27.434 F750.000
G1 X67.777 Y-27.566 F750.000
G1 X67.777 Y-27.566 F750.000
G1 X67.801 Y-27.984 F750.000
G1 X67.841 Y-28.163 F750.000
G1 X67.952 Y-28.375 F750.000
G1 X68.179 Y-28.665 F750.000
G1 X68.558 Y-29.012 F750.000
G1 X68.873 Y-29.247 F750.000
G1 X69.207 Y-29.450 F750.000
G1 X69.554 Y-29.618 F750.000
G1 X69.869 Y-29.753 F750.000
G1 X70.239 Y-29.884 F750.000
G1 X70.614 Y-29.996 F750.000
G1 X70.992 Y-30.092 F750.000
G1 X71.378 Y-30.163 F750.000
G1 X71.769 Y-30.215 F750.000
G1 X72.159 Y-30.255 F750.000
G1 X72.550 Y-30.279 F750.000
G1 X72.940 Y-30.283 F750.000
G1 X73.331 Y-30.275 F750.000
G1 X73.721 Y-30.231 F750.000
G1 X74.112 Y-30.175 F750.000
G1 X74.498 Y-30.100 F750.000
G1 X74.876 Y-29.996 F750.000
G1 X75.251 Y-29.876 F750.000
G1 X75.610 Y-29.717 F750.000
G1 X75.964 Y-29.542 F750.000
G1 X76.303 Y-29.343 F750.000
G1 X76.618 Y-29.104 F750.000
G1 X76.873 Y-28.865 F750.000
G1 X77.072 Y-28.629 F750.000
G1 X77.243 Y-28.398 F750.000
G1 X77.426 Y-28.084 F750.000
G1 X77.534 Y-27.789 F750.000
G1 X77.582 Y-27.562 F750.000
G1 X77.582 Y-27.307 F750.000
G1 X77.558 Y-27.179 F750.000
G1 X77.522 Y-27.124 F750.000
G1 X77.299 Y-26.972 F750.000
G1 X77.299 Y-26.972 F750.000
G1 X77.171 Y-26.912 F750.000
G1 X77.072 Y-26.900 F750.000
G0 X77.040 Y-26.900
G0 X68.100 Y-27.801
G1 X68.040 Y-27.805 F750.000
G1 X67.916 Y-27.825 F750.000
G1 X67.861 Y-27.861 F750.000
G1 X67.805 Y-27.944 F750.000
G1 X67.777 Y-28.076 F750.000
G1 X67.777 Y-28.076 F750.000
G1 X67.781 Y-28.434 F750.000
G1 X67.825 Y-28.673 F750.000
G1 X67.936 Y-28.884 F750.000
G1 X68.287 Y-29.303 F750.000
G1 X68.578 Y-29.566 F750.000
G1 X68.896 Y-29.793 F750.000
G1 X69.227 Y-29.988 F750.000
G1 X69.546 Y-30.143 F750.000
G1 X69.876 Y-30.287 F750.000
G1 X70.243 Y-30.422 F750.000
G1 X70.618 Y-30.530 F750.000
G1 X71.000 Y-30.618 F750.000
G1 X71.382 Y-30.693 F750.000
G1 X71.769 Y-30.753 F750.000
G1 X72.159 Y-30.789 F750.000
G1 X72.550 Y-30.813 F750.000
G1 X72.940 Y-30.817 F750.000
G1 X73.331 Y-30.801 F750.000
G1 X73.721 Y-30.769 F750.000
G1 X74.112 Y-30.721 F750.000
G1 X74.494 Y-30.641 F750.000
G1 X74.876 Y-30.546 F750.000
G1 X75.251 Y-30.430 F750.000
G1 X75.618 Y-30.291 F750.000
G1 X75.972 Y-30.120 F750.000
G1 X76.311 Y-29.920 F750.000
G1 X76.637 Y-29.705 F750.000
G1 X76.936 Y-29.450 F750.000
G1 X77.179 Y-29.215 F750.000
G1 X77.430 Y-28.912 F750.000
G1 X77.618 Y-28.645 F750.000
G1 X77.773 Y-28.331 F750.000
G1 X77.857 Y-28.084 F750.000
G1 X77.916 Y-27.837 F750.000
G1 X77.920 Y-27.582 F750.000
G1 X77.900 Y-27.454 F750.000
G1 X77.873 Y-27.394 F750.000
G1 X77.833 Y-27.343 F750.000
G1 X77.614 Y-27.187 F750.000
G1 X77.614 Y-27.187 F750.000
G1 X77.490 Y-27.124 F750.000
G1 X77.390 Y-27.112 F750.000
G0 X77.359 Y-27.112
G0 X68.092 Y-28.303
G1 X68.028 Y-28.311 F750.000
G1 X67.904 Y-28.339 F750.000
G1 X67.849 Y-28.371 F750.000
G1 X67.793 Y-28.450 F750.000
G1 X67.761 Y-28.582 F750.000
G1 X67.761 Y-28.582 F750.000
G1 X67.765 Y-28.940 F750.000
G1 X67.809 Y-29.179 F750.000
G1 X67.916 Y-29.390 F750.000
G1 X68.219 Y-29.769 F750.000
G1 X68.510 Y-30.032 F750.000
G1 X68.821 Y-30.271 F750.000
G1 X69.151 Y-30.478 F750.000
G1 X69.454 Y-30.641 F750.000
G1 X69.813 Y-30.797 F750.000
G1 X70.179 Y-30.932 F750.000
G1 X70.554 Y-31.048 F750.000
G1 X70.932 Y-31.143 F750.000
G1 X71.315 Y-31.223 F750.000
G1 X71.701 Y-31.279 F750.000
G1 X72.092 Y-31.323 F750.000
G1 X72.482 Y-31.343 F750.000
G1 X73.263 Y-31.343 F750.000
G1 X73.653 Y-31.315 F750.000
G1 X74.044 Y-31.271 F750.000
G1 X74.430 Y-31.199 F750.000
G1 X74.813 Y-31.116 F750.000
G1 X75.191 Y-31.012 F750.000
G1 X75.562 Y-30.884 F750.000
G1 X75.920 Y-30.725 F750.000
G1 X76.271 Y-30.542 F750.000
G1 X76.610 Y-30.339 F750.000
G1 X76.928 Y-30.108 F750.000
G1 X77.231 Y-29.857 F750.000
G1 X77.510 Y-29.578 F750.000
G1 X77.741 Y-29.287 F750.000
G1 X77.916 Y-29.032 F750.000
G1 X78.096 Y-28.705 F750.000
G1 X78.215 Y-28.378 F750.000
G1 X78.267 Y-28.124 F750.000
G1 X78.267 Y-27.805 F750.000
G1 X78.255 Y-27.741 F750.000
G1 X78.199 Y-27.622 F750.000
G1 X78.100 Y-27.534 F750.000
G1 X77.936 Y-27.418 F750.000
G1 X77.936 Y-27.418 F750.000
G1 X77.813 Y-27.355 F750.000
G1 X77.713 Y-27.343 F750.000
G0 X77.681 Y-27.343
G0 X68.076 Y-28.801
G1 X68.012 Y-28.809 F750.000
G1 X67.888 Y-28.837 F750.000
G1 X67.833 Y-28.873 F750.000
G1 X67.777 Y-28.956 F750.000
G1 X67.749 Y-29.088 F750.000
G1 X67.749 Y-29.088 F750.000
G1 X67.749 Y-29.506 F750.000
G1 X67.785 Y-29.685 F750.000
G1 X68.048 Y-30.096 F750.000
G1 X68.167 Y-30.239 F750.000
G1 X68.450 Y-30.510 F750.000
G1 X68.757 Y-30.753 F750.000
G1 X69.084 Y-30.968 F750.000
G1 X69.390 Y-31.143 F750.000
G1 X69.745 Y-31.307 F750.000
G1 X70.112 Y-31.450 F750.000
G1 X70.486 Y-31.570 F750.000
G1 X70.865 Y-31.669 F750.000
G1 X71.247 Y-31.749 F750.000
G1 X71.633 Y-31.805 F750.000
G1 X72.024 Y-31.849 F750.000
G1 X72.414 Y-31.876 F750.000
G1 X72.805 Y-31.892 F750.000
G1 X73.195 Y-31.892 F750.000
G1 X73.586 Y-31.865 F750.000
G1 X73.976 Y-31.825 F750.000
G1 X74.363 Y-31.765 F750.000
G1 X74.745 Y-31.685 F750.000
G1 X75.127 Y-31.590 F750.000
G1 X75.502 Y-31.474 F750.000
G1 X75.865 Y-31.327 F750.000
G1 X76.219 Y-31.155 F750.000
G1 X76.566 Y-30.964 F750.000
G1 X76.896 Y-30.749 F750.000
G1 X77.211 Y-30.510 F750.000
G1 X77.510 Y-30.255 F750.000
G1 X77.789 Y-29.976 F750.000
G1 X78.044 Y-29.673 F750.000
G1 X78.267 Y-29.347 F750.000
G1 X78.426 Y-29.052 F750.000
G1 X78.538 Y-28.757 F750.000
G1 X78.610 Y-28.502 F750.000
G1 X78.625 Y-28.183 F750.000
G1 X78.614 Y-28.056 F750.000
G1 X78.598 Y-27.992 F750.000
G1 X78.562 Y-27.936 F750.000
G1 X78.311 Y-27.717 F750.000
G1 X78.311 Y-27.717 F750.000
G1 X78.187 Y-27.645 F750.000
G1 X78.088 Y-27.625 F750.000
G0 X78.056 Y-27.625
G0 X68.072 Y-29.315
G1 X68.008 Y-29.327 F750.000
G1 X67.880 Y-29.355 F750.000
G1 X67.797 Y-29.410 F750.000
G1 X67.729 Y-29.526 F750.000
G1 X67.713 Y-29.594 F750.000
G1 X67.713 Y-29.594 F750.000
G1 X67.693 Y-29.952 F750.000
G1 X67.725 Y-30.131 F750.000
G1 X67.869 Y-30.402 F750.000
G1 X68.131 Y-30.745 F750.000
G1 X68.406 Y-31.024 F750.000
G1 X68.709 Y-31.271 F750.000
G1 X69.036 Y-31.486 F750.000
G1 X69.319 Y-31.645 F750.000
G1 X69.653 Y-31.805 F750.000
G1 X70.016 Y-31.948 F750.000
G1 X70.386 Y-32.072 F750.000
G1 X70.765 Y-32.179 F750.000
G1 X71.147 Y-32.259 F750.000
G1 X71.534 Y-32.327 F750.000
G1 X71.924 Y-32.378 F750.000
G1 X72.315 Y-32.414 F750.000
G1 X72.705 Y-32.434 F750.000
G1 X73.096 Y-32.438 F750.000
G1 X73.486 Y-32.426 F750.000
G1 X73.876 Y-32.394 F750.000
G1 X74.263 Y-32.335 F750.000
G1 X74.649 Y-32.263 F750.000
G1 X75.032 Y-32.171 F750.000
G1 X75.406 Y-32.056 F750.000
G1 X75.777 Y-31.924 F750.000
G1 X76.139 Y-31.773 F750.000
G1 X76.494 Y-31.602 F750.000
G1 X76.833 Y-31.398 F750.000
G1 X77.163 Y-31.183 F750.000
G1 X77.478 Y-30.948 F750.000
G1 X77.777 Y-30.689 F750.000
G1 X78.060 Y-30.414 F750.000
G1 X78.311 Y-30.112 F750.000
G1 X78.526 Y-29.809 F750.000
G1 X78.717 Y-29.494 F750.000
G1 X78.873 Y-29.131 F750.000
G1 X78.948 Y-28.849 F750.000
G1 X78.972 Y-28.466 F750.000
G1 X78.956 Y-28.339 F750.000
G1 X78.928 Y-28.279 F750.000
G1 X78.637 Y-28.004 F750.000
G1 X78.637 Y-28.004 F750.000
G1 X78.518 Y-27.928 F750.000
G1 X78.418 Y-27.908 F750.000
G0 X78.386 Y-27.904
G0 X68.024 Y-29.753
G1 X67.960 Y-29.765 F750.000
G1 X67.817 Y-29.797 F750.000
G1 X67.741 Y-29.853 F750.000
G1 X67.661 Y-30.036 F750.000
G1 X67.661 Y-30.036 F750.000
G1 X67.641 Y-30.394 F750.000
G1 X67.665 Y-30.574 F750.000
G1 X67.789 Y-30.853 F750.000
G1 X68.036 Y-31.199 F750.000
G1 X68.303 Y-31.486 F750.000
G1 X68.602 Y-31.737 F750.000
G1 X68.904 Y-31.948 F750.000
G1 X69.191 Y-32.112 F750.000
G1 X69.482 Y-32.259 F750.000
G1 X69.841 Y-32.414 F750.000
G1 X70.211 Y-32.546 F750.000
G1 X70.586 Y-32.665 F750.000
G1 X70.968 Y-32.757 F750.000
G1 X71.741 Y-32.892 F750.000
G1 X72.131 Y-32.940 F750.000
G1 X72.522 Y-32.964 F750.000
G1 X72.912 Y-32.976 F750.000
G1 X73.303 Y-32.972 F750.000
G1 X73.693 Y-32.948 F750.000
G1 X74.084 Y-32.908 F750.000
G1 X74.474 Y-32.853 F750.000
G1 X74.857 Y-32.765 F750.000
G1 X75.235 Y-32.665 F750.000
G1 X75.610 Y-32.546 F750.000
G1 X75.980 Y-32.410 F750.000
G1 X76.343 Y-32.255 F750.000
G1 X76.697 Y-32.084 F750.000
G1 X77.036 Y-31.884 F750.000
G1 X77.367 Y-31.673 F750.000
G1 X77.685 Y-31.442 F750.000
G1 X77.988 Y-31.191 F750.000
G1 X78.267 Y-30.912 F750.000
G1 X78.534 Y-30.622 F750.000
G1 X78.781 Y-30.315 F750.000
G1 X78.988 Y-29.976 F750.000
G1 X79.135 Y-29.677 F750.000
G1 X79.255 Y-29.382 F750.000
G1 X79.335 Y-29.024 F750.000
G1 X79.339 Y-28.769 F750.000
G1 X79.323 Y-28.705 F750.000
G1 X79.243 Y-28.602 F750.000
G1 X79.008 Y-28.363 F750.000
G1 X79.008 Y-28.363 F750.000
G1 X78.857 Y-28.271 F750.000
G1 X78.793 Y-28.255 F750.000
G0 X78.761 Y-28.251
G0 X67.972 Y-30.195
G1 X67.912 Y-30.207 F750.000
G1 X67.765 Y-30.239 F750.000
G1 X67.689 Y-30.295 F750.000
G1 X67.610 Y-30.478 F750.000
G1 X67.610 Y-30.478 F750.000
G1 X67.582 Y-30.896 F750.000
G1 X67.602 Y-31.076 F750.000
G1 X67.725 Y-31.355 F750.000
G1 X67.940 Y-31.657 F750.000
G1 X68.195 Y-31.952 F750.000
G1 X68.490 Y-32.207 F750.000
G1 X68.809 Y-32.430 F750.000
G1 X69.076 Y-32.590 F750.000
G1 X69.371 Y-32.745 F750.000
G1 X69.729 Y-32.908 F750.000
G1 X70.096 Y-33.048 F750.000
G1 X70.470 Y-33.163 F750.000
G1 X70.853 Y-33.259 F750.000
G1 X71.235 Y-33.343 F750.000
G1 X71.622 Y-33.410 F750.000
G1 X72.012 Y-33.458 F750.000
G1 X72.402 Y-33.490 F750.000
G1 X72.793 Y-33.506 F750.000
G1 X73.183 Y-33.510 F750.000
G1 X73.574 Y-33.498 F750.000
G1 X73.964 Y-33.470 F750.000
G1 X74.355 Y-33.418 F750.000
G1 X74.741 Y-33.355 F750.000
G1 X75.124 Y-33.271 F750.000
G1 X75.502 Y-33.167 F750.000
G1 X75.873 Y-33.032 F750.000
G1 X76.239 Y-32.884 F750.000
G1 X76.598 Y-32.725 F750.000
G1 X76.948 Y-32.546 F750.000
G1 X77.291 Y-32.351 F750.000
G1 X77.618 Y-32.131 F750.000
G1 X77.936 Y-31.900 F750.000
G1 X78.243 Y-31.649 F750.000
G1 X78.534 Y-31.382 F750.000
G1 X78.801 Y-31.092 F750.000
G1 X79.052 Y-30.789 F750.000
G1 X79.271 Y-30.462 F750.000
G1 X79.450 Y-30.116 F750.000
G1 X79.570 Y-29.825 F750.000
G1 X79.661 Y-29.522 F750.000
G1 X79.689 Y-29.203 F750.000
G1 X79.685 Y-29.139 F750.000
G1 X79.669 Y-29.076 F750.000
G1 X79.641 Y-29.016 F750.000
G1 X79.367 Y-28.729 F750.000
G1 X79.367 Y-28.729 F750.000
G1 X79.215 Y-28.637 F750.000
G1 X79.151 Y-28.622 F750.000
G0 X79.120 Y-28.618
G0 X67.928 Y-30.705
G1 X67.865 Y-30.717 F750.000
G1 X67.717 Y-30.753 F750.000
G1 X67.641 Y-30.805 F750.000
G1 X67.570 Y-30.916 F750.000
G1 X67.550 Y-30.980 F750.000
G1 X67.550 Y-30.980 F750.000
G1 X67.498 Y-31.339 F750.000
G1 X67.502 Y-31.458 F750.000
G1 X67.578 Y-31.689 F750.000
G1 X67.789 Y-32.060 F750.000
G1 X68.080 Y-32.402 F750.000
G1 X68.371 Y-32.665 F750.000
G1 X68.641 Y-32.869 F750.000
G1 X68.904 Y-33.040 F750.000
G1 X69.235 Y-33.223 F750.000
G1 X69.590 Y-33.390 F750.000
G1 X69.952 Y-33.538 F750.000
G1 X70.323 Y-33.665 F750.000
G1 X70.701 Y-33.773 F750.000
G1 X71.084 Y-33.857 F750.000
G1 X71.470 Y-33.928 F750.000
G1 X72.251 Y-34.016 F750.000
G1 X72.641 Y-34.044 F750.000
G1 X73.032 Y-34.052 F750.000
G1 X73.422 Y-34.048 F750.000
G1 X73.813 Y-34.032 F750.000
G1 X74.203 Y-34.000 F750.000
G1 X74.976 Y-33.857 F750.000
G1 X75.359 Y-33.761 F750.000
G1 X75.733 Y-33.641 F750.000
G1 X76.470 Y-33.363 F750.000
G1 X76.829 Y-33.195 F750.000
G1 X77.179 Y-33.016 F750.000
G1 X77.522 Y-32.825 F750.000
G1 X77.857 Y-32.618 F750.000
G1 X78.175 Y-32.386 F750.000
G1 X78.486 Y-32.143 F750.000
G1 X78.773 Y-31.873 F750.000
G1 X79.048 Y-31.590 F750.000
G1 X79.307 Y-31.291 F750.000
G1 X79.530 Y-30.964 F750.000
G1 X79.733 Y-30.637 F750.000
G1 X79.900 Y-30.279 F750.000
G1 X80.004 Y-29.956 F750.000
G1 X80.040 Y-29.637 F750.000
G1 X80.036 Y-29.510 F750.000
G1 X80.016 Y-29.446 F750.000
G1 X79.717 Y-29.088 F750.000
G1 X79.717 Y-29.088 F750.000
G1 X79.566 Y-28.996 F750.000
G1 X79.502 Y-28.980 F750.000
G0 X79.470 Y-28.976
G0 X67.857 Y-31.080
G1 X67.793 Y-31.092 F750.000
G1 X67.618 Y-31.143 F750.000
G1 X67.522 Y-31.231 F750.000
G1 X67.466 Y-31.351 F750.000
G1 X67.466 Y-31.351 F750.000
G1 X67.394 Y-31.709 F750.000
G1 X67.390 Y-31.888 F750.000
G1 X67.414 Y-32.008 F750.000
G1 X67.534 Y-32.283 F750.000
G1 X67.661 Y-32.490 F750.000
G1 X67.912 Y-32.793 F750.000
G1 X68.187 Y-33.072 F750.000
G1 X68.474 Y-33.307 F750.000
G1 X68.729 Y-33.490 F750.000
G1 X69.068 Y-33.685 F750.000
G1 X69.386 Y-33.845 F750.000
G1 X69.745 Y-34.004 F750.000
G1 X70.112 Y-34.139 F750.000
G1 X70.486 Y-34.251 F750.000
G1 X70.865 Y-34.347 F750.000
G1 X71.247 Y-34.430 F750.000
G1 X71.633 Y-34.498 F750.000
G1 X72.024 Y-34.546 F750.000
G1 X72.414 Y-34.578 F750.000
G1 X73.195 Y-34.602 F750.000
G1 X73.586 Y-34.590 F750.000
G1 X73.976 Y-34.566 F750.000
G1 X74.753 Y-34.446 F750.000
G1 X75.135 Y-34.363 F750.000
G1 X75.892 Y-34.147 F750.000
G1 X76.263 Y-34.016 F750.000
G1 X76.629 Y-33.869 F750.000
G1 X76.988 Y-33.709 F750.000
G1 X77.339 Y-33.534 F750.000
G1 X77.681 Y-33.343 F750.000
G1 X78.020 Y-33.139 F750.000
G1 X78.347 Y-32.920 F750.000
G1 X78.952 Y-32.414 F750.000
G1 X79.235 Y-32.139 F750.000
G1 X79.498 Y-31.845 F750.000
G1 X79.749 Y-31.542 F750.000
G1 X79.964 Y-31.211 F750.000
G1 X80.147 Y-30.880 F750.000
G1 X80.299 Y-30.514 F750.000
G1 X80.375 Y-30.068 F750.000
G1 X80.378 Y-29.940 F750.000
G1 X80.363 Y-29.876 F750.000
G1 X80.291 Y-29.765 F750.000
G1 X80.072 Y-29.506 F750.000
G1 X80.072 Y-29.506 F750.000
G1 X79.964 Y-29.418 F750.000
G1 X79.873 Y-29.382 F750.000
G0 X79.841 Y-29.382
G0 X79.713 Y-29.390
G0 X67.741 Y-31.574
G1 X67.673 Y-31.586 F750.000
G1 X67.498 Y-31.637 F750.000
G1 X67.402 Y-31.725 F750.000
G1 X67.347 Y-31.845 F750.000
G1 X67.347 Y-31.845 F750.000
G1 X67.267 Y-32.143 F750.000
G1 X67.255 Y-32.263 F750.000
G1 X67.259 Y-32.323 F750.000
G1 X67.386 Y-32.665 F750.000
G1 X67.534 Y-32.932 F750.000
G1 X67.769 Y-33.247 F750.000
G1 X68.040 Y-33.530 F750.000
G1 X68.291 Y-33.741 F750.000
G1 X68.530 Y-33.916 F750.000
G1 X68.841 Y-34.112 F750.000
G1 X69.183 Y-34.299 F750.000
G1 X69.538 Y-34.462 F750.000
G1 X69.904 Y-34.602 F750.000
G1 X70.275 Y-34.729 F750.000
G1 X70.653 Y-34.837 F750.000
G1 X71.036 Y-34.928 F750.000
G1 X71.422 Y-35.004 F750.000
G1 X71.809 Y-35.060 F750.000
G1 X72.590 Y-35.131 F750.000
G1 X72.980 Y-35.139 F750.000
G1 X73.371 Y-35.135 F750.000
G1 X73.761 Y-35.116 F750.000
G1 X74.151 Y-35.080 F750.000
G1 X74.542 Y-35.028 F750.000
G1 X74.928 Y-34.960 F750.000
G1 X75.311 Y-34.876 F750.000
G1 X75.693 Y-34.781 F750.000
G1 X76.072 Y-34.669 F750.000
G1 X76.442 Y-34.542 F750.000
G1 X76.809 Y-34.398 F750.000
G1 X77.167 Y-34.235 F750.000
G1 X77.518 Y-34.060 F750.000
G1 X77.861 Y-33.869 F750.000
G1 X78.195 Y-33.661 F750.000
G1 X78.522 Y-33.438 F750.000
G1 X78.837 Y-33.203 F750.000
G1 X79.139 Y-32.952 F750.000
G1 X79.422 Y-32.677 F750.000
G1 X79.697 Y-32.394 F750.000
G1 X79.956 Y-32.096 F750.000
G1 X80.195 Y-31.781 F750.000
G1 X80.402 Y-31.442 F750.000
G1 X80.570 Y-31.092 F750.000
G1 X80.697 Y-30.454 F750.000
G1 X80.697 Y-30.390 F750.000
G1 X80.685 Y-30.327 F750.000
G1 X80.414 Y-29.940 F750.000
G1 X80.414 Y-29.940 F750.000
G1 X80.315 Y-29.841 F750.000
G1 X80.227 Y-29.797 F750.000
G0 X80.195 Y-29.789
G0 X80.068 Y-29.797
G0 X67.649 Y-31.964
G1 X67.578 Y-31.980 F750.000
G1 X67.410 Y-32.020 F750.000
G1 X67.299 Y-32.096 F750.000
G1 X67.219 Y-32.203 F750.000
G1 X67.219 Y-32.203 F750.000
G1 X67.116 Y-32.562 F750.000
G1 X67.112 Y-32.741 F750.000
G1 X67.255 Y-33.143 F750.000
G1 X67.339 Y-33.307 F750.000
G1 X67.562 Y-33.629 F750.000
G1 X67.825 Y-33.920 F750.000
G1 X68.060 Y-34.135 F750.000
G1 X68.299 Y-34.323 F750.000
G1 X68.598 Y-34.526 F750.000
G1 X68.936 Y-34.721 F750.000
G1 X69.287 Y-34.900 F750.000
G1 X69.649 Y-35.052 F750.000
G1 X70.016 Y-35.191 F750.000
G1 X70.390 Y-35.311 F750.000
G1 X70.769 Y-35.414 F750.000
G1 X71.151 Y-35.498 F750.000
G1 X71.538 Y-35.566 F750.000
G1 X72.319 Y-35.653 F750.000
G1 X72.709 Y-35.677 F750.000
G1 X73.100 Y-35.685 F750.000
G1 X73.490 Y-35.681 F750.000
G1 X73.880 Y-35.665 F750.000
G1 X74.271 Y-35.633 F750.000
G1 X74.661 Y-35.578 F750.000
G1 X75.048 Y-35.510 F750.000
G1 X75.430 Y-35.426 F750.000
G1 X75.809 Y-35.323 F750.000
G1 X76.183 Y-35.207 F750.000
G1 X76.920 Y-34.932 F750.000
G1 X77.279 Y-34.773 F750.000
G1 X77.633 Y-34.602 F750.000
G1 X77.984 Y-34.418 F750.000
G1 X78.327 Y-34.223 F750.000
G1 X78.968 Y-33.769 F750.000
G1 X79.275 Y-33.522 F750.000
G1 X79.574 Y-33.263 F750.000
G1 X79.861 Y-32.992 F750.000
G1 X80.127 Y-32.701 F750.000
G1 X80.375 Y-32.394 F750.000
G1 X80.598 Y-32.068 F750.000
G1 X80.789 Y-31.721 F750.000
G1 X80.932 Y-31.382 F750.000
G1 X81.016 Y-30.936 F750.000
G1 X81.008 Y-30.873 F750.000
G1 X80.988 Y-30.809 F750.000
G1 X80.745 Y-30.414 F750.000
G1 X80.745 Y-30.414 F750.000
G1 X80.645 Y-30.315 F750.000
G1 X80.558 Y-30.271 F750.000
G0 X80.526 Y-30.263
G0 X80.398 Y-30.271
G0 X67.518 Y-32.323
G1 X67.442 Y-32.335 F750.000
G1 X67.275 Y-32.375 F750.000
G1 X67.163 Y-32.450 F750.000
G1 X67.084 Y-32.558 F750.000
G1 X67.084 Y-32.558 F750.000
G1 X66.968 Y-32.916 F750.000
G1 X66.952 Y-33.036 F750.000
G1 X66.976 Y-33.215 F750.000
G1 X67.100 Y-33.562 F750.000
G1 X67.327 Y-33.956 F750.000
G1 X67.570 Y-34.263 F750.000
G1 X67.805 Y-34.498 F750.000
G1 X68.012 Y-34.685 F750.000
G1 X68.307 Y-34.904 F750.000
G1 X68.633 Y-35.120 F750.000
G1 X68.976 Y-35.311 F750.000
G1 X69.331 Y-35.482 F750.000
G1 X69.693 Y-35.633 F750.000
G1 X70.064 Y-35.765 F750.000
G1 X70.438 Y-35.880 F750.000
G1 X70.821 Y-35.972 F750.000
G1 X71.594 Y-36.116 F750.000
G1 X71.984 Y-36.167 F750.000
G1 X72.765 Y-36.223 F750.000
G1 X73.155 Y-36.231 F750.000
G1 X73.546 Y-36.223 F750.000
G1 X73.936 Y-36.203 F750.000
