(Exported by FreeCAD)
(Post Processor: grbl_post)
(Output Time:2022-06-08 21:23:15.649248)
(Begin preamble)
G17 G90
G21
(Begin operation: Fixture)
(Path: Fixture)
G54
(Finish operation: Fixture)
(Begin operation: 3mm_Endmill_3022)
(Path: 3mm_Endmill_3022)
(3mm_Endmill_3022)
(Begin toolchange)
( M6 T4.0 )
M3 S8000.0
(Finish operation: 3mm_Endmill_3022)
(Begin operation: clear)
(Path: clear)
(clear)
(Helix to depth: 4.000000)
G0 Z10.000
G0 X72.574 Y-11.258 Z10.000
G0 X72.574 Y-11.258 Z8.000
G1 X72.574 Y-11.258 Z5.000 F250.000
G1 X72.574 Y-11.258 Z5.000 F250.000
G1 X72.353 Y-11.190 Z4.980 F250.000
G1 X72.124 Y-11.166 Z4.959 F250.000
G1 X71.894 Y-11.188 Z4.939 F250.000
G1 X71.673 Y-11.254 Z4.918 F250.000
G1 X71.469 Y-11.362 Z4.898 F250.000
G1 X71.290 Y-11.508 Z4.878 F250.000
G1 X71.142 Y-11.685 Z4.857 F250.000
G1 X71.033 Y-11.889 Z4.837 F250.000
G1 X70.965 Y-12.109 Z4.816 F250.000
G1 X70.941 Y-12.339 Z4.796 F250.000
G1 X70.963 Y-12.569 Z4.776 F250.000
G1 X71.029 Y-12.790 Z4.755 F250.000
G1 X71.137 Y-12.994 Z4.735 F250.000
G1 X71.283 Y-13.173 Z4.714 F250.000
G1 X71.460 Y-13.320 Z4.694 F250.000
G1 X71.664 Y-13.430 Z4.674 F250.000
G1 X71.884 Y-13.498 Z4.653 F250.000
G1 X72.114 Y-13.521 Z4.633 F250.000
G1 X72.344 Y-13.500 Z4.612 F250.000
G1 X72.565 Y-13.433 Z4.592 F250.000
G1 X72.769 Y-13.326 Z4.572 F250.000
G1 X72.948 Y-13.180 Z4.551 F250.000
G1 X73.095 Y-13.002 Z4.531 F250.000
G1 X73.205 Y-12.799 Z4.510 F250.000
G1 X73.273 Y-12.578 Z4.490 F250.000
G1 X73.296 Y-12.349 Z4.470 F250.000
G1 X73.275 Y-12.119 Z4.449 F250.000
G1 X73.208 Y-11.898 Z4.429 F250.000
G1 X73.101 Y-11.694 Z4.408 F250.000
G1 X72.955 Y-11.515 Z4.388 F250.000
G1 X72.777 Y-11.367 Z4.368 F250.000
G1 X72.574 Y-11.258 Z4.347 F250.000
G1 X72.353 Y-11.190 Z4.327 F250.000
G1 X72.124 Y-11.166 Z4.306 F250.000
G1 X71.894 Y-11.188 Z4.286 F250.000
G1 X71.673 Y-11.254 Z4.266 F250.000
G1 X71.469 Y-11.362 Z4.245 F250.000
G1 X71.290 Y-11.508 Z4.225 F250.000
G1 X71.142 Y-11.685 Z4.204 F250.000
G1 X71.033 Y-11.889 Z4.184 F250.000
G1 X70.965 Y-12.109 Z4.164 F250.000
G1 X70.941 Y-12.339 Z4.143 F250.000
G1 X70.963 Y-12.569 Z4.123 F250.000
G1 X71.029 Y-12.790 Z4.102 F250.000
G1 X71.137 Y-12.994 Z4.082 F250.000
G1 X71.283 Y-13.173 Z4.062 F250.000
G1 X71.460 Y-13.320 Z4.041 F250.000
G1 X71.664 Y-13.430 Z4.021 F250.000
G1 X71.884 Y-13.498 Z4.000 F250.000
G1 X72.114 Y-13.521 Z4.000 F750.000
G1 X72.344 Y-13.500 Z4.000 F750.000
G1 X72.565 Y-13.433 Z4.000 F750.000
G1 X72.769 Y-13.326 Z4.000 F750.000
G1 X72.948 Y-13.180 Z4.000 F750.000
G1 X73.095 Y-13.002 Z4.000 F750.000
G1 X73.205 Y-12.799 Z4.000 F750.000
G1 X73.273 Y-12.578 Z4.000 F750.000
G1 X73.296 Y-12.349 Z4.000 F750.000
G1 X73.275 Y-12.119 Z4.000 F750.000
G1 X73.208 Y-11.898 Z4.000 F750.000
G1 X73.101 Y-11.694 Z4.000 F750.000
G1 X72.955 Y-11.515 Z4.000 F750.000
G1 X72.777 Y-11.367 Z4.000 F750.000
G1 X72.574 Y-11.258 Z4.000 F750.000
G1 X72.353 Y-11.190 Z4.000 F750.000
G1 X72.124 Y-11.166 Z4.000 F750.000
G1 X71.894 Y-11.188 Z4.000 F750.000
G1 X71.673 Y-11.254 Z4.000 F750.000
G1 X71.469 Y-11.362 Z4.000 F750.000
G1 X71.290 Y-11.508 Z4.000 F750.000
G1 X71.142 Y-11.685 Z4.000 F750.000
G1 X71.033 Y-11.889 Z4.000 F750.000
G1 X70.965 Y-12.109 Z4.000 F750.000
G1 X70.941 Y-12.339 Z4.000 F750.000
G1 X70.963 Y-12.569 Z4.000 F750.000
G1 X71.029 Y-12.790 Z4.000 F750.000
G1 X71.137 Y-12.994 Z4.000 F750.000
G1 X71.283 Y-13.173 Z4.000 F750.000
G1 X71.460 Y-13.320 Z4.000 F750.000
G1 X71.664 Y-13.430 Z4.000 F750.000
G1 X71.884 Y-13.498 Z4.000 F750.000
(Adaptive - depth: 4.000000)
G1 X72.119 Y-13.531 F750.000
G1 X72.188 Y-13.600 F750.000
G1 X72.237 Y-13.681 F750.000
G1 X72.250 Y-13.775 F750.000
G1 X72.344 Y-13.944 F750.000
G1 X72.481 Y-14.075 F750.000
G1 X72.650 Y-14.162 F750.000
G1 X72.975 Y-14.250 F750.000
G1 X73.325 Y-14.294 F750.000
G1 X73.675 Y-14.231 F750.000
G1 X73.881 Y-14.144 F750.000
G1 X74.062 Y-14.031 F750.000
G1 X74.263 Y-13.881 F750.000
G1 X74.550 Y-13.625 F750.000
G1 X74.787 Y-13.312 F750.000
G1 X74.925 Y-12.988 F750.000
G1 X75.000 Y-12.762 F750.000
G1 X75.075 Y-12.137 F750.000
G1 X75.044 Y-11.744 F750.000
G1 X74.969 Y-11.381 F750.000
G1 X74.831 Y-11.012 F750.000
G1 X74.675 Y-10.719 F750.000
G1 X74.463 Y-10.425 F750.000
G1 X74.213 Y-10.169 F750.000
G1 X73.650 Y-9.744 F750.000
G1 X73.294 Y-9.569 F750.000
G1 X72.919 Y-9.431 F750.000
G1 X72.537 Y-9.325 F750.000
G1 X72.144 Y-9.275 F750.000
G1 X71.750 Y-9.262 F750.000
G1 X71.362 Y-9.331 F750.000
G1 X71.056 Y-9.412 F750.000
G1 X70.706 Y-9.562 F750.000
G1 X70.394 Y-9.756 F750.000
G1 X70.112 Y-9.981 F750.000
G1 X69.612 Y-10.512 F750.000
G1 X69.400 Y-10.844 F750.000
G1 X69.219 Y-11.194 F750.000
G1 X69.088 Y-11.562 F750.000
G1 X69.000 Y-11.925 F750.000
G1 X68.956 Y-12.312 F750.000
G1 X68.963 Y-12.700 F750.000
G1 X69.013 Y-13.088 F750.000
G1 X69.112 Y-13.463 F750.000
G1 X69.281 Y-13.812 F750.000
G1 X69.444 Y-14.081 F750.000
G1 X69.912 Y-14.644 F750.000
G1 X70.150 Y-14.950 F750.000
G1 X70.725 Y-15.475 F750.000
G1 X71.050 Y-15.694 F750.000
G1 X71.381 Y-15.894 F750.000
G1 X71.731 Y-16.069 F750.000
G1 X72.094 Y-16.206 F750.000
G1 X72.475 Y-16.281 F750.000
G1 X72.856 Y-16.337 F750.000
G1 X73.244 Y-16.350 F750.000
G1 X73.631 Y-16.312 F750.000
G1 X74.019 Y-16.244 F750.000
G1 X74.394 Y-16.131 F750.000
G1 X74.756 Y-15.981 F750.000
G1 X75.100 Y-15.794 F750.000
G1 X75.425 Y-15.569 F750.000
G1 X75.725 Y-15.312 F750.000
G1 X75.994 Y-15.025 F750.000
G1 X76.231 Y-14.713 F750.000
G1 X76.438 Y-14.375 F750.000
G1 X76.781 Y-13.662 F750.000
G1 X76.906 Y-13.287 F750.000
G1 X77.006 Y-12.906 F750.000
G1 X77.056 Y-12.512 F750.000
G1 X77.081 Y-12.119 F750.000
G1 X77.069 Y-11.725 F750.000
G1 X77.013 Y-11.331 F750.000
G1 X76.925 Y-10.944 F750.000
G1 X76.800 Y-10.562 F750.000
G1 X76.644 Y-10.200 F750.000
G1 X76.456 Y-9.850 F750.000
G1 X76.031 Y-9.181 F750.000
G1 X75.781 Y-8.875 F750.000
G1 X75.513 Y-8.581 F750.000
G1 X75.213 Y-8.325 F750.000
G1 X74.894 Y-8.081 F750.000
G1 X74.556 Y-7.869 F750.000
G1 X74.200 Y-7.688 F750.000
G1 X73.831 Y-7.531 F750.000
G1 X73.450 Y-7.412 F750.000
G1 X73.062 Y-7.325 F750.000
G1 X72.275 Y-7.206 F750.000
G1 X71.881 Y-7.194 F750.000
G1 X71.487 Y-7.200 F750.000
G1 X71.094 Y-7.250 F750.000
G1 X70.706 Y-7.319 F750.000
G1 X70.325 Y-7.419 F750.000
G1 X69.956 Y-7.556 F750.000
G1 X69.594 Y-7.719 F750.000
G1 X69.244 Y-7.906 F750.000
G1 X68.912 Y-8.125 F750.000
G1 X68.600 Y-8.363 F750.000
G1 X68.306 Y-8.625 F750.000
G1 X68.037 Y-8.912 F750.000
G1 X67.794 Y-9.219 F750.000
G1 X67.575 Y-9.544 F750.000
G1 X67.381 Y-9.887 F750.000
G1 X67.213 Y-10.244 F750.000
G1 X67.075 Y-10.613 F750.000
G1 X66.969 Y-10.988 F750.000
G1 X66.888 Y-11.369 F750.000
G1 X66.838 Y-11.756 F750.000
G1 X66.819 Y-12.144 F750.000
G1 X66.831 Y-12.531 F750.000
G1 X66.906 Y-13.306 F750.000
G1 X66.981 Y-13.688 F750.000
G1 X67.100 Y-14.062 F750.000
G1 X67.244 Y-14.425 F750.000
G1 X67.412 Y-14.775 F750.000
G1 X67.619 Y-15.106 F750.000
G1 X67.800 Y-15.450 F750.000
G1 X68.500 Y-16.387 F750.000
G1 X68.763 Y-16.675 F750.000
G1 X69.356 Y-17.181 F750.000
G1 X69.675 Y-17.406 F750.000
G1 X70.013 Y-17.606 F750.000
G1 X70.356 Y-17.788 F750.000
G1 X70.713 Y-17.944 F750.000
G1 X71.081 Y-18.075 F750.000
G1 X71.438 Y-18.231 F750.000
G1 X72.188 Y-18.444 F750.000
G1 X72.575 Y-18.488 F750.000
G1 X72.963 Y-18.494 F750.000
G1 X73.350 Y-18.481 F750.000
G1 X73.737 Y-18.419 F750.000
G1 X74.125 Y-18.381 F750.000
G1 X74.506 Y-18.294 F750.000
G1 X75.256 Y-18.069 F750.000
G1 X75.975 Y-17.756 F750.000
G1 X76.631 Y-17.325 F750.000
G1 X76.938 Y-17.075 F750.000
G1 X77.219 Y-16.800 F750.000
G1 X77.481 Y-16.506 F750.000
G1 X77.725 Y-16.194 F750.000
G1 X77.938 Y-15.863 F750.000
G1 X78.175 Y-15.544 F750.000
G1 X78.550 Y-14.850 F750.000
G1 X78.706 Y-14.488 F750.000
G1 X78.844 Y-14.119 F750.000
G1 X78.963 Y-13.738 F750.000
G1 X79.050 Y-13.350 F750.000
G1 X79.119 Y-12.963 F750.000
G1 X79.162 Y-12.569 F750.000
G1 X79.181 Y-12.175 F750.000
G1 X79.181 Y-11.781 F750.000
G1 X79.156 Y-11.387 F750.000
G1 X79.106 Y-10.994 F750.000
G1 X79.031 Y-10.600 F750.000
G1 X78.938 Y-10.213 F750.000
G1 X78.819 Y-9.831 F750.000
G1 X78.675 Y-9.463 F750.000
G1 X78.513 Y-9.100 F750.000
G1 X78.325 Y-8.750 F750.000
G1 X78.119 Y-8.406 F750.000
G1 X77.894 Y-8.075 F750.000
G1 X77.650 Y-7.763 F750.000
G1 X77.388 Y-7.463 F750.000
G1 X77.106 Y-7.181 F750.000
G1 X76.812 Y-6.912 F750.000
G1 X76.500 Y-6.662 F750.000
G1 X75.862 Y-6.188 F750.000
G1 X75.525 Y-5.975 F750.000
G1 X75.169 Y-5.794 F750.000
G1 X74.806 Y-5.631 F750.000
G1 X74.431 Y-5.494 F750.000
G1 X74.050 Y-5.388 F750.000
G1 X73.662 Y-5.306 F750.000
G1 X73.281 Y-5.194 F750.000
G1 X72.100 Y-5.000 F750.000
G1 X71.706 Y-4.963 F750.000
G1 X71.312 Y-4.975 F750.000
G1 X70.919 Y-5.013 F750.000
G1 X70.525 Y-5.069 F750.000
G1 X70.138 Y-5.162 F750.000
G1 X69.763 Y-5.281 F750.000
G1 X69.394 Y-5.425 F750.000
G1 X69.037 Y-5.600 F750.000
G1 X68.694 Y-5.800 F750.000
G1 X68.369 Y-6.019 F750.000
G1 X68.013 Y-6.188 F750.000
G1 X67.350 Y-6.625 F750.000
G1 X66.725 Y-7.100 F750.000
G1 X66.169 Y-7.656 F750.000
G1 X65.912 Y-7.956 F750.000
G1 X65.681 Y-8.275 F750.000
G1 X65.306 Y-8.969 F750.000
G1 X65.156 Y-9.331 F750.000
G1 X65.037 Y-9.706 F750.000
G1 X64.894 Y-10.069 F750.000
G1 X64.706 Y-10.831 F750.000
G1 X64.656 Y-11.219 F750.000
G1 X64.625 Y-11.606 F750.000
G1 X64.619 Y-11.994 F750.000
G1 X64.638 Y-12.381 F750.000
G1 X64.631 Y-12.769 F750.000
G1 X64.713 Y-13.544 F750.000
G1 X64.875 Y-14.306 F750.000
G1 X64.981 Y-14.681 F750.000
G1 X65.106 Y-15.050 F750.000
G1 X65.250 Y-15.412 F750.000
G1 X65.412 Y-15.769 F750.000
G1 X65.594 Y-16.113 F750.000
G1 X66.006 Y-16.775 F750.000
G1 X66.481 Y-17.387 F750.000
G1 X66.744 Y-17.675 F750.000
G1 X67.019 Y-17.950 F750.000
G1 X67.275 Y-18.244 F750.000
G1 X67.844 Y-18.775 F750.000
G1 X68.463 Y-19.244 F750.000
G1 X68.781 Y-19.462 F750.000
G1 X69.450 Y-19.850 F750.000
G1 X69.800 Y-20.025 F750.000
G1 X70.519 Y-20.325 F750.000
G1 X71.275 Y-20.519 F750.000
G1 X71.662 Y-20.581 F750.000
G1 X72.050 Y-20.619 F750.000
G1 X72.438 Y-20.637 F750.000
G1 X72.825 Y-20.625 F750.000
G1 X73.213 Y-20.650 F750.000
G1 X73.987 Y-20.606 F750.000
G1 X74.763 Y-20.481 F750.000
G1 X75.144 Y-20.394 F750.000
G1 X75.888 Y-20.156 F750.000
G1 X76.250 Y-20.012 F750.000
G1 X76.606 Y-19.850 F750.000
G1 X76.956 Y-19.669 F750.000
G1 X77.625 Y-19.256 F750.000
G1 X78.250 Y-18.781 F750.000
G1 X78.544 Y-18.519 F750.000
G1 X78.825 Y-18.244 F750.000
G1 X79.094 Y-17.956 F750.000
G1 X79.350 Y-17.656 F750.000
G1 X79.812 Y-17.019 F750.000
G1 X80.019 Y-16.681 F750.000
G1 X80.381 Y-15.981 F750.000
G1 X80.537 Y-15.619 F750.000
G1 X80.675 Y-15.250 F750.000
G1 X80.794 Y-14.875 F750.000
G1 X80.944 Y-14.506 F750.000
G1 X81.169 Y-13.744 F750.000
G1 X81.294 Y-12.956 F750.000
G1 X81.338 Y-12.562 F750.000
G1 X81.350 Y-11.775 F750.000
G1 X81.325 Y-11.381 F750.000
G1 X81.281 Y-10.988 F750.000
G1 X81.219 Y-10.594 F750.000
G1 X81.138 Y-10.400 F750.000
G1 X81.144 Y-10.300 F750.000
G1 X81.088 Y-10.100 F750.000
G1 X81.000 Y-9.600 F750.000
G1 X80.763 Y-8.900 F750.000
G1 X80.194 Y-7.775 F750.000
G1 X80.019 Y-7.513 F750.000
G1 X79.975 Y-7.419 F750.000
G1 X79.769 Y-7.181 F750.000
G1 X78.594 Y-5.719 F750.000
G1 X77.650 Y-4.894 F750.000
G1 X76.750 Y-4.362 F750.000
G1 X76.656 Y-4.319 F750.000
G1 X76.144 Y-3.969 F750.000
G1 X74.719 Y-3.325 F750.000
G1 X73.919 Y-3.087 F750.000
G1 X72.719 Y-2.944 F750.000
G1 X72.219 Y-2.956 F750.000
G1 X71.019 Y-2.825 F750.000
G1 X70.019 Y-2.894 F750.000
G1 X68.931 Y-3.175 F750.000
G1 X67.287 Y-3.950 F750.000
G1 X65.850 Y-4.894 F750.000
G1 X65.344 Y-5.375 F750.000
G1 X64.669 Y-5.956 F750.000
G1 X64.400 Y-6.244 F750.000
G1 X63.906 Y-6.856 F750.000
G1 X63.681 Y-7.181 F750.000
G1 X63.475 Y-7.513 F750.000
G1 X63.138 Y-8.219 F750.000
G1 X63.000 Y-8.588 F750.000
G1 X62.844 Y-8.950 F750.000
G1 X62.612 Y-9.700 F750.000
G1 X62.475 Y-10.475 F750.000
G1 X62.438 Y-10.863 F750.000
G1 X62.425 Y-11.250 F750.000
G1 X62.375 Y-11.637 F750.000
G1 X62.362 Y-12.800 F750.000
G1 X62.375 Y-13.188 F750.000
G1 X62.469 Y-13.963 F750.000
G1 X62.538 Y-14.344 F750.000
G1 X62.725 Y-15.100 F750.000
G1 X62.844 Y-15.469 F750.000
G1 X63.131 Y-16.200 F750.000
G1 X63.294 Y-16.556 F750.000
G1 X63.669 Y-17.238 F750.000
G1 X64.094 Y-17.887 F750.000
G1 X64.581 Y-18.500 F750.000
G1 X64.806 Y-18.819 F750.000
G1 X65.306 Y-19.419 F750.000
G1 X65.744 Y-19.788 F750.000
G1 X66.169 Y-20.012 F750.000
G1 X66.544 Y-20.081 F750.000
G1 X66.987 Y-20.244 F750.000
G1 X67.369 Y-20.531 F750.000
G1 X67.725 Y-20.975 F750.000
G1 X68.000 Y-21.375 F750.000
G1 X68.131 Y-21.512 F750.000
G1 X68.213 Y-21.569 F750.000
G1 X68.388 Y-21.650 F750.000
G1 X68.669 Y-21.706 F750.000
G1 X68.981 Y-21.938 F750.000
G1 X69.881 Y-22.394 F750.000
G1 X70.250 Y-22.525 F750.000
G1 X71.006 Y-22.712 F750.000
G1 X71.394 Y-22.769 F750.000
G1 X71.781 Y-22.800 F750.000
G1 X72.169 Y-22.806 F750.000
G1 X72.944 Y-22.863 F750.000
G1 X73.331 Y-22.869 F750.000
G1 X74.106 Y-22.831 F750.000
G1 X74.881 Y-22.744 F750.000
G1 X75.644 Y-22.550 F750.000
G1 X76.019 Y-22.425 F750.000
G1 X76.381 Y-22.275 F750.000
G1 X76.756 Y-22.156 F750.000
G1 X77.831 Y-21.675 F750.000
G1 X78.050 Y-21.469 F750.000
G1 X78.138 Y-21.425 F750.000
G1 X78.362 Y-21.225 F750.000
G1 X79.356 Y-20.575 F750.000
G1 X80.362 Y-19.613 F750.000
G1 X80.800 Y-19.056 F750.000
G1 X81.588 Y-17.762 F750.000
G1 X81.987 Y-16.831 F750.000
G1 X82.250 Y-15.831 F750.000
G1 X82.331 Y-13.531 F750.000
G1 X82.281 Y-11.831 F750.000
G1 X82.081 Y-10.831 F750.000
G1 X81.619 Y-9.531 F750.000
G1 X81.119 Y-8.500 F750.000
G1 X80.200 Y-7.100 F750.000
G1 X79.144 Y-5.925 F750.000
G1 X78.388 Y-5.231 F750.000
G1 X78.125 Y-5.044 F750.000
G1 X78.125 Y-5.044 F750.000
G1 X78.081 Y-5.031 F750.000
G1 X78.081 Y-5.044 F750.000
G1 X78.062 Y-4.994 F750.000
G1 X78.062 Y-4.994 F750.000
G1 X76.862 Y-4.138 F750.000
G1 X75.269 Y-3.350 F750.000
G1 X74.069 Y-2.950 F750.000
G1 X72.469 Y-2.663 F750.000
G1 X71.169 Y-2.612 F750.000
G1 X70.869 Y-2.631 F750.000
G1 X70.869 Y-2.631 F750.000
G1 X70.625 Y-2.669 F750.000
G1 X70.625 Y-2.669 F750.000
G1 X70.531 Y-2.669 F750.000
G1 X70.531 Y-2.669 F750.000
G1 X70.287 Y-2.669 F750.000
G1 X70.287 Y-2.669 F750.000
G1 X69.787 Y-2.731 F750.000
G1 X68.487 Y-3.006 F750.000
G1 X66.688 Y-3.688 F750.000
G1 X65.194 Y-4.525 F750.000
G1 X64.138 Y-5.319 F750.000
G1 X63.369 Y-6.081 F750.000
G1 X62.438 Y-7.269 F750.000
G1 X60.862 Y-10.081 F750.000
G1 X60.438 Y-10.738 F750.000
G1 X60.356 Y-10.919 F750.000
G1 X60.294 Y-11.200 F750.000
G1 X60.312 Y-11.481 F750.000
G1 X60.150 Y-12.306 F750.000
G1 X60.119 Y-12.694 F750.000
G1 X60.112 Y-13.081 F750.000
G1 X60.125 Y-13.469 F750.000
G1 X60.163 Y-13.856 F750.000
G1 X60.225 Y-14.244 F750.000
G1 X60.312 Y-14.625 F750.000
G1 X60.362 Y-15.012 F750.000
G1 X60.556 Y-15.762 F750.000
G1 X60.819 Y-16.494 F750.000
G1 X60.975 Y-16.850 F750.000
G1 X61.337 Y-17.544 F750.000
G1 X61.494 Y-17.900 F750.000
G1 X61.869 Y-18.575 F750.000
G1 X62.525 Y-19.544 F750.000
G1 X63.150 Y-20.288 F750.000
G1 X63.225 Y-20.344 F750.000
G1 X63.413 Y-20.387 F750.000
G1 X63.750 Y-20.188 F750.000
G1 X64.219 Y-20.056 F750.000
G1 X65.250 Y-20.038 F750.000
G1 X65.250 Y-20.038 F750.000
G1 X65.487 Y-20.006 F750.000
G1 X65.713 Y-19.944 F750.000
G1 X65.919 Y-19.837 F750.000
G1 X65.981 Y-19.762 F750.000
G0 X66.013 Y-19.681
G0 X66.013 Y-19.587
G0 X65.950 Y-19.387
G0 X61.612 Y-11.012
G1 X61.538 Y-10.875 F750.000
G1 X61.400 Y-10.625 F750.000
G1 X61.319 Y-10.525 F750.000
G1 X61.231 Y-10.450 F750.000
G1 X61.131 Y-10.406 F750.000
G1 X61.019 Y-10.387 F750.000
G1 X60.794 Y-10.406 F750.000
G1 X60.569 Y-10.481 F750.000
G1 X60.356 Y-10.581 F750.000
G1 X60.356 Y-10.581 F750.000
G1 X60.275 Y-10.644 F750.000
G1 X59.900 Y-10.800 F750.000
G1 X59.200 Y-10.963 F750.000
G1 X58.931 Y-11.094 F750.000
G1 X58.725 Y-11.306 F750.000
G1 X58.506 Y-11.637 F750.000
G1 X58.300 Y-12.081 F750.000
G1 X58.163 Y-12.450 F750.000
G1 X58.013 Y-13.213 F750.000
G1 X57.975 Y-13.600 F750.000
G1 X57.975 Y-13.988 F750.000
G1 X57.994 Y-14.375 F750.000
G1 X58.044 Y-14.762 F750.000
G1 X58.125 Y-15.144 F750.000
G1 X58.163 Y-15.531 F750.000
G1 X58.450 Y-16.669 F750.000
G1 X58.694 Y-17.406 F750.000
G1 X58.981 Y-18.125 F750.000
G1 X59.312 Y-18.831 F750.000
G1 X59.725 Y-19.494 F750.000
G1 X59.950 Y-19.812 F750.000
G1 X60.150 Y-20.144 F750.000
G1 X60.612 Y-20.769 F750.000
G1 X61.112 Y-21.363 F750.000
G1 X61.406 Y-21.619 F750.000
G1 X61.725 Y-21.844 F750.000
G1 X62.062 Y-22.031 F750.000
G1 X62.438 Y-22.119 F750.000
G1 X62.531 Y-22.125 F750.000
G1 X62.625 Y-22.113 F750.000
G1 X62.712 Y-22.069 F750.000
G1 X62.756 Y-21.981 F750.000
G1 X62.763 Y-21.581 F750.000
G1 X62.825 Y-21.281 F750.000
G1 X62.862 Y-21.188 F750.000
G1 X62.862 Y-21.188 F750.000
G1 X62.919 Y-20.950 F750.000
G1 X62.944 Y-20.706 F750.000
G1 X62.925 Y-20.469 F750.000
G1 X62.900 Y-20.350 F750.000
G0 X62.869 Y-20.231
G0 X60.081 Y-11.919
G1 X60.031 Y-11.775 F750.000
G1 X59.875 Y-11.375 F750.000
G1 X59.812 Y-11.269 F750.000
G1 X59.731 Y-11.175 F750.000
G1 X59.538 Y-11.031 F750.000
G1 X59.325 Y-10.938 F750.000
G1 X58.981 Y-10.863 F750.000
G1 X58.981 Y-10.863 F750.000
G1 X57.781 Y-10.875 F750.000
G1 X57.281 Y-10.988 F750.000
G1 X57.006 Y-11.119 F750.000
G1 X56.675 Y-11.488 F750.000
G1 X56.513 Y-11.731 F750.000
G1 X56.169 Y-12.438 F750.000
G1 X56.050 Y-12.812 F750.000
G1 X55.888 Y-13.575 F750.000
G1 X55.856 Y-13.963 F750.000
G1 X55.856 Y-14.350 F750.000
G1 X55.881 Y-14.738 F750.000
G1 X55.888 Y-15.125 F750.000
G1 X56.000 Y-15.900 F750.000
G1 X56.069 Y-16.281 F750.000
G1 X56.112 Y-16.669 F750.000
G1 X56.263 Y-17.431 F750.000
G1 X56.631 Y-18.544 F750.000
G1 X56.962 Y-19.250 F750.000
G1 X57.506 Y-20.163 F750.000
G1 X58.144 Y-21.100 F750.000
G1 X58.425 Y-21.706 F750.000
G1 X58.594 Y-21.938 F750.000
G1 X58.819 Y-22.106 F750.000
G1 X58.881 Y-22.181 F750.000
G1 X59.031 Y-22.294 F750.000
G1 X59.281 Y-22.594 F750.000
G1 X59.550 Y-22.875 F750.000
G1 X59.831 Y-23.144 F750.000
G1 X60.131 Y-23.387 F750.000
G1 X60.781 Y-23.812 F750.000
G1 X61.144 Y-23.950 F750.000
G1 X61.888 Y-24.119 F750.000
G1 X62.275 Y-24.131 F750.000
G1 X62.556 Y-24.044 F750.000
G1 X62.638 Y-23.988 F750.000
G1 X62.706 Y-23.913 F750.000
G1 X62.756 Y-23.825 F750.000
G1 X62.756 Y-22.125 F750.000
G1 X62.756 Y-22.125 F750.000
G1 X62.725 Y-21.875 F750.000
G1 X62.663 Y-21.644 F750.000
G1 X62.500 Y-21.312 F750.000
G0 X62.444 Y-21.206
G0 X58.250 Y-11.894
G1 X58.181 Y-11.750 F750.000
G1 X57.987 Y-11.369 F750.000
G1 X57.831 Y-11.169 F750.000
G1 X57.638 Y-11.031 F750.000
G1 X57.419 Y-10.938 F750.000
G1 X57.075 Y-10.863 F750.000
G1 X57.075 Y-10.863 F750.000
G1 X55.775 Y-10.875 F750.000
G1 X55.375 Y-10.944 F750.000
G1 X55.175 Y-11.006 F750.000
G1 X54.913 Y-11.156 F750.000
G1 X54.837 Y-11.219 F750.000
G1 X54.475 Y-11.688 F750.000
G1 X54.263 Y-12.019 F750.000
G1 X54.087 Y-12.369 F750.000
G1 X53.950 Y-12.738 F750.000
G1 X53.850 Y-13.119 F750.000
G1 X53.706 Y-13.887 F750.000
G1 X53.681 Y-14.662 F750.000
G1 X53.700 Y-15.438 F750.000
G1 X53.850 Y-16.600 F750.000
G1 X54.019 Y-17.363 F750.000
G1 X54.081 Y-17.750 F750.000
G1 X54.356 Y-18.894 F750.000
G1 X54.556 Y-19.438 F750.000
G1 X54.775 Y-19.750 F750.000
G1 X54.812 Y-19.837 F750.000
G1 X55.025 Y-20.031 F750.000
G1 X56.056 Y-20.038 F750.000
G1 X56.056 Y-20.038 F750.000
G1 X56.294 Y-20.006 F750.000
G1 X56.519 Y-19.944 F750.000
G1 X56.725 Y-19.831 F750.000
G1 X56.800 Y-19.756 F750.000
G0 X56.856 Y-19.669
G0 X56.881 Y-19.569
G0 X56.881 Y-19.225
G0 X56.112 Y-11.944
G1 X56.094 Y-11.794 F750.000
G1 X56.056 Y-11.512 F750.000
G1 X56.025 Y-11.381 F750.000
G1 X55.975 Y-11.269 F750.000
G1 X55.906 Y-11.175 F750.000
G1 X55.819 Y-11.094 F750.000
G1 X55.619 Y-10.975 F750.000
G1 X55.169 Y-10.863 F750.000
G1 X55.169 Y-10.863 F750.000
G1 X53.669 Y-10.881 F750.000
G1 X53.269 Y-10.950 F750.000
G1 X53.069 Y-11.012 F750.000
G1 X52.888 Y-11.113 F750.000
G1 X52.413 Y-11.606 F750.000
G1 X52.144 Y-12.019 F750.000
G1 X51.806 Y-12.725 F750.000
G1 X51.606 Y-13.481 F750.000
G1 X51.544 Y-13.869 F750.000
G1 X51.525 Y-14.256 F750.000
G1 X51.475 Y-14.644 F750.000
G1 X51.531 Y-15.700 F750.000
G1 X51.556 Y-15.794 F750.000
G1 X51.600 Y-15.881 F750.000
G1 X51.656 Y-16.062 F750.000
G1 X51.944 Y-16.306 F750.000
G1 X52.131 Y-16.525 F750.000
G1 X52.269 Y-16.781 F750.000
G1 X52.362 Y-17.056 F750.000
G1 X52.419 Y-17.337 F750.000
G1 X52.406 Y-19.775 F750.000
G1 X52.438 Y-19.962 F750.000
G1 X52.469 Y-20.056 F750.000
G1 X52.581 Y-20.212 F750.000
G1 X52.656 Y-20.269 F750.000
G1 X52.694 Y-20.356 F750.000
G1 X52.900 Y-20.550 F750.000
G1 X53.056 Y-20.794 F750.000
G1 X53.119 Y-20.869 F750.000
G1 X53.206 Y-20.913 F750.000
G1 X53.300 Y-20.913 F750.000
G1 X53.413 Y-20.744 F750.000
G1 X53.413 Y-20.744 F750.000
G1 X53.562 Y-20.413 F750.000
G1 X53.619 Y-20.175 F750.000
G1 X53.638 Y-19.931 F750.000
G0 X53.638 Y-19.812
G0 X53.869 Y-11.950
G1 X53.875 Y-11.800 F750.000
G1 X53.875 Y-11.512 F750.000
G1 X53.856 Y-11.387 F750.000
G1 X53.812 Y-11.275 F750.000
G1 X53.750 Y-11.175 F750.000
G1 X53.675 Y-11.094 F750.000
G1 X53.475 Y-10.975 F750.000
G1 X53.025 Y-10.863 F750.000
G1 X53.025 Y-10.863 F750.000
G1 X51.525 Y-10.881 F750.000
G1 X51.125 Y-10.950 F750.000
G1 X50.925 Y-11.012 F750.000
G1 X50.663 Y-11.162 F750.000
G1 X50.587 Y-11.225 F750.000
G1 X50.225 Y-11.694 F750.000
G1 X49.812 Y-12.363 F750.000
G1 X49.656 Y-12.725 F750.000
G1 X49.425 Y-13.475 F750.000
G1 X49.356 Y-13.863 F750.000
G1 X49.319 Y-14.250 F750.000
G1 X49.306 Y-14.637 F750.000
G1 X49.337 Y-15.119 F750.000
G1 X49.388 Y-15.306 F750.000
G1 X49.487 Y-15.469 F750.000
G1 X49.575 Y-15.512 F750.000
G1 X49.856 Y-15.537 F750.000
G1 X50.325 Y-15.650 F750.000
G1 X50.325 Y-15.650 F750.000
G1 X50.681 Y-15.675 F750.000
G1 X50.919 Y-15.644 F750.000
G1 X51.025 Y-15.606 F750.000
G1 X51.112 Y-15.550 F750.000
G0 X51.181 Y-15.475
G0 X51.231 Y-15.381
G0 X51.306 Y-15.050
G0 X51.663 Y-11.925
G1 X51.681 Y-11.787 F750.000
G1 X51.706 Y-11.512 F750.000
G1 X51.694 Y-11.381 F750.000
G1 X51.663 Y-11.269 F750.000
G1 X51.606 Y-11.175 F750.000
G1 X51.525 Y-11.094 F750.000
G1 X51.331 Y-10.975 F750.000
G1 X51.112 Y-10.906 F750.000
G1 X50.881 Y-10.863 F750.000
G1 X50.881 Y-10.863 F750.000
G1 X50.081 Y-10.869 F750.000
G1 X49.981 Y-10.881 F750.000
G1 X49.381 Y-10.881 F750.000
G1 X48.981 Y-10.950 F750.000
G1 X48.694 Y-11.050 F750.000
G1 X48.525 Y-11.156 F750.000
G1 X48.131 Y-11.606 F750.000
G1 X47.675 Y-12.363 F750.000
G1 X47.494 Y-12.706 F750.000
G1 X47.369 Y-13.075 F750.000
G1 X47.275 Y-13.456 F750.000
G1 X47.200 Y-13.838 F750.000
G1 X47.175 Y-14.225 F750.000
G1 X47.181 Y-14.613 F750.000
G1 X47.237 Y-15.094 F750.000
G1 X47.294 Y-15.275 F750.000
G1 X47.438 Y-15.525 F750.000
G1 X47.513 Y-15.588 F750.000
G1 X47.606 Y-15.588 F750.000
G1 X47.888 Y-15.512 F750.000
G1 X48.356 Y-15.469 F750.000
G1 X48.356 Y-15.469 F750.000
G1 X48.594 Y-15.425 F750.000
G1 X48.819 Y-15.356 F750.000
G1 X49.019 Y-15.238 F750.000
G1 X49.100 Y-15.156 F750.000
G0 X49.163 Y-15.062
G0 X49.231 Y-14.850
G0 X49.538 Y-11.925
G1 X49.550 Y-11.787 F750.000
G1 X49.569 Y-11.512 F750.000
G1 X49.556 Y-11.381 F750.000
G1 X49.525 Y-11.269 F750.000
G1 X49.469 Y-11.175 F750.000
G1 X49.388 Y-11.094 F750.000
G1 X49.194 Y-10.975 F750.000
G1 X48.744 Y-10.863 F750.000
G1 X48.744 Y-10.863 F750.000
G1 X47.144 Y-10.881 F750.000
G1 X46.844 Y-10.931 F750.000
G1 X46.550 Y-11.031 F750.000
G1 X46.375 Y-11.131 F750.000
G1 X46.100 Y-11.412 F750.000
G1 X46.038 Y-11.494 F750.000
G1 X45.931 Y-11.769 F750.000
G1 X45.913 Y-11.863 F750.000
G1 X45.969 Y-12.144 F750.000
G1 X46.000 Y-12.613 F750.000
G1 X45.950 Y-13.175 F750.000
G1 X45.831 Y-13.644 F750.000
G1 X45.281 Y-14.794 F750.000
G1 X45.200 Y-15.075 F750.000
G1 X45.194 Y-15.169 F750.000
G1 X45.237 Y-15.356 F750.000
G1 X45.337 Y-15.519 F750.000
G1 X45.350 Y-15.613 F750.000
G1 X45.400 Y-15.694 F750.000
G1 X45.531 Y-16.062 F750.000
G1 X45.625 Y-16.231 F750.000
G1 X45.694 Y-16.300 F750.000
G1 X45.781 Y-16.344 F750.000
G1 X45.875 Y-16.344 F750.000
G1 X46.375 Y-16.019 F750.000
G1 X46.375 Y-16.019 F750.000
G1 X46.550 Y-15.856 F750.000
G1 X46.619 Y-15.762 F750.000
G0 X46.669 Y-15.662
G0 X46.731 Y-15.438
G0 X47.006 Y-11.688
G1 X47.013 Y-11.562 F750.000
G1 X47.031 Y-11.206 F750.000
G1 X47.013 Y-11.106 F750.000
G1 X46.969 Y-11.025 F750.000
G1 X46.894 Y-10.963 F750.000
G1 X46.600 Y-10.863 F750.000
G1 X46.600 Y-10.863 F750.000
G1 X46.500 Y-10.869 F750.000
G1 X45.700 Y-10.869 F750.000
G1 X45.606 Y-10.912 F750.000
G1 X45.594 Y-11.006 F750.000
G1 X45.594 Y-11.006 F750.000
G1 X45.731 Y-11.250 F750.000
G1 X45.987 Y-11.562 F750.000
G1 X46.056 Y-11.650 F750.000
G0 X46.106 Y-11.750
G0 X46.150 Y-11.963
G0 X46.044 Y-13.794
G1 X46.038 Y-13.912 F750.000
G1 X46.000 Y-14.262 F750.000
G1 X45.969 Y-14.363 F750.000
G1 X45.913 Y-14.431 F750.000
G1 X45.731 Y-14.525 F750.000
G1 X45.413 Y-14.656 F750.000
G1 X45.106 Y-14.838 F750.000
G1 X45.106 Y-14.838 F750.000
G1 X44.281 Y-15.569 F750.000
G1 X44.094 Y-15.800 F750.000
G1 X44.050 Y-15.887 F750.000
G1 X44.000 Y-16.262 F750.000
G1 X44.038 Y-16.544 F750.000
G1 X44.156 Y-16.913 F750.000
G1 X44.337 Y-17.256 F750.000
G1 X44.456 Y-17.400 F750.000
G1 X44.600 Y-17.519 F750.000
G1 X44.688 Y-17.562 F750.000
G1 X44.781 Y-17.581 F750.000
G1 X44.875 Y-17.544 F750.000
G1 X45.075 Y-17.188 F750.000
G1 X45.337 Y-16.881 F750.000
G1 X45.337 Y-16.881 F750.000
G1 X45.469 Y-16.675 F750.000
G1 X45.556 Y-16.462 F750.000
G1 X45.569 Y-16.356 F750.000
G0 X45.544 Y-16.262
G0 X45.487 Y-16.175
G0 X45.325 Y-16.025
G0 X45.231 Y-15.956
G1 X45.119 Y-15.881 F750.000
G1 X44.769 Y-15.669 F750.000
G1 X44.531 Y-15.594 F750.000
G1 X44.294 Y-15.581 F750.000
G1 X43.944 Y-15.650 F750.000
G1 X43.944 Y-15.650 F750.000
G1 X43.169 Y-15.906 F750.000
G1 X42.987 Y-15.994 F750.000
G1 X42.750 Y-16.181 F750.000
G1 X42.700 Y-16.269 F750.000
G1 X42.575 Y-16.644 F750.000
G1 X42.513 Y-17.125 F750.000
G1 X42.538 Y-17.512 F750.000
G1 X42.638 Y-17.887 F750.000
G1 X42.763 Y-18.163 F750.000
G1 X42.913 Y-18.406 F750.000
G1 X43.131 Y-18.650 F750.000
G1 X43.369 Y-18.837 F750.000
G1 X43.631 Y-18.988 F750.000
G1 X44.194 Y-19.163 F750.000
G1 X44.288 Y-19.175 F750.000
G1 X44.381 Y-19.169 F750.000
G1 X44.550 Y-19.081 F750.000
G1 X44.769 Y-17.781 F750.000
G1 X44.812 Y-17.688 F750.000
G1 X44.812 Y-17.688 F750.000
G1 X44.881 Y-17.450 F750.000
G1 X44.913 Y-17.212 F750.000
G1 X44.900 Y-16.975 F750.000
G1 X44.862 Y-16.869 F750.000
G0 X44.800 Y-16.781
G0 X44.719 Y-16.712
G0 X44.294 Y-16.506
G1 X44.169 Y-16.462 F750.000
G1 X43.788 Y-16.300 F750.000
G1 X43.275 Y-16.031 F750.000
G1 X43.019 Y-15.944 F750.000
G1 X42.781 Y-15.894 F750.000
G1 X42.781 Y-15.894 F750.000
G1 X41.981 Y-15.844 F750.000
G1 X41.681 Y-15.894 F750.000
G1 X41.487 Y-15.963 F750.000
G1 X41.406 Y-16.025 F750.000
G1 X41.200 Y-16.244 F750.000
G1 X41.087 Y-16.406 F750.000
G1 X40.888 Y-16.744 F750.000
G1 X40.769 Y-17.119 F750.000
G1 X40.706 Y-17.506 F750.000
G1 X40.700 Y-17.819 F750.000
G1 X40.737 Y-18.125 F750.000
G1 X40.800 Y-18.450 F750.000
G1 X40.894 Y-18.831 F750.000
G1 X41.050 Y-19.188 F750.000
G1 X41.225 Y-19.538 F750.000
G1 X41.456 Y-19.850 F750.000
G1 X41.700 Y-20.119 F750.000
G1 X41.987 Y-20.375 F750.000
G1 X42.312 Y-20.594 F750.000
G1 X42.656 Y-20.769 F750.000
G1 X42.844 Y-20.806 F750.000
G1 X43.031 Y-20.769 F750.000
G1 X43.225 Y-20.544 F750.000
G1 X43.619 Y-20.250 F750.000
G1 X43.800 Y-20.163 F750.000
G1 X44.175 Y-20.056 F750.000
G1 X44.362 Y-20.031 F750.000
G1 X44.431 Y-19.962 F750.000
G1 X44.544 Y-19.163 F750.000
G1 X44.544 Y-19.163 F750.000
G1 X44.550 Y-18.919 F750.000
G1 X44.525 Y-18.675 F750.000
G1 X44.450 Y-18.444 F750.000
G1 X44.400 Y-18.337 F750.000
G0 X44.337 Y-18.231
G0 X43.087 Y-16.775
G1 X43.000 Y-16.675 F750.000
G1 X42.462 Y-16.081 F750.000
G1 X42.269 Y-15.938 F750.000
G1 X41.844 Y-15.744 F750.000
G1 X41.844 Y-15.744 F750.000
G1 X41.544 Y-15.688 F750.000
G1 X40.775 Y-15.387 F750.000
G1 X40.575 Y-15.344 F750.000
G1 X40.375 Y-15.344 F750.000
G1 X40.000 Y-15.494 F750.000
G1 X39.837 Y-15.613 F750.000
G1 X39.550 Y-15.881 F750.000
G1 X39.294 Y-16.181 F750.000
G1 X39.087 Y-16.512 F750.000
G1 X38.931 Y-16.875 F750.000
G1 X38.819 Y-17.200 F750.000
G1 X38.750 Y-17.587 F750.000
G1 X38.731 Y-17.975 F750.000
G1 X38.756 Y-18.356 F750.000
G1 X38.756 Y-18.744 F750.000
G1 X38.831 Y-19.125 F750.000
G1 X39.044 Y-19.875 F750.000
G1 X39.200 Y-20.231 F750.000
G1 X39.375 Y-20.575 F750.000
G1 X39.575 Y-20.906 F750.000
G1 X39.806 Y-21.219 F750.000
G1 X40.056 Y-21.512 F750.000
G1 X40.331 Y-21.788 F750.000
G1 X40.625 Y-22.038 F750.000
G1 X40.938 Y-22.269 F750.000
G1 X41.281 Y-22.450 F750.000
G1 X41.638 Y-22.613 F750.000
G1 X42.019 Y-22.706 F750.000
G1 X42.487 Y-22.694 F750.000
G1 X42.581 Y-22.669 F750.000
G1 X42.737 Y-22.550 F750.000
G1 X42.737 Y-21.650 F750.000
G1 X42.788 Y-21.350 F750.000
G1 X42.894 Y-21.062 F750.000
G1 X42.894 Y-21.062 F750.000
G1 X42.950 Y-20.825 F750.000
G1 X42.975 Y-20.581 F750.000
G1 X42.956 Y-20.344 F750.000
G1 X42.925 Y-20.225 F750.000
G0 X42.894 Y-20.113
G0 X41.294 Y-16.600
G1 X41.237 Y-16.475 F750.000
G1 X41.119 Y-16.219 F750.000
G1 X40.900 Y-15.613 F750.000
G1 X40.788 Y-15.400 F750.000
G1 X40.569 Y-15.131 F750.000
G1 X40.569 Y-15.131 F750.000
G1 X40.019 Y-14.650 F750.000
G1 X39.750 Y-14.481 F750.000
G1 X39.650 Y-14.444 F750.000
G1 X39.350 Y-14.406 F750.000
G1 X39.150 Y-14.438 F750.000
G1 X38.669 Y-14.575 F750.000
G1 X38.312 Y-14.744 F750.000
G1 X37.987 Y-14.969 F750.000
G1 X37.706 Y-15.225 F750.000
G1 X37.487 Y-15.463 F750.000
G1 X37.275 Y-15.794 F750.000
G1 X36.950 Y-16.450 F750.000
G1 X36.837 Y-16.825 F750.000
G1 X36.756 Y-17.206 F750.000
G1 X36.700 Y-17.594 F750.000
G1 X36.625 Y-17.975 F750.000
G1 X36.594 Y-18.750 F750.000
G1 X36.631 Y-19.137 F750.000
G1 X36.688 Y-19.525 F750.000
G1 X36.769 Y-19.906 F750.000
G1 X36.844 Y-20.081 F750.000
G1 X36.894 Y-20.163 F750.000
G1 X36.913 Y-20.256 F750.000
G1 X36.987 Y-20.431 F750.000
G1 X37.144 Y-20.675 F750.000
G1 X37.206 Y-20.750 F750.000
G1 X37.644 Y-20.938 F750.000
G1 X38.700 Y-21.594 F750.000
G1 X39.969 Y-22.731 F750.000
G1 X40.281 Y-23.087 F750.000
G1 X41.106 Y-24.131 F750.000
G1 X41.325 Y-24.312 F750.000
G1 X41.494 Y-24.387 F750.000
G1 X42.056 Y-24.488 F750.000
G1 X42.538 Y-24.488 F750.000
G1 X42.819 Y-24.400 F750.000
G1 X42.906 Y-24.356 F750.000
G1 X42.975 Y-24.281 F750.000
G1 X43.000 Y-24.181 F750.000
G1 X42.894 Y-24.000 F750.000
G1 X42.894 Y-24.000 F750.000
G1 X42.756 Y-23.794 F750.000
G1 X42.594 Y-23.613 F750.000
G1 X42.325 Y-23.375 F750.000
G0 X42.256 Y-23.288
G0 X42.150 Y-23.087
G0 X41.900 Y-22.200
G0 X40.281 Y-16.056
G1 X40.244 Y-15.912 F750.000
G1 X40.150 Y-15.494 F750.000
G1 X40.100 Y-14.869 F750.000
G1 X39.944 Y-14.425 F750.000
G1 X39.944 Y-14.425 F750.000
G1 X39.438 Y-13.512 F750.000
G1 X39.225 Y-13.281 F750.000
G1 X39.138 Y-13.225 F750.000
G1 X38.737 Y-13.106 F750.000
G1 X38.144 Y-13.037 F750.000
G1 X37.750 Y-13.081 F750.000
G1 X37.369 Y-13.181 F750.000
G1 X37.081 Y-13.306 F750.000
G1 X36.812 Y-13.469 F750.000
G1 X36.531 Y-13.662 F750.000
G1 X36.225 Y-13.912 F750.000
G1 X35.962 Y-14.200 F750.000
G1 X35.469 Y-14.806 F750.000
G1 X35.269 Y-15.144 F750.000
G1 X34.919 Y-15.844 F750.000
G1 X34.788 Y-16.212 F750.000
G1 X34.675 Y-16.587 F750.000
G1 X34.587 Y-16.969 F750.000
G1 X34.531 Y-17.356 F750.000
G1 X34.456 Y-17.738 F750.000
G1 X34.375 Y-18.900 F750.000
G1 X34.450 Y-19.475 F750.000
G1 X34.525 Y-19.650 F750.000
G1 X34.575 Y-19.731 F750.000
G1 X34.575 Y-19.825 F750.000
G1 X34.675 Y-19.988 F750.000
G1 X34.812 Y-20.119 F750.000
G1 X35.656 Y-20.250 F750.000
G1 X35.656 Y-20.250 F750.000
G1 X35.888 Y-20.256 F750.000
G1 X36.125 Y-20.231 F750.000
G1 X36.344 Y-20.156 F750.000
G1 X36.444 Y-20.100 F750.000
G0 X36.525 Y-20.025
G0 X36.663 Y-19.837
G0 X39.044 Y-14.912
G1 X39.106 Y-14.787 F750.000
G1 X39.394 Y-14.156 F750.000
G1 X39.469 Y-13.919 F750.000
G1 X39.487 Y-13.650 F750.000
G1 X39.469 Y-13.331 F750.000
G1 X39.469 Y-13.331 F750.000
G1 X39.425 Y-13.031 F750.000
G1 X39.400 Y-12.631 F750.000
G1 X39.331 Y-12.331 F750.000
G1 X39.212 Y-12.037 F750.000
G1 X39.150 Y-11.956 F750.000
G1 X39.000 Y-11.819 F750.000
G1 X38.737 Y-11.650 F750.000
G1 X38.550 Y-11.562 F750.000
G1 X37.850 Y-11.400 F750.000
G1 X37.350 Y-11.363 F750.000
G1 X36.850 Y-11.419 F750.000
G1 X36.175 Y-11.656 F750.000
G1 X35.456 Y-11.988 F750.000
G1 X35.119 Y-12.194 F750.000
G1 X34.800 Y-12.425 F750.000
G1 X34.506 Y-12.681 F750.000
G1 X34.231 Y-12.963 F750.000
G1 X33.981 Y-13.262 F750.000
G1 X33.756 Y-13.588 F750.000
G1 X33.506 Y-13.887 F750.000
G1 X33.106 Y-14.569 F750.000
G1 X32.938 Y-14.925 F750.000
G1 X32.794 Y-15.287 F750.000
G1 X32.669 Y-15.656 F750.000
G1 X32.569 Y-16.038 F750.000
G1 X32.450 Y-16.413 F750.000
G1 X32.225 Y-17.569 F750.000
G1 X32.138 Y-18.344 F750.000
G1 X32.156 Y-19.119 F750.000
G1 X32.231 Y-19.500 F750.000
G1 X32.344 Y-19.769 F750.000
G1 X32.450 Y-19.931 F750.000
G1 X32.487 Y-20.019 F750.000
G1 X32.550 Y-20.087 F750.000
G1 X32.631 Y-20.137 F750.000
G1 X33.475 Y-20.062 F750.000
G1 X33.475 Y-20.062 F750.000
G1 X33.706 Y-20.012 F750.000
G1 X33.925 Y-19.925 F750.000
G1 X34.125 Y-19.800 F750.000
G1 X34.219 Y-19.725 F750.000
G0 X34.300 Y-19.637
G0 X34.700 Y-19.106
G0 X38.513 Y-13.575
G1 X38.587 Y-13.463 F750.000
G1 X38.731 Y-13.262 F750.000
G1 X39.181 Y-12.694 F750.000
G1 X39.294 Y-12.488 F750.000
G1 X39.413 Y-12.150 F750.000
G1 X39.413 Y-12.150 F750.000
G1 X39.469 Y-11.850 F750.000
G1 X39.500 Y-11.756 F750.000
G1 X39.506 Y-11.656 F750.000
G1 X39.562 Y-11.356 F750.000
G1 X39.575 Y-11.056 F750.000
G1 X39.562 Y-10.956 F750.000
G1 X39.481 Y-10.887 F750.000
G1 X39.381 Y-10.863 F750.000
G1 X34.181 Y-10.881 F750.000
G1 X33.681 Y-10.981 F750.000
G1 X33.394 Y-11.094 F750.000
G1 X33.069 Y-11.331 F750.000
G1 X32.694 Y-11.675 F750.000
G1 X31.881 Y-12.531 F750.000
G1 X31.394 Y-13.150 F750.000
G1 X31.006 Y-13.831 F750.000
G1 X30.831 Y-14.181 F750.000
G1 X30.556 Y-14.912 F750.000
G1 X30.450 Y-15.287 F750.000
G1 X30.325 Y-15.656 F750.000
G1 X30.069 Y-16.800 F750.000
G1 X29.962 Y-17.575 F750.000
G1 X29.900 Y-18.350 F750.000
G1 X29.887 Y-18.738 F750.000
G1 X29.931 Y-19.125 F750.000
G1 X30.094 Y-19.887 F750.000
G1 X30.262 Y-20.344 F750.000
G1 X30.306 Y-20.431 F750.000
G1 X30.369 Y-20.506 F750.000
G1 X30.525 Y-20.619 F750.000
G1 X31.369 Y-20.356 F750.000
G1 X31.369 Y-20.356 F750.000
G1 X31.469 Y-20.300 F750.000
G0 X31.569 Y-20.238
G0 X31.913 Y-19.913
G0 X38.750 Y-12.250
G1 X38.844 Y-12.137 F750.000
G1 X39.337 Y-11.588 F750.000
G1 X39.644 Y-11.219 F750.000
G1 X39.775 Y-11.025 F750.000
G1 X39.775 Y-11.025 F750.000
G1 X39.781 Y-10.925 F750.000
G1 X39.694 Y-10.869 F750.000
G1 X39.694 Y-10.869 F750.000
G1 X39.319 Y-10.900 F750.000
G1 X38.844 Y-11.025 F750.000
G0 X38.731 Y-11.050
G0 X38.100 Y-11.100
G0 X35.056 Y-11.188
G1 X34.919 Y-11.194 F750.000
G1 X34.638 Y-11.194 F750.000
G1 X34.381 Y-11.150 F750.000
G1 X33.819 Y-10.925 F750.000
G1 X33.475 Y-10.856 F750.000
G1 X33.475 Y-10.856 F750.000
G1 X31.475 Y-10.875 F750.000
G1 X30.975 Y-10.963 F750.000
G1 X30.775 Y-11.025 F750.000
G1 X30.512 Y-11.175 F750.000
G1 X30.006 Y-11.656 F750.000
G1 X29.488 Y-12.250 F750.000
G1 X29.262 Y-12.575 F750.000
G1 X28.869 Y-13.250 F750.000
G1 X28.706 Y-13.606 F750.000
G1 X28.438 Y-14.344 F750.000
G1 X28.288 Y-14.706 F750.000
G1 X27.969 Y-15.831 F750.000
G1 X27.800 Y-16.594 F750.000
G1 X27.675 Y-17.369 F750.000
G1 X27.637 Y-18.144 F750.000
G1 X27.637 Y-18.531 F750.000
G1 X27.694 Y-19.306 F750.000
G1 X27.744 Y-19.694 F750.000
G1 X27.812 Y-20.075 F750.000
G1 X28.069 Y-20.812 F750.000
G1 X28.306 Y-21.238 F750.000
G1 X28.481 Y-21.456 F750.000
G1 X28.556 Y-21.512 F750.000
G1 X28.644 Y-21.550 F750.000
G1 X28.738 Y-21.562 F750.000
G1 X29.694 Y-21.025 F750.000
G1 X29.694 Y-21.025 F750.000
G1 X29.887 Y-20.881 F750.000
G1 X30.056 Y-20.712 F750.000
G1 X30.194 Y-20.512 F750.000
G1 X30.244 Y-20.406 F750.000
G0 X30.288 Y-20.294
G0 X30.419 Y-19.631
G0 X31.606 Y-11.944
G1 X31.631 Y-11.787 F750.000
G1 X31.663 Y-11.506 F750.000
G1 X31.663 Y-11.375 F750.000
G1 X31.631 Y-11.262 F750.000
G1 X31.575 Y-11.169 F750.000
G1 X31.500 Y-11.088 F750.000
G1 X31.306 Y-10.969 F750.000
G1 X31.087 Y-10.900 F750.000
G1 X30.856 Y-10.856 F750.000
G1 X30.856 Y-10.856 F750.000
G1 X28.956 Y-10.875 F750.000
G1 X28.456 Y-10.956 F750.000
G1 X28.256 Y-11.019 F750.000
G1 X27.994 Y-11.169 F750.000
G1 X27.569 Y-11.588 F750.000
G1 X27.269 Y-11.981 F750.000
G1 X27.050 Y-12.312 F750.000
G1 X26.656 Y-12.994 F750.000
G1 X26.306 Y-13.700 F750.000
G1 X26.006 Y-14.425 F750.000
G1 X25.875 Y-14.794 F750.000
G1 X25.706 Y-15.556 F750.000
G1 X25.644 Y-15.944 F750.000
G1 X25.550 Y-16.325 F750.000
G1 X25.519 Y-19.512 F750.000
G1 X25.637 Y-20.075 F750.000
G1 X25.738 Y-20.344 F750.000
G1 X25.744 Y-20.438 F750.000
G1 X25.919 Y-21.163 F750.000
G1 X26.038 Y-21.531 F750.000
G1 X26.200 Y-21.887 F750.000
G1 X26.400 Y-22.219 F750.000
G1 X26.619 Y-22.538 F750.000
G1 X26.994 Y-22.844 F750.000
G1 X27.075 Y-22.887 F750.000
G1 X27.169 Y-22.913 F750.000
G1 X27.262 Y-22.913 F750.000
G1 X27.344 Y-22.856 F750.000
G1 X27.750 Y-22.425 F750.000
G1 X28.350 Y-21.913 F750.000
G1 X28.350 Y-21.913 F750.000
G1 X28.581 Y-21.637 F750.000
G1 X28.694 Y-21.425 F750.000
G1 X28.769 Y-21.194 F750.000
G0 X28.788 Y-21.075
G0 X28.831 Y-20.387
G0 X29.081 Y-11.956
G1 X29.087 Y-11.800 F750.000
G1 X29.087 Y-11.512 F750.000
G1 X29.069 Y-11.381 F750.000
G1 X29.025 Y-11.269 F750.000
G1 X28.962 Y-11.169 F750.000
G1 X28.887 Y-11.094 F750.000
G1 X28.688 Y-10.969 F750.000
G1 X28.238 Y-10.856 F750.000
G1 X28.238 Y-10.856 F750.000
G1 X26.538 Y-10.875 F750.000
G1 X26.137 Y-10.944 F750.000
G1 X25.844 Y-11.044 F750.000
G1 X25.756 Y-11.088 F750.000
G1 X25.375 Y-11.412 F750.000
G1 X24.981 Y-11.863 F750.000
G1 X24.519 Y-12.500 F750.000
G1 X24.137 Y-13.188 F750.000
G1 X23.969 Y-13.537 F750.000
G1 X23.819 Y-13.900 F750.000
G1 X23.688 Y-14.269 F750.000
G1 X23.575 Y-14.644 F750.000
G1 X23.481 Y-15.025 F750.000
G1 X23.406 Y-15.406 F750.000
G1 X23.381 Y-15.781 F750.000
G1 X23.413 Y-15.875 F750.000
G1 X23.462 Y-15.956 F750.000
G1 X23.462 Y-15.956 F750.000
G1 X23.700 Y-15.925 F750.000
G1 X23.925 Y-15.863 F750.000
G1 X24.137 Y-15.756 F750.000
G1 X24.231 Y-15.681 F750.000
G0 X24.312 Y-15.600
G0 X24.569 Y-15.206
G0 X26.306 Y-11.963
G1 X26.363 Y-11.850 F750.000
G1 X26.519 Y-11.531 F750.000
G1 X26.544 Y-11.431 F750.000
G1 X26.538 Y-11.331 F750.000
G1 X26.506 Y-11.244 F750.000
G1 X26.444 Y-11.156 F750.000
G1 X26.275 Y-11.012 F750.000
G1 X25.856 Y-10.819 F750.000
G1 X25.856 Y-10.819 F750.000
G1 X25.756 Y-10.806 F750.000
G1 X24.800 Y-10.419 F750.000
G1 X24.600 Y-10.394 F750.000
G1 X24.212 Y-10.500 F750.000
G1 X23.669 Y-10.744 F750.000
G1 X23.344 Y-10.969 F750.000
G1 X23.044 Y-11.225 F750.000
G1 X22.756 Y-11.494 F750.000
G1 X22.506 Y-11.800 F750.000
G1 X22.288 Y-12.125 F750.000
G1 X21.900 Y-12.812 F750.000
G1 X21.756 Y-13.175 F750.000
G1 X21.631 Y-13.544 F750.000
G1 X21.525 Y-13.919 F750.000
G1 X21.450 Y-14.306 F750.000
G1 X21.344 Y-14.681 F750.000
G1 X21.281 Y-15.069 F750.000
G1 X21.288 Y-15.456 F750.000
G1 X21.319 Y-15.644 F750.000
G1 X21.350 Y-15.738 F750.000
G1 X21.456 Y-15.894 F750.000
G1 X21.525 Y-15.956 F750.000
G1 X22.462 Y-15.956 F750.000
G1 X22.462 Y-15.956 F750.000
G1 X22.700 Y-15.925 F750.000
G1 X22.925 Y-15.863 F750.000
G1 X23.137 Y-15.756 F750.000
G1 X23.225 Y-15.681 F750.000
G0 X23.306 Y-15.594
G0 X23.481 Y-15.281
G0 X24.900 Y-11.769
G1 X24.950 Y-11.637 F750.000
G1 X25.094 Y-11.244 F750.000
G1 X25.119 Y-11.106 F750.000
G1 X25.125 Y-10.963 F750.000
G1 X25.081 Y-10.681 F750.000
G1 X24.981 Y-10.438 F750.000
G1 X24.856 Y-10.225 F750.000
G1 X24.856 Y-10.225 F750.000
G1 X24.431 Y-9.637 F750.000
G1 X24.200 Y-9.425 F750.000
G1 X24.113 Y-9.363 F750.000
G1 X23.819 Y-9.262 F750.000
G1 X23.619 Y-9.231 F750.000
G1 X23.319 Y-9.231 F750.000
G1 X22.925 Y-9.281 F750.000
G1 X22.544 Y-9.381 F750.000
G1 X22.169 Y-9.500 F750.000
G1 X21.825 Y-9.694 F750.000
G1 X21.538 Y-9.881 F750.000
G1 X21.231 Y-10.131 F750.000
G1 X20.962 Y-10.419 F750.000
G1 X20.725 Y-10.731 F750.000
G1 X20.462 Y-11.025 F750.000
G1 X19.875 Y-12.050 F750.000
G1 X19.731 Y-12.412 F750.000
G1 X19.606 Y-12.781 F750.000
G1 X19.456 Y-13.144 F750.000
G1 X19.250 Y-13.900 F750.000
G1 X19.181 Y-14.287 F750.000
G1 X19.131 Y-14.675 F750.000
G1 X19.125 Y-15.062 F750.000
G1 X19.137 Y-15.450 F750.000
G1 X19.188 Y-15.637 F750.000
G1 X19.225 Y-15.725 F750.000
G1 X19.337 Y-15.875 F750.000
G1 X19.406 Y-15.944 F750.000
G1 X20.531 Y-15.956 F750.000
G1 X20.531 Y-15.956 F750.000
G1 X20.769 Y-15.925 F750.000
G1 X20.994 Y-15.863 F750.000
G1 X21.206 Y-15.756 F750.000
G1 X21.300 Y-15.681 F750.000
G0 X21.387 Y-15.600
G0 X21.656 Y-15.213
G0 X24.144 Y-10.969
G1 X24.212 Y-10.856 F750.000
G1 X24.444 Y-10.431 F750.000
G1 X24.512 Y-10.206 F750.000
G1 X24.531 Y-9.975 F750.000
G1 X24.494 Y-9.744 F750.000
G1 X24.369 Y-9.412 F750.000
G1 X24.369 Y-9.412 F750.000
G1 X23.794 Y-8.412 F750.000
G1 X23.456 Y-8.025 F750.000
G1 X23.212 Y-7.831 F750.000
G1 X23.019 Y-7.750 F750.000
G1 X22.619 Y-7.675 F750.000
G1 X22.219 Y-7.675 F750.000
G1 X21.825 Y-7.725 F750.000
G1 X21.438 Y-7.794 F750.000
G1 X21.056 Y-7.912 F750.000
G1 X20.337 Y-8.238 F750.000
G1 X20.000 Y-8.444 F750.000
G1 X19.688 Y-8.681 F750.000
G1 X19.387 Y-8.938 F750.000
G1 X19.119 Y-9.225 F750.000
G1 X18.875 Y-9.531 F750.000
G1 X18.656 Y-9.856 F750.000
G1 X18.419 Y-10.169 F750.000
G1 X17.869 Y-11.213 F750.000
G1 X17.719 Y-11.575 F750.000
G1 X17.587 Y-11.944 F750.000
G1 X17.431 Y-12.300 F750.000
G1 X17.188 Y-13.044 F750.000
G1 X17.019 Y-13.806 F750.000
G1 X16.956 Y-14.194 F750.000
G1 X16.913 Y-14.581 F750.000
G1 X16.931 Y-15.356 F750.000
G1 X16.994 Y-15.544 F750.000
G1 X17.087 Y-15.713 F750.000
G1 X17.156 Y-15.781 F750.000
G1 X17.200 Y-15.869 F750.000
G1 X17.262 Y-15.938 F750.000
G1 X17.356 Y-15.956 F750.000
G1 X18.387 Y-15.956 F750.000
G1 X18.387 Y-15.956 F750.000
G1 X18.625 Y-15.925 F750.000
G1 X18.850 Y-15.863 F750.000
G1 X19.062 Y-15.756 F750.000
G1 X19.156 Y-15.681 F750.000
G0 X19.244 Y-15.600
G0 X19.525 Y-15.219
G0 X23.238 Y-9.306
G1 X23.319 Y-9.181 F750.000
G1 X23.531 Y-8.806 F750.000
G1 X23.575 Y-8.688 F750.000
G1 X23.606 Y-8.444 F750.000
G1 X23.575 Y-8.213 F750.000
G1 X23.400 Y-7.775 F750.000
G1 X23.400 Y-7.775 F750.000
G1 X22.494 Y-6.631 F750.000
G1 X22.169 Y-6.362 F750.000
G1 X21.806 Y-6.156 F750.000
G1 X21.613 Y-6.088 F750.000
G1 X21.212 Y-6.044 F750.000
G1 X20.812 Y-6.075 F750.000
G1 X20.031 Y-6.206 F750.000
G1 X19.650 Y-6.319 F750.000
G1 X18.925 Y-6.638 F750.000
G1 X18.587 Y-6.838 F750.000
G1 X18.269 Y-7.069 F750.000
G1 X17.962 Y-7.319 F750.000
G1 X17.681 Y-7.594 F750.000
G1 X17.150 Y-8.175 F750.000
G1 X16.688 Y-8.812 F750.000
G1 X16.475 Y-9.144 F750.000
G1 X15.919 Y-10.181 F750.000
G1 X15.444 Y-11.262 F750.000
G1 X15.050 Y-12.369 F750.000
G1 X14.831 Y-13.119 F750.000
G1 X14.719 Y-13.894 F750.000
G1 X14.681 Y-14.281 F750.000
G1 X14.675 Y-14.669 F750.000
G1 X14.769 Y-15.537 F750.000
G1 X14.825 Y-15.725 F750.000
G1 X14.944 Y-15.881 F750.000
G1 X15.012 Y-15.944 F750.000
G1 X16.325 Y-15.956 F750.000
G1 X16.325 Y-15.956 F750.000
G1 X16.562 Y-15.925 F750.000
G1 X16.788 Y-15.863 F750.000
G1 X17.000 Y-15.756 F750.000
G1 X17.094 Y-15.681 F750.000
G0 X17.181 Y-15.600
G0 X17.456 Y-15.213
G0 X22.000 Y-7.625
G1 X22.081 Y-7.494 F750.000
G1 X22.225 Y-7.244 F750.000
G1 X22.281 Y-7.119 F750.000
G1 X22.312 Y-6.994 F750.000
G1 X22.325 Y-6.875 F750.000
G1 X22.300 Y-6.644 F750.000
G1 X22.212 Y-6.425 F750.000
G1 X22.025 Y-6.131 F750.000
G1 X22.025 Y-6.131 F750.000
G1 X21.056 Y-5.169 F750.000
G1 X20.375 Y-4.700 F750.000
G1 X20.094 Y-4.575 F750.000
G1 X19.794 Y-4.500 F750.000
G1 X19.494 Y-4.487 F750.000
G1 X19.094 Y-4.556 F750.000
G1 X18.794 Y-4.638 F750.000
G1 X18.406 Y-4.713 F750.000
G1 X18.031 Y-4.838 F750.000
G1 X17.669 Y-5.000 F750.000
G1 X17.319 Y-5.181 F750.000
G1 X16.981 Y-5.381 F750.000
G1 X16.663 Y-5.606 F750.000
G1 X16.356 Y-5.856 F750.000
G1 X16.069 Y-6.125 F750.000
G1 X15.800 Y-6.412 F750.000
G1 X15.519 Y-6.688 F750.000
G1 X14.794 Y-7.619 F750.000
G1 X14.381 Y-8.287 F750.000
G1 X14.019 Y-8.981 F750.000
G1 X13.863 Y-9.338 F750.000
G1 X13.669 Y-9.681 F750.000
G1 X13.344 Y-10.394 F750.000
G1 X12.931 Y-11.494 F750.000
G1 X12.700 Y-12.244 F750.000
G1 X12.600 Y-12.619 F750.000
G1 X12.488 Y-13.394 F750.000
G1 X12.450 Y-13.781 F750.000
G1 X12.444 Y-14.556 F750.000
G1 X12.469 Y-14.944 F750.000
G1 X12.512 Y-15.331 F750.000
G1 X12.594 Y-15.812 F750.000
G1 X12.744 Y-16.163 F750.000
G1 X12.812 Y-16.225 F750.000
G1 X12.894 Y-16.269 F750.000
G1 X13.238 Y-16.087 F750.000
G1 X13.519 Y-16.006 F750.000
G1 X13.519 Y-16.006 F750.000
G1 X13.738 Y-15.912 F750.000
G1 X13.938 Y-15.787 F750.000
G1 X14.119 Y-15.625 F750.000
G1 X14.194 Y-15.531 F750.000
G0 X14.269 Y-15.438
G0 X20.206 Y-5.800
G1 X20.294 Y-5.662 F750.000
G1 X20.438 Y-5.400 F750.000
G1 X20.475 Y-5.256 F750.000
G1 X20.494 Y-5.112 F750.000
G1 X20.475 Y-4.981 F750.000
G1 X20.444 Y-4.856 F750.000
G1 X20.319 Y-4.638 F750.000
G1 X20.081 Y-4.381 F750.000
G1 X20.081 Y-4.381 F750.000
G1 X19.731 Y-4.162 F750.000
G1 X18.137 Y-3.406 F750.000
G1 X17.538 Y-3.256 F750.000
G1 X17.038 Y-3.219 F750.000
G1 X16.837 Y-3.250 F750.000
G1 X16.181 Y-3.513 F750.000
G1 X15.919 Y-3.663 F750.000
G1 X15.562 Y-3.837 F750.000
G1 X15.219 Y-4.037 F750.000
G1 X14.900 Y-4.269 F750.000
G1 X14.300 Y-4.781 F750.000
G1 X14.025 Y-5.062 F750.000
G1 X13.525 Y-5.675 F750.000
G1 X13.262 Y-5.969 F750.000
G1 X12.569 Y-6.925 F750.000
G1 X12.144 Y-7.588 F750.000
G1 X11.794 Y-8.287 F750.000
G1 X11.637 Y-8.644 F750.000
G1 X11.500 Y-9.012 F750.000
G1 X11.319 Y-9.363 F750.000
G1 X10.887 Y-10.456 F750.000
G1 X10.644 Y-11.200 F750.000
G1 X10.344 Y-12.331 F750.000
G1 X10.238 Y-13.106 F750.000
G1 X10.206 Y-13.494 F750.000
G1 X10.206 Y-14.269 F750.000
G1 X10.231 Y-14.656 F750.000
G1 X10.219 Y-15.044 F750.000
G1 X10.244 Y-15.431 F750.000
G1 X10.306 Y-15.819 F750.000
G1 X10.406 Y-16.194 F750.000
G1 X10.550 Y-16.556 F750.000
G1 X10.719 Y-16.906 F750.000
G1 X10.944 Y-17.225 F750.000
G1 X11.181 Y-17.506 F750.000
G1 X11.575 Y-17.794 F750.000
G1 X11.662 Y-17.831 F750.000
G1 X11.744 Y-17.887 F750.000
G1 X11.838 Y-17.906 F750.000
G1 X11.869 Y-17.994 F750.000
G1 X11.875 Y-18.087 F750.000
G1 X11.963 Y-18.119 F750.000
G1 X12.056 Y-18.113 F750.000
G1 X12.144 Y-18.062 F750.000
G1 X12.188 Y-17.975 F750.000
G1 X12.188 Y-17.875 F750.000
G1 X12.188 Y-17.875 F750.000
G1 X12.156 Y-17.625 F750.000
G1 X12.094 Y-17.394 F750.000
G1 X12.000 Y-17.169 F750.000
G1 X11.963 Y-17.062 F750.000
G0 X11.950 Y-16.956
G0 X11.981 Y-16.738
G0 X12.162 Y-16.275
G0 X17.450 Y-4.338
G1 X17.512 Y-4.200 F750.000
G1 X17.656 Y-3.850 F750.000
G1 X17.681 Y-3.744 F750.000
G1 X17.675 Y-3.638 F750.000
G1 X17.644 Y-3.538 F750.000
G1 X17.587 Y-3.444 F750.000
G1 X17.438 Y-3.281 F750.000
G1 X17.244 Y-3.150 F750.000
G1 X17.038 Y-3.050 F750.000
G1 X17.038 Y-3.050 F750.000
G1 X15.238 Y-2.712 F750.000
G1 X14.238 Y-2.700 F750.000
G1 X13.738 Y-2.781 F750.000
G1 X13.456 Y-2.900 F750.000
G1 X13.281 Y-3.006 F750.000
G1 X12.594 Y-3.594 F750.000
G1 X12.281 Y-3.831 F750.000
G1 X11.981 Y-4.088 F750.000
G1 X11.706 Y-4.369 F750.000
G1 X11.188 Y-4.956 F750.000
G1 X10.738 Y-5.594 F750.000
G1 X10.525 Y-5.925 F750.000
G1 X10.162 Y-6.619 F750.000
G1 X9.969 Y-6.956 F750.000
G1 X9.475 Y-8.025 F750.000
G1 X9.044 Y-9.119 F750.000
G1 X8.787 Y-9.863 F750.000
G1 X8.625 Y-10.219 F750.000
G1 X8.488 Y-10.588 F750.000
G1 X8.181 Y-11.725 F750.000
G1 X8.044 Y-12.500 F750.000
G1 X7.994 Y-12.887 F750.000
G1 X7.944 Y-13.662 F750.000
G1 X7.956 Y-14.438 F750.000
G1 X7.981 Y-14.825 F750.000
G1 X7.969 Y-15.213 F750.000
G1 X7.987 Y-15.600 F750.000
G1 X8.044 Y-15.988 F750.000
G1 X8.219 Y-16.750 F750.000
G1 X8.344 Y-17.119 F750.000
G1 X8.488 Y-17.481 F750.000
G1 X8.675 Y-17.819 F750.000
G1 X8.881 Y-18.150 F750.000
G1 X9.113 Y-18.462 F750.000
G1 X9.375 Y-18.750 F750.000
G1 X9.656 Y-19.025 F750.000
G1 X9.956 Y-19.275 F750.000
G1 X10.275 Y-19.494 F750.000
G1 X10.613 Y-19.688 F750.000
G1 X10.963 Y-19.856 F750.000
G1 X11.338 Y-19.956 F750.000
G1 X11.719 Y-20.000 F750.000
G1 X11.762 Y-20.081 F750.000
G1 X11.787 Y-20.175 F750.000
G1 X11.856 Y-20.238 F750.000
G1 X11.950 Y-20.256 F750.000
G1 X12.137 Y-20.244 F750.000
G1 X12.231 Y-20.269 F750.000
G1 X12.300 Y-20.194 F750.000
G1 X12.387 Y-20.231 F750.000
G1 X12.456 Y-20.163 F750.000
G1 X12.425 Y-20.062 F750.000
G1 X12.375 Y-19.975 F750.000
G1 X12.375 Y-19.975 F750.000
G1 X12.238 Y-19.769 F750.000
G1 X12.075 Y-19.587 F750.000
G1 X11.806 Y-19.350 F750.000
G0 X11.731 Y-19.262
G0 X11.625 Y-19.056
G0 X11.100 Y-17.319
G0 X11.069 Y-17.075
G0 X11.100 Y-16.719
G0 X11.169 Y-16.488
G0 X11.387 Y-16.069
G0 X11.675 Y-15.688
G0 X11.850 Y-15.525
G0 X12.144 Y-15.312
G0 X12.231 Y-15.238
G0 X12.300 Y-15.150
G0 X12.394 Y-14.944
G0 X13.356 Y-10.475
G0 X14.512 Y-3.681
G1 X14.537 Y-3.531 F750.000
G1 X14.575 Y-3.256 F750.000
G1 X14.569 Y-3.125 F750.000
G1 X14.537 Y-3.019 F750.000
G1 X14.481 Y-2.925 F750.000
G1 X14.400 Y-2.856 F750.000
G1 X14.200 Y-2.744 F750.000
G1 X13.744 Y-2.650 F750.000
G1 X13.744 Y-2.650 F750.000
G1 X12.244 Y-2.781 F750.000
G1 X11.044 Y-3.075 F750.000
G1 X10.100 Y-3.462 F750.000
G1 X9.662 Y-3.725 F750.000
G1 X9.356 Y-3.981 F750.000
G1 X8.537 Y-5.106 F750.000
G1 X7.906 Y-6.100 F750.000
G1 X7.362 Y-7.144 F750.000
G1 X7.037 Y-7.856 F750.000
G1 X6.606 Y-8.956 F750.000
G1 X6.362 Y-9.700 F750.000
G1 X6.156 Y-10.456 F750.000
G1 X5.912 Y-11.606 F750.000
G1 X5.794 Y-12.381 F750.000
G1 X5.681 Y-13.544 F750.000
G1 X5.650 Y-14.319 F750.000
G1 X5.656 Y-15.094 F750.000
G1 X5.675 Y-15.481 F750.000
G1 X5.775 Y-16.256 F750.000
G1 X5.844 Y-16.637 F750.000
G1 X6.037 Y-17.394 F750.000
G1 X6.156 Y-17.762 F750.000
G1 X6.444 Y-18.488 F750.000
G1 X6.856 Y-19.150 F750.000
G1 X7.088 Y-19.462 F750.000
G1 X7.350 Y-19.750 F750.000
G1 X7.594 Y-20.056 F750.000
G1 X7.869 Y-20.331 F750.000
G1 X8.444 Y-20.856 F750.000
G1 X9.069 Y-21.319 F750.000
G1 X9.756 Y-21.688 F750.000
G1 X10.113 Y-21.844 F750.000
G1 X10.463 Y-22.019 F750.000
G1 X10.825 Y-22.156 F750.000
G1 X11.206 Y-22.244 F750.000
G1 X11.594 Y-22.294 F750.000
G1 X11.981 Y-22.294 F750.000
G1 X12.369 Y-22.256 F750.000
G1 X12.744 Y-22.144 F750.000
G1 X13.050 Y-22.019 F750.000
G1 X13.375 Y-21.794 F750.000
G1 X13.588 Y-21.600 F750.000
G1 X13.681 Y-21.619 F750.000
G1 X13.769 Y-21.656 F750.000
G1 X13.900 Y-21.506 F750.000
G1 X13.900 Y-21.506 F750.000
G1 X13.650 Y-21.500 F750.000
G1 X13.412 Y-21.556 F750.000
G1 X13.188 Y-21.663 F750.000
G1 X12.988 Y-21.806 F750.000
G0 Z10.000
G0 X12.988 Y-21.806
G0 X10.531 Y-3.606
G1 Z4.000 F250.000
G1 X10.531 Y-3.606 F750.000
G1 X10.300 Y-3.538 F750.000
G1 X10.062 Y-3.513 F750.000
G1 X9.825 Y-3.538 F750.000
G1 X9.594 Y-3.619 F750.000
G1 X9.594 Y-3.619 F750.000
G1 X8.250 Y-4.331 F750.000
G1 X6.787 Y-5.406 F750.000
G1 X5.888 Y-6.312 F750.000
G1 X4.912 Y-7.581 F750.000
G1 X4.350 Y-8.719 F750.000
G1 X3.631 Y-11.719 F750.000
G1 X3.438 Y-15.281 F750.000
G1 X3.538 Y-16.031 F750.000
G1 X3.562 Y-16.125 F750.000
G1 X3.619 Y-16.875 F750.000
G1 X3.894 Y-18.000 F750.000
G1 X4.600 Y-19.363 F750.000
G1 X5.713 Y-20.906 F750.000
G1 X6.612 Y-21.863 F750.000
G1 X7.731 Y-22.781 F750.000
G1 X9.000 Y-23.656 F750.000
G1 X9.575 Y-23.975 F750.000
G1 X10.694 Y-24.269 F750.000
G1 X11.075 Y-24.356 F750.000
G1 X11.463 Y-24.394 F750.000
G1 X11.850 Y-24.400 F750.000
G1 X12.238 Y-24.375 F750.000
G1 X12.625 Y-24.319 F750.000
G1 X13.006 Y-24.231 F750.000
G1 X13.756 Y-23.994 F750.000
G1 X14.119 Y-23.837 F750.000
G1 X14.469 Y-23.663 F750.000
G1 X14.781 Y-23.425 F750.000
G1 X15.050 Y-23.156 F750.000
G1 X15.262 Y-22.869 F750.000
G1 X15.425 Y-22.575 F750.000
G1 X15.519 Y-22.556 F750.000
G1 X15.600 Y-22.500 F750.000
G1 X15.619 Y-22.400 F750.000
G1 X15.806 Y-22.419 F750.000
G1 X15.875 Y-22.350 F750.000
G1 X15.963 Y-22.300 F750.000
G1 X16.006 Y-22.206 F750.000
G1 X16.087 Y-22.150 F750.000
G1 X16.106 Y-22.050 F750.000
G1 X16.106 Y-21.550 F750.000
G1 X16.106 Y-21.550 F750.000
G1 X16.100 Y-21.300 F750.000
G1 X16.038 Y-21.062 F750.000
G1 X15.850 Y-20.900 F750.000
G1 X15.600 Y-20.900 F750.000
G0 Z10.000
G0 X15.600 Y-20.900
G0 X4.794 Y-8.325
G1 Z4.000 F250.000
G1 X4.794 Y-8.325 F750.000
G1 X4.581 Y-8.444 F750.000
G1 X4.388 Y-8.594 F750.000
G1 X4.225 Y-8.781 F750.000
G1 X4.106 Y-9.000 F750.000
G1 X4.106 Y-9.000 F750.000
G1 X3.419 Y-10.713 F750.000
G1 X3.150 Y-12.119 F750.000
G1 X3.044 Y-14.181 F750.000
G1 X3.225 Y-16.056 F750.000
G1 X3.250 Y-16.150 F750.000
G1 X3.250 Y-16.150 F750.000
G1 X3.344 Y-16.363 F750.000
G1 X3.475 Y-16.562 F750.000
G1 X3.731 Y-16.812 F750.000
G0 X3.819 Y-16.887
G0 X5.300 Y-18.150
G0 X6.569 Y-19.950
G0 X7.975 Y-21.450
G0 X8.738 Y-22.569
G1 X8.800 Y-22.669 F750.000
G1 X8.994 Y-22.975 F750.000
G1 X9.081 Y-23.194 F750.000
G1 X9.181 Y-23.663 F750.000
G1 X9.387 Y-24.106 F750.000
G1 X9.387 Y-24.106 F750.000
G1 X9.494 Y-24.269 F750.000
G1 X9.637 Y-24.619 F750.000
G1 X9.706 Y-24.994 F750.000
G1 X9.787 Y-25.275 F750.000
G1 X9.863 Y-25.450 F750.000
G1 X9.912 Y-25.531 F750.000
G1 X10.062 Y-25.656 F750.000
G1 X10.150 Y-25.694 F750.000
G1 X10.394 Y-25.850 F750.000
G1 X10.731 Y-26.038 F750.000
G1 X11.094 Y-26.188 F750.000
G1 X11.469 Y-26.294 F750.000
G1 X11.856 Y-26.356 F750.000
G1 X12.244 Y-26.387 F750.000
G1 X12.631 Y-26.369 F750.000
G1 X13.019 Y-26.312 F750.000
G1 X13.406 Y-26.275 F750.000
G1 X13.787 Y-26.175 F750.000
G1 X14.531 Y-25.925 F750.000
G1 X14.887 Y-25.756 F750.000
G1 X15.231 Y-25.569 F750.000
G1 X15.562 Y-25.356 F750.000
G1 X15.919 Y-25.006 F750.000
G1 X16.081 Y-24.750 F750.000
G1 X16.106 Y-24.650 F750.000
G1 X16.106 Y-22.350 F750.000
G1 X16.106 Y-22.350 F750.000
G1 X16.044 Y-21.981 F750.000
G1 X15.956 Y-21.756 F750.000
G1 X15.900 Y-21.663 F750.000
G1 X15.825 Y-21.594 F750.000
G0 X15.744 Y-21.562
G0 X15.656 Y-21.569
G0 X15.463 Y-21.644
G0 X12.344 Y-23.512
G0 X10.806 Y-24.344
G1 X10.688 Y-24.406 F750.000
G1 X10.213 Y-24.694 F750.000
G1 X10.012 Y-24.850 F750.000
G1 X9.856 Y-25.038 F750.000
G1 X9.637 Y-25.469 F750.000
G1 X9.637 Y-25.469 F750.000
G1 X9.625 Y-25.562 F750.000
G1 X9.356 Y-26.306 F750.000
G1 X9.325 Y-26.494 F750.000
G1 X9.331 Y-26.587 F750.000
G1 X9.400 Y-26.762 F750.000
G1 X9.456 Y-26.837 F750.000
G1 X9.606 Y-26.950 F750.000
G1 X9.881 Y-27.350 F750.000
G1 X10.156 Y-27.625 F750.000
G1 X10.456 Y-27.869 F750.000
G1 X10.794 Y-28.069 F750.000
G1 X11.131 Y-28.206 F750.000
G1 X11.825 Y-28.394 F750.000
G1 X12.213 Y-28.419 F750.000
G1 X12.600 Y-28.462 F750.000
G1 X12.988 Y-28.462 F750.000
G1 X13.762 Y-28.375 F750.000
G1 X14.144 Y-28.288 F750.000
G1 X14.519 Y-28.175 F750.000
G1 X14.887 Y-28.038 F750.000
G1 X15.262 Y-27.925 F750.000
G1 X15.625 Y-27.769 F750.000
G1 X15.938 Y-27.512 F750.000
G1 X16.106 Y-27.269 F750.000
G1 X16.106 Y-25.169 F750.000
G1 X16.106 Y-25.169 F750.000
G1 X16.044 Y-24.800 F750.000
G1 X15.956 Y-24.575 F750.000
G1 X15.900 Y-24.475 F750.000
G1 X15.825 Y-24.400 F750.000
G0 X15.738 Y-24.356
G0 X15.637 Y-24.344
G0 X15.306 Y-24.387
G0 X10.713 Y-25.663
G1 X10.575 Y-25.700 F750.000
G1 X9.794 Y-25.919 F750.000
G1 X9.569 Y-26.012 F750.000
G1 X9.181 Y-26.288 F750.000
G1 X9.181 Y-26.288 F750.000
G1 X8.588 Y-26.800 F750.000
G1 X8.406 Y-27.031 F750.000
G1 X8.325 Y-27.206 F750.000
G1 X8.300 Y-27.300 F750.000
G1 X8.281 Y-27.581 F750.000
G1 X8.350 Y-27.956 F750.000
G1 X8.488 Y-28.319 F750.000
G1 X8.650 Y-28.675 F750.000
G1 X8.875 Y-28.994 F750.000
G1 X9.131 Y-29.288 F750.000
G1 X9.400 Y-29.550 F750.000
G1 X9.719 Y-29.775 F750.000
G1 X10.056 Y-29.962 F750.000
G1 X10.769 Y-30.262 F750.000
G1 X11.150 Y-30.356 F750.000
G1 X11.531 Y-30.425 F750.000
G1 X11.912 Y-30.512 F750.000
G1 X12.688 Y-30.562 F750.000
G1 X13.075 Y-30.569 F750.000
G1 X13.850 Y-30.494 F750.000
G1 X14.238 Y-30.425 F750.000
G1 X14.619 Y-30.331 F750.000
G1 X15.006 Y-30.262 F750.000
G1 X15.381 Y-30.156 F750.000
G1 X15.894 Y-29.856 F750.000
G1 X16.087 Y-29.619 F750.000
G1 X16.106 Y-29.519 F750.000
G1 X16.106 Y-27.619 F750.000
G1 X16.106 Y-27.619 F750.000
G1 X16.044 Y-27.250 F750.000
G1 X15.956 Y-27.025 F750.000
G1 X15.894 Y-26.925 F750.000
G1 X15.819 Y-26.844 F750.000
G0 X15.731 Y-26.781
G0 X15.631 Y-26.750
G0 X15.287 Y-26.712
G0 X9.869 Y-26.762
G1 X9.725 Y-26.769 F750.000
G1 X8.906 Y-26.781 F750.000
G1 X8.662 Y-26.819 F750.000
G1 X8.225 Y-27.000 F750.000
G1 X8.225 Y-27.000 F750.000
G1 X7.444 Y-27.613 F750.000
G1 X7.044 Y-28.044 F750.000
G1 X6.906 Y-28.300 F750.000
G1 X6.850 Y-28.488 F750.000
G1 X6.838 Y-28.769 F750.000
G1 X6.944 Y-29.238 F750.000
G1 X7.062 Y-29.606 F750.000
G1 X7.200 Y-29.975 F750.000
G1 X7.388 Y-30.319 F750.000
G1 X7.612 Y-30.637 F750.000
G1 X7.875 Y-30.925 F750.000
G1 X8.162 Y-31.188 F750.000
G1 X8.481 Y-31.413 F750.000
G1 X8.781 Y-31.663 F750.000
G1 X9.119 Y-31.856 F750.000
G1 X9.463 Y-32.031 F750.000
G1 X9.825 Y-32.181 F750.000
G1 X10.569 Y-32.431 F750.000
G1 X10.950 Y-32.519 F750.000
G1 X11.719 Y-32.650 F750.000
G1 X12.106 Y-32.681 F750.000
G1 X12.494 Y-32.694 F750.000
G1 X12.881 Y-32.688 F750.000
G1 X13.269 Y-32.706 F750.000
G1 X14.044 Y-32.675 F750.000
G1 X14.819 Y-32.569 F750.000
G1 X15.569 Y-32.350 F750.000
G1 X15.906 Y-32.150 F750.000
G1 X16.087 Y-31.913 F750.000
G1 X16.106 Y-31.812 F750.000
G1 X16.106 Y-29.913 F750.000
G1 X16.106 Y-29.913 F750.000
G1 X16.044 Y-29.544 F750.000
G1 X15.956 Y-29.319 F750.000
G1 X15.900 Y-29.212 F750.000
G1 X15.819 Y-29.131 F750.000
G0 X15.731 Y-29.062
G0 X15.525 Y-28.975
G0 X14.631 Y-28.812
G0 X8.544 Y-27.819
G1 X8.394 Y-27.794 F750.000
G1 X7.969 Y-27.738 F750.000
G1 X7.706 Y-27.738 F750.000
G1 X7.463 Y-27.775 F750.000
G1 X7.125 Y-27.900 F750.000
G1 X6.912 Y-28.019 F750.000
G1 X6.912 Y-28.019 F750.000
G1 X5.825 Y-29.175 F750.000
G1 X5.550 Y-29.594 F750.000
G1 X5.463 Y-29.769 F750.000
G1 X5.400 Y-30.050 F750.000
G1 X5.394 Y-30.144 F750.000
G1 X5.412 Y-30.331 F750.000
G1 X5.525 Y-30.800 F750.000
G1 X5.812 Y-31.525 F750.000
G1 X6.006 Y-31.863 F750.000
G1 X6.463 Y-32.494 F750.000
G1 X6.731 Y-32.775 F750.000
G1 X7.019 Y-33.038 F750.000
G1 X7.325 Y-33.281 F750.000
G1 X7.650 Y-33.494 F750.000
G1 X7.994 Y-33.681 F750.000
G1 X8.350 Y-33.844 F750.000
G1 X8.688 Y-34.038 F750.000
G1 X9.775 Y-34.462 F750.000
G1 X10.525 Y-34.681 F750.000
G1 X10.900 Y-34.775 F750.000
G1 X11.675 Y-34.862 F750.000
G1 X12.450 Y-34.906 F750.000
G1 X13.225 Y-34.894 F750.000
G1 X13.613 Y-34.869 F750.000
G1 X14.000 Y-34.869 F750.000
G1 X14.387 Y-34.844 F750.000
G1 X14.775 Y-34.788 F750.000
G1 X15.537 Y-34.625 F750.000
G1 X15.881 Y-34.425 F750.000
G1 X16.075 Y-34.200 F750.000
G1 X16.106 Y-34.106 F750.000
G1 X16.106 Y-32.106 F750.000
G1 X16.106 Y-32.106 F750.000
G1 X16.044 Y-31.738 F750.000
G1 X15.956 Y-31.512 F750.000
G1 X15.900 Y-31.406 F750.000
G1 X15.825 Y-31.319 F750.000
G0 X15.731 Y-31.250
G0 X15.525 Y-31.156
G0 X15.100 Y-31.050
G0 X7.013 Y-29.325
G1 X6.862 Y-29.288 F750.000
G1 X6.438 Y-29.219 F750.000
G1 X6.175 Y-29.219 F750.000
G1 X5.938 Y-29.269 F750.000
G1 X5.719 Y-29.363 F750.000
G1 X5.425 Y-29.569 F750.000
G1 X5.425 Y-29.569 F750.000
G1 X4.487 Y-30.863 F750.000
G1 X4.281 Y-31.306 F750.000
G1 X4.100 Y-31.962 F750.000
G1 X4.094 Y-32.244 F750.000
G1 X4.112 Y-32.337 F750.000
G1 X4.181 Y-32.513 F750.000
G1 X4.294 Y-32.669 F750.000
G1 X4.362 Y-32.737 F750.000
G1 X4.425 Y-32.919 F750.000
G1 X4.763 Y-33.625 F750.000
G1 X4.975 Y-33.950 F750.000
G1 X5.463 Y-34.550 F750.000
G1 X5.744 Y-34.819 F750.000
G1 X6.044 Y-35.069 F750.000
G1 X6.356 Y-35.300 F750.000
G1 X6.688 Y-35.500 F750.000
G1 X7.375 Y-35.862 F750.000
G1 X8.100 Y-36.150 F750.000
G1 X8.469 Y-36.281 F750.000
G1 X8.819 Y-36.450 F750.000
G1 X9.550 Y-36.719 F750.000
G1 X10.306 Y-36.913 F750.000
G1 X10.688 Y-36.994 F750.000
G1 X11.463 Y-37.100 F750.000
G1 X11.850 Y-37.131 F750.000
G1 X12.625 Y-37.144 F750.000
G1 X13.400 Y-37.094 F750.000
G1 X13.787 Y-37.100 F750.000
G1 X14.562 Y-37.050 F750.000
G1 X14.950 Y-37.000 F750.000
G1 X15.713 Y-36.825 F750.000
G1 X16.075 Y-36.681 F750.000
G1 X16.462 Y-36.375 F750.000
G1 X16.519 Y-36.294 F750.000
G1 X16.550 Y-36.200 F750.000
G1 X16.512 Y-36.100 F750.000
G1 X16.394 Y-35.931 F750.000
G1 X16.394 Y-35.931 F750.000
G1 X16.150 Y-35.650 F750.000
G1 X15.956 Y-35.506 F750.000
G1 X15.738 Y-35.388 F750.000
G0 X15.625 Y-35.344
G0 X5.338 Y-31.600
G1 X5.188 Y-31.550 F750.000
G1 X4.912 Y-31.456 F750.000
G1 X4.781 Y-31.431 F750.000
G1 X4.656 Y-31.425 F750.000
G1 X4.537 Y-31.450 F750.000
G1 X4.431 Y-31.488 F750.000
G1 X4.231 Y-31.619 F750.000
G1 X4.069 Y-31.794 F750.000
G1 X3.925 Y-31.988 F750.000
G1 X3.925 Y-31.988 F750.000
G1 X3.756 Y-32.344 F750.000
G1 X3.337 Y-33.656 F750.000
G1 X3.256 Y-34.312 F750.000
G1 X3.275 Y-34.688 F750.000
G1 X3.337 Y-34.969 F750.000
G1 X3.425 Y-35.138 F750.000
G1 X3.556 Y-35.275 F750.000
G1 X3.638 Y-35.325 F750.000
G1 X3.663 Y-35.419 F750.000
G1 X3.913 Y-35.556 F750.000
G1 X4.044 Y-35.869 F750.000
G1 X4.362 Y-36.306 F750.000
G1 X4.631 Y-36.587 F750.000
G1 X5.200 Y-37.119 F750.000
G1 X5.844 Y-37.556 F750.000
G1 X6.181 Y-37.750 F750.000
G1 X6.531 Y-37.913 F750.000
G1 X6.894 Y-38.056 F750.000
G1 X7.237 Y-38.237 F750.000
G1 X8.325 Y-38.656 F750.000
G1 X9.444 Y-39.000 F750.000
G1 X10.200 Y-39.188 F750.000
G1 X10.975 Y-39.300 F750.000
G1 X11.363 Y-39.337 F750.000
G1 X12.137 Y-39.356 F750.000
G1 X12.525 Y-39.344 F750.000
G1 X12.912 Y-39.369 F750.000
G1 X14.075 Y-39.362 F750.000
G1 X14.850 Y-39.288 F750.000
G1 X15.619 Y-39.138 F750.000
G1 X15.994 Y-39.019 F750.000
G1 X16.363 Y-38.881 F750.000
G1 X16.719 Y-38.725 F750.000
G1 X17.062 Y-38.538 F750.000
G1 X17.375 Y-38.294 F750.000
G1 X17.656 Y-38.019 F750.000
G1 X17.913 Y-37.719 F750.000
G1 X18.125 Y-37.388 F750.000
G1 X18.188 Y-36.987 F750.000
G1 X18.181 Y-36.888 F750.000
G1 X18.150 Y-36.788 F750.000
G1 X18.087 Y-36.706 F750.000
G1 X17.988 Y-36.706 F750.000
G1 X17.988 Y-36.706 F750.000
G1 X17.619 Y-36.763 F750.000
G1 X17.181 Y-36.931 F750.000
G0 X17.075 Y-36.956
G0 X16.850 Y-36.956
G0 X16.363 Y-36.856
G0 X4.394 Y-34.069
G1 X4.231 Y-34.031 F750.000
G1 X3.944 Y-33.975 F750.000
G1 X3.812 Y-33.969 F750.000
G1 X3.694 Y-33.987 F750.000
G1 X3.587 Y-34.031 F750.000
G1 X3.494 Y-34.100 F750.000
G1 X3.344 Y-34.275 F750.000
G1 X3.150 Y-34.719 F750.000
G1 X3.150 Y-34.719 F750.000
G1 X3.062 Y-35.281 F750.000
G1 X3.044 Y-36.969 F750.000
G1 X3.169 Y-37.625 F750.000
G1 X3.275 Y-37.894 F750.000
G1 X3.444 Y-38.131 F750.000
G1 X3.594 Y-38.244 F750.000
G1 X4.181 Y-38.869 F750.000
G1 X4.463 Y-39.138 F750.000
G1 X5.081 Y-39.606 F750.000
G1 X5.419 Y-39.806 F750.000
G1 X5.763 Y-39.987 F750.000
G1 X6.463 Y-40.325 F750.000
G1 X7.556 Y-40.737 F750.000
G1 X8.306 Y-40.950 F750.000
G1 X8.688 Y-41.044 F750.000
G1 X9.056 Y-41.175 F750.000
G1 X9.806 Y-41.381 F750.000
G1 X10.963 Y-41.556 F750.000
G1 X11.738 Y-41.600 F750.000
G1 X12.125 Y-41.606 F750.000
G1 X12.512 Y-41.631 F750.000
G1 X14.062 Y-41.631 F750.000
G1 X15.225 Y-41.506 F750.000
G1 X15.613 Y-41.438 F750.000
G1 X16.363 Y-41.231 F750.000
G1 X16.731 Y-41.100 F750.000
G1 X17.450 Y-40.788 F750.000
G1 X17.794 Y-40.606 F750.000
G1 X18.131 Y-40.406 F750.000
G1 X18.456 Y-40.188 F750.000
G1 X19.038 Y-39.656 F750.000
G1 X19.306 Y-39.369 F750.000
G1 X19.544 Y-39.056 F750.000
G1 X19.906 Y-38.350 F750.000
G1 X20.038 Y-37.975 F750.000
G1 X20.125 Y-37.587 F750.000
G1 X20.137 Y-37.194 F750.000
G1 X20.025 Y-36.900 F750.000
G1 X19.969 Y-36.812 F750.000
G1 X19.938 Y-36.712 F750.000
G1 X19.837 Y-36.688 F750.000
G1 X19.438 Y-36.706 F750.000
G1 X19.438 Y-36.706 F750.000
G1 X19.069 Y-36.763 F750.000
G1 X18.631 Y-36.956 F750.000
G0 X18.519 Y-37.013
G0 X16.875 Y-37.625
G0 X16.756 Y-37.650
G0 X16.519 Y-37.644
G0 X14.856 Y-37.087
G0 X14.106 Y-37.006
G0 X10.294 Y-36.856
G0 X4.125 Y-36.875
G1 X3.975 Y-36.881 F750.000
G1 X3.694 Y-36.894 F750.000
G1 X3.562 Y-36.919 F750.000
G1 X3.456 Y-36.962 F750.000
G1 X3.362 Y-37.031 F750.000
G1 X3.288 Y-37.119 F750.000
G1 X3.188 Y-37.325 F750.000
G1 X3.131 Y-37.562 F750.000
G1 X3.106 Y-37.806 F750.000
G1 X3.106 Y-37.806 F750.000
G1 X3.475 Y-39.494 F750.000
G1 X3.906 Y-40.663 F750.000
G1 X4.131 Y-41.087 F750.000
G1 X4.550 Y-41.612 F750.000
G1 X4.838 Y-41.869 F750.000
G1 X5.775 Y-42.362 F750.000
G1 X6.494 Y-42.669 F750.000
G1 X7.219 Y-42.944 F750.000
G1 X8.331 Y-43.300 F750.000
G1 X9.463 Y-43.600 F750.000
G1 X9.844 Y-43.681 F750.000
G1 X10.619 Y-43.781 F750.000
G1 X11.006 Y-43.812 F750.000
G1 X11.781 Y-43.831 F750.000
G1 X12.169 Y-43.869 F750.000
G1 X13.719 Y-43.913 F750.000
G1 X14.881 Y-43.850 F750.000
G1 X15.269 Y-43.806 F750.000
G1 X16.031 Y-43.631 F750.000
G1 X16.406 Y-43.525 F750.000
G1 X17.137 Y-43.250 F750.000
G1 X17.512 Y-43.131 F750.000
G1 X18.238 Y-42.819 F750.000
G1 X19.269 Y-42.256 F750.000
G1 X19.600 Y-42.044 F750.000
G1 X20.200 Y-41.538 F750.000
G1 X20.481 Y-41.263 F750.000
G1 X20.994 Y-40.663 F750.000
G1 X21.219 Y-40.337 F750.000
G1 X21.425 Y-40.000 F750.000
G1 X21.613 Y-39.656 F750.000
G1 X21.781 Y-39.300 F750.000
G1 X21.925 Y-38.931 F750.000
G1 X22.050 Y-38.556 F750.000
G1 X22.125 Y-38.169 F750.000
G1 X22.150 Y-37.775 F750.000
G1 X22.156 Y-37.381 F750.000
G1 X22.113 Y-36.987 F750.000
G1 X22.025 Y-36.600 F750.000
G1 X21.875 Y-36.231 F750.000
G1 X21.688 Y-35.938 F750.000
G1 X21.519 Y-35.812 F750.000
G1 X21.425 Y-35.769 F750.000
G1 X21.356 Y-35.688 F750.000
G1 X21.262 Y-35.638 F750.000
G1 X21.169 Y-35.669 F750.000
G1 X21.169 Y-35.669 F750.000
G1 X21.094 Y-36.019 F750.000
G1 X21.094 Y-36.369 F750.000
G1 X21.087 Y-36.475 F750.000
G0 X21.056 Y-36.569
G0 X21.006 Y-36.656
G0 X20.656 Y-36.969
G0 X19.488 Y-37.837
G0 X19.269 Y-37.938
G0 X18.900 Y-37.994
G0 X18.131 Y-38.000
G0 X17.106 Y-37.888
G0 X16.506 Y-37.950
G0 X12.062 Y-38.869
G0 X4.956 Y-40.487
G1 X4.806 Y-40.525 F750.000
G1 X4.537 Y-40.600 F750.000
G1 X4.425 Y-40.656 F750.000
G1 X4.338 Y-40.725 F750.000
G1 X4.281 Y-40.819 F750.000
G1 X4.250 Y-40.925 F750.000
G1 X4.244 Y-41.156 F750.000
G1 X4.294 Y-41.388 F750.000
G1 X4.375 Y-41.625 F750.000
G1 X4.375 Y-41.625 F750.000
G1 X4.731 Y-42.288 F750.000
G1 X5.800 Y-43.737 F750.000
G1 X6.600 Y-44.562 F750.000
G1 X7.550 Y-45.212 F750.000
G1 X7.987 Y-45.413 F750.000
G1 X11.800 Y-46.056 F750.000
G1 X12.963 Y-46.156 F750.000
G1 X14.125 Y-46.181 F750.000
G1 X14.512 Y-46.175 F750.000
G1 X15.287 Y-46.069 F750.000
G1 X15.675 Y-45.994 F750.000
G1 X16.431 Y-45.788 F750.000
G1 X16.812 Y-45.700 F750.000
G1 X17.938 Y-45.344 F750.000
G1 X19.031 Y-44.913 F750.000
G1 X19.725 Y-44.550 F750.000
G1 X20.062 Y-44.356 F750.000
G1 X20.719 Y-43.919 F750.000
G1 X21.337 Y-43.431 F750.000
G1 X21.919 Y-42.900 F750.000
G1 X22.194 Y-42.619 F750.000
G1 X22.456 Y-42.325 F750.000
G1 X22.500 Y-42.231 F750.000
G1 X22.706 Y-41.981 F750.000
G1 X22.788 Y-41.800 F750.000
G1 X23.031 Y-41.494 F750.000
G1 X23.106 Y-41.306 F750.000
G1 X23.325 Y-40.975 F750.000
G1 X23.350 Y-40.875 F750.000
G1 X23.556 Y-40.538 F750.000
G1 X23.575 Y-40.438 F750.000
G1 X23.762 Y-40.087 F750.000
G1 X23.775 Y-39.987 F750.000
G1 X23.919 Y-39.644 F750.000
G1 X24.050 Y-39.269 F750.000
G1 X24.144 Y-38.881 F750.000
G1 X24.206 Y-38.487 F750.000
G1 X24.244 Y-38.094 F750.000
G1 X24.256 Y-37.700 F750.000
G1 X24.231 Y-37.306 F750.000
G1 X24.181 Y-36.913 F750.000
G1 X24.106 Y-36.525 F750.000
G1 X24.000 Y-36.144 F750.000
G1 X23.869 Y-35.769 F750.000
G1 X23.712 Y-35.400 F750.000
G1 X23.275 Y-34.737 F750.000
G1 X23.019 Y-34.438 F750.000
G1 X22.725 Y-34.169 F750.000
G1 X22.375 Y-33.975 F750.000
G1 X21.906 Y-33.831 F750.000
G1 X21.606 Y-33.788 F750.000
G1 X21.506 Y-33.794 F750.000
G1 X21.406 Y-33.825 F750.000
G1 X21.325 Y-33.888 F750.000
G1 X21.319 Y-33.981 F750.000
G1 X21.319 Y-33.981 F750.000
G1 X21.344 Y-34.219 F750.000
G1 X21.419 Y-34.450 F750.000
G1 X21.538 Y-34.700 F750.000
G0 X21.600 Y-34.825
G0 X22.094 Y-36.087
G0 X22.113 Y-36.200
G0 X22.119 Y-36.319
G0 X22.100 Y-36.438
G0 X22.056 Y-36.550
G0 X21.925 Y-36.763
G0 X21.581 Y-37.169
G0 X21.381 Y-37.337
G0 X20.800 Y-37.681
G0 X20.419 Y-37.831
G0 X19.900 Y-37.944
G0 X18.669 Y-38.050
G0 X18.094 Y-38.237
G0 X14.556 Y-39.725
G0 X13.863 Y-40.138
G0 X7.731 Y-44.125
G1 X7.606 Y-44.206 F750.000
G1 X7.375 Y-44.369 F750.000
G1 X7.287 Y-44.462 F750.000
G1 X7.231 Y-44.556 F750.000
G1 X7.213 Y-44.663 F750.000
G1 X7.225 Y-44.775 F750.000
G1 X7.300 Y-44.987 F750.000
G1 X7.438 Y-45.188 F750.000
G1 X7.606 Y-45.375 F750.000
G1 X7.606 Y-45.375 F750.000
G1 X7.831 Y-45.556 F750.000
G1 X8.969 Y-46.237 F750.000
G1 X10.381 Y-46.837 F750.000
G1 X11.387 Y-47.156 F750.000
G1 X12.981 Y-47.438 F750.000
G1 X14.387 Y-47.487 F750.000
G1 X15.794 Y-47.369 F750.000
G1 X16.731 Y-47.181 F750.000
G1 X17.938 Y-46.744 F750.000
G1 X19.019 Y-46.269 F750.000
G1 X20.625 Y-45.306 F750.000
G1 X21.700 Y-44.425 F750.000
G1 X22.856 Y-43.150 F750.000
G1 X23.856 Y-41.631 F750.000
G1 X24.694 Y-40.025 F750.000
G1 X24.869 Y-39.781 F750.000
G1 X25.594 Y-39.112 F750.000
G1 X25.706 Y-38.944 F750.000
G1 X25.781 Y-38.756 F750.000
G1 X26.106 Y-37.606 F750.000
G1 X26.156 Y-37.212 F750.000
G1 X26.163 Y-36.425 F750.000
G1 X26.119 Y-36.031 F750.000
G1 X26.044 Y-35.644 F750.000
G1 X25.919 Y-35.269 F750.000
G1 X25.769 Y-34.900 F750.000
G1 X25.581 Y-34.550 F750.000
G1 X25.419 Y-34.188 F750.000
G1 X24.981 Y-33.519 F750.000
G1 X24.750 Y-33.194 F750.000
G1 X24.194 Y-32.625 F750.000
G1 X23.869 Y-32.400 F750.000
G1 X23.531 Y-32.194 F750.000
G1 X23.175 Y-32.019 F750.000
G1 X22.800 Y-31.887 F750.000
G1 X22.419 Y-31.788 F750.000
G1 X22.025 Y-31.756 F750.000
G1 X21.525 Y-31.863 F750.000
G1 X21.363 Y-31.981 F750.000
G1 X21.319 Y-32.069 F750.000
G1 X21.319 Y-32.631 F750.000
G1 X21.319 Y-32.631 F750.000
G1 X21.344 Y-32.869 F750.000
G1 X21.419 Y-33.100 F750.000
G1 X21.544 Y-33.350 F750.000
G0 X21.613 Y-33.475
G0 X24.325 Y-38.600
G1 X24.387 Y-38.719 F750.000
G1 X24.562 Y-39.038 F750.000
G1 X24.637 Y-39.131 F750.000
G1 X24.719 Y-39.206 F750.000
G1 X24.819 Y-39.263 F750.000
G1 X25.038 Y-39.337 F750.000
G1 X25.281 Y-39.350 F750.000
G1 X25.644 Y-39.294 F750.000
G1 X25.644 Y-39.294 F750.000
G1 X25.831 Y-39.231 F750.000
G1 X26.581 Y-39.144 F750.000
G1 X26.863 Y-39.056 F750.000
G1 X27.038 Y-38.962 F750.000
G1 X27.306 Y-38.675 F750.000
G1 X27.469 Y-38.419 F750.000
G1 X27.512 Y-38.325 F750.000
G1 X27.731 Y-38.000 F750.000
G1 X27.913 Y-37.650 F750.000
G1 X28.031 Y-37.275 F750.000
G1 X28.106 Y-36.888 F750.000
G1 X28.163 Y-36.500 F750.000
G1 X28.163 Y-36.106 F750.000
G1 X28.125 Y-35.712 F750.000
G1 X27.675 Y-34.544 F750.000
G1 X27.575 Y-34.356 F750.000
G1 X27.544 Y-34.256 F750.000
G1 X27.394 Y-33.975 F750.000
G1 X26.844 Y-33.325 F750.000
G1 X25.656 Y-31.381 F750.000
G1 X25.444 Y-31.144 F750.000
G1 X25.194 Y-30.962 F750.000
G1 X24.738 Y-30.700 F750.000
G1 X24.431 Y-30.444 F750.000
G1 X24.094 Y-30.238 F750.000
G1 X23.738 Y-30.062 F750.000
G1 X23.369 Y-29.919 F750.000
G1 X22.981 Y-29.819 F750.000
G1 X22.587 Y-29.744 F750.000
G1 X22.194 Y-29.712 F750.000
G1 X21.800 Y-29.719 F750.000
G1 X21.506 Y-29.819 F750.000
G1 X21.425 Y-29.875 F750.000
G1 X21.356 Y-29.950 F750.000
G1 X21.319 Y-30.038 F750.000
G1 X21.319 Y-30.694 F750.000
G1 X21.319 Y-30.694 F750.000
G1 X21.344 Y-30.931 F750.000
G1 X21.419 Y-31.163 F750.000
G1 X21.544 Y-31.413 F750.000
G0 X21.619 Y-31.531
G0 X25.525 Y-38.225
G1 X25.600 Y-38.344 F750.000
G1 X25.863 Y-38.756 F750.000
G1 X26.031 Y-38.931 F750.000
G1 X26.231 Y-39.056 F750.000
G1 X26.462 Y-39.144 F750.000
G1 X26.825 Y-39.206 F750.000
G1 X26.825 Y-39.206 F750.000
G1 X28.137 Y-39.194 F750.000
G1 X28.606 Y-39.081 F750.000
G1 X28.869 Y-38.950 F750.000
G1 X29.150 Y-38.669 F750.000
G1 X29.375 Y-38.337 F750.000
G1 X29.581 Y-38.000 F750.000
G1 X29.769 Y-37.656 F750.000
G1 X29.938 Y-37.300 F750.000
G1 X30.050 Y-36.919 F750.000
G1 X30.113 Y-36.525 F750.000
G1 X30.069 Y-36.125 F750.000
G1 X29.962 Y-35.944 F750.000
G1 X29.887 Y-35.875 F750.000
G1 X28.650 Y-35.119 F750.000
G1 X28.650 Y-35.119 F750.000
G1 X28.312 Y-34.962 F750.000
G1 X28.075 Y-34.913 F750.000
G1 X27.962 Y-34.906 F750.000
G1 X27.869 Y-34.931 F750.000
G0 X27.806 Y-34.981
G0 X27.762 Y-35.062
G0 X27.731 Y-35.263
G0 X27.794 Y-38.144
G1 X27.800 Y-38.269 F750.000
G1 X27.819 Y-38.625 F750.000
G1 X27.844 Y-38.737 F750.000
G1 X27.887 Y-38.837 F750.000
G1 X27.962 Y-38.925 F750.000
G1 X28.144 Y-39.056 F750.000
G1 X28.369 Y-39.144 F750.000
G1 X28.731 Y-39.206 F750.000
G1 X28.731 Y-39.206 F750.000
G1 X29.200 Y-39.206 F750.000
G1 X29.294 Y-39.194 F750.000
G1 X29.950 Y-39.200 F750.000
G1 X30.419 Y-39.106 F750.000
G1 X30.694 Y-38.994 F750.000
G1 X30.925 Y-38.812 F750.000
G1 X31.119 Y-38.581 F750.000
G1 X31.281 Y-38.325 F750.000
G1 X31.538 Y-38.025 F750.000
G1 X31.731 Y-37.681 F750.000
G1 X31.875 Y-37.312 F750.000
G1 X31.975 Y-36.931 F750.000
G1 X31.956 Y-36.731 F750.000
G1 X31.931 Y-36.631 F750.000
G1 X31.881 Y-36.538 F750.000
G1 X31.794 Y-36.481 F750.000
G1 X31.494 Y-36.425 F750.000
G1 X31.494 Y-36.425 F750.000
G1 X31.125 Y-36.425 F750.000
G1 X30.887 Y-36.469 F750.000
G1 X30.781 Y-36.513 F750.000
G1 X30.681 Y-36.569 F750.000
G0 X30.600 Y-36.650
G0 X30.475 Y-36.837
G0 X29.956 Y-38.194
G1 X29.919 Y-38.306 F750.000
G1 X29.806 Y-38.644 F750.000
G1 X29.800 Y-38.750 F750.000
G1 X29.825 Y-38.844 F750.000
G1 X29.875 Y-38.925 F750.000
G1 X29.956 Y-39.000 F750.000
G1 X30.156 Y-39.106 F750.000
G1 X30.387 Y-39.169 F750.000
G1 X30.631 Y-39.206 F750.000
G1 X30.631 Y-39.206 F750.000
G1 X31.194 Y-39.206 F750.000
G1 X31.281 Y-39.169 F750.000
G1 X31.469 Y-39.206 F750.000
G1 X31.938 Y-39.200 F750.000
G1 X32.406 Y-39.106 F750.000
G1 X32.675 Y-38.975 F750.000
G1 X32.825 Y-38.850 F750.000
G1 X33.075 Y-38.544 F750.000
G1 X33.400 Y-38.050 F750.000
G1 X33.594 Y-37.706 F750.000
G1 X33.712 Y-37.331 F750.000
G1 X33.688 Y-36.931 F750.000
G1 X33.650 Y-36.837 F750.000
G1 X33.587 Y-36.756 F750.000
G1 X33.500 Y-36.700 F750.000
G1 X33.300 Y-36.688 F750.000
G1 X33.300 Y-36.688 F750.000
G1 X32.931 Y-36.725 F750.000
G1 X32.700 Y-36.800 F750.000
G1 X32.594 Y-36.850 F750.000
G1 X32.500 Y-36.919 F750.000
G0 X32.419 Y-37.006
G0 X32.294 Y-37.200
G0 X31.881 Y-38.200
G1 X31.837 Y-38.312 F750.000
G1 X31.719 Y-38.644 F750.000
G1 X31.712 Y-38.750 F750.000
G1 X31.731 Y-38.844 F750.000
G1 X31.788 Y-38.925 F750.000
G1 X31.863 Y-39.000 F750.000
G1 X32.062 Y-39.106 F750.000
G1 X32.294 Y-39.169 F750.000
G1 X32.538 Y-39.206 F750.000
G1 X32.538 Y-39.206 F750.000
G1 X33.006 Y-39.206 F750.000
G1 X33.100 Y-39.194 F750.000
G1 X33.756 Y-39.200 F750.000
G1 X34.225 Y-39.106 F750.000
G1 X34.500 Y-39.000 F750.000
G1 X34.656 Y-38.881 F750.000
G1 X34.894 Y-38.556 F750.000
G1 X35.188 Y-38.038 F750.000
G1 X35.331 Y-37.669 F750.000
G1 X35.413 Y-37.281 F750.000
G1 X35.356 Y-36.881 F750.000
G1 X35.325 Y-36.781 F750.000
G1 X35.275 Y-36.688 F750.000
G1 X35.206 Y-36.612 F750.000
G1 X35.106 Y-36.581 F750.000
G1 X35.006 Y-36.587 F750.000
G1 X35.006 Y-36.587 F750.000
G1 X34.650 Y-36.675 F750.000
G1 X34.438 Y-36.788 F750.000
G1 X34.256 Y-36.938 F750.000
G0 X34.181 Y-37.031
G0 X33.750 Y-38.181
G1 X33.712 Y-38.300 F750.000
G1 X33.612 Y-38.638 F750.000
G1 X33.606 Y-38.744 F750.000
G1 X33.631 Y-38.837 F750.000
G1 X33.688 Y-38.925 F750.000
G1 X33.769 Y-39.000 F750.000
G1 X33.969 Y-39.106 F750.000
G1 X34.200 Y-39.169 F750.000
G1 X34.444 Y-39.206 F750.000
G1 X34.444 Y-39.206 F750.000
G1 X35.569 Y-39.194 F750.000
G1 X36.038 Y-39.081 F750.000
G1 X36.300 Y-38.950 F750.000
G1 X36.375 Y-38.888 F750.000
G1 X36.612 Y-38.569 F750.000
G1 X36.919 Y-38.056 F750.000
G1 X37.069 Y-37.688 F750.000
G1 X37.150 Y-37.300 F750.000
G1 X37.163 Y-36.956 F750.000
G1 X37.150 Y-36.675 F750.000
G1 X36.975 Y-36.300 F750.000
G1 X36.806 Y-36.181 F750.000
G1 X36.606 Y-36.231 F750.000
G1 X36.606 Y-36.231 F750.000
G1 X36.275 Y-36.388 F750.000
G1 X36.087 Y-36.531 F750.000
G1 X35.931 Y-36.712 F750.000
G0 X35.875 Y-36.812
G0 X35.406 Y-38.194
G1 X35.369 Y-38.325 F750.000
G1 X35.294 Y-38.587 F750.000
G1 X35.288 Y-38.712 F750.000
G1 X35.306 Y-38.819 F750.000
G1 X35.362 Y-38.913 F750.000
G1 X35.438 Y-38.994 F750.000
G1 X35.638 Y-39.106 F750.000
G1 X35.869 Y-39.169 F750.000
G1 X36.112 Y-39.206 F750.000
G1 X36.112 Y-39.206 F750.000
G1 X37.237 Y-39.194 F750.000
G1 X37.612 Y-39.125 F750.000
G1 X37.800 Y-39.062 F750.000
G1 X38.056 Y-38.913 F750.000
G1 X38.312 Y-38.600 F750.000
G1 X38.675 Y-38.006 F750.000
G1 X38.837 Y-37.644 F750.000
G1 X38.938 Y-37.263 F750.000
G1 X38.969 Y-36.906 F750.000
G1 X38.969 Y-36.594 F750.000
G1 X38.906 Y-36.200 F750.000
G1 X38.800 Y-35.862 F750.000
G1 X38.612 Y-35.606 F750.000
G1 X38.531 Y-35.544 F750.000
G1 X38.475 Y-35.456 F750.000
G1 X38.381 Y-35.413 F750.000
G1 X38.281 Y-35.413 F750.000
G1 X38.194 Y-35.462 F750.000
G1 X38.194 Y-35.462 F750.000
G1 X37.906 Y-35.681 F750.000
G1 X37.750 Y-35.869 F750.000
G1 X37.631 Y-36.075 F750.000
G0 X37.587 Y-36.188
G0 X37.044 Y-38.169
G1 X37.013 Y-38.288 F750.000
G1 X36.931 Y-38.638 F750.000
G1 X36.931 Y-38.744 F750.000
G1 X36.962 Y-38.837 F750.000
G1 X37.019 Y-38.925 F750.000
G1 X37.094 Y-38.994 F750.000
G1 X37.300 Y-39.106 F750.000
G1 X37.531 Y-39.169 F750.000
G1 X37.775 Y-39.206 F750.000
G1 X37.775 Y-39.206 F750.000
G1 X38.994 Y-39.194 F750.000
G1 X39.462 Y-39.100 F750.000
G1 X39.731 Y-38.981 F750.000
G1 X39.881 Y-38.856 F750.000
G1 X40.131 Y-38.544 F750.000
G1 X40.231 Y-38.369 F750.000
G1 X40.469 Y-38.050 F750.000
G1 X40.663 Y-37.706 F750.000
G1 X40.781 Y-37.331 F750.000
G1 X40.850 Y-36.962 F750.000
G1 X40.888 Y-36.638 F750.000
G1 X40.869 Y-36.244 F750.000
G1 X40.800 Y-35.862 F750.000
G1 X40.694 Y-35.494 F750.000
G1 X40.531 Y-35.131 F750.000
G1 X40.331 Y-34.794 F750.000
G1 X40.194 Y-34.638 F750.000
G1 X40.025 Y-34.519 F750.000
G1 X39.969 Y-34.431 F750.000
G1 X39.881 Y-34.375 F750.000
G1 X39.781 Y-34.344 F750.000
G1 X39.681 Y-34.337 F750.000
G1 X39.525 Y-34.456 F750.000
G1 X39.525 Y-34.456 F750.000
G1 X39.288 Y-34.731 F750.000
G1 X39.175 Y-34.944 F750.000
G1 X39.100 Y-35.169 F750.000
G0 X39.075 Y-35.288
G0 X38.819 Y-38.150
G1 X38.812 Y-38.275 F750.000
G1 X38.794 Y-38.631 F750.000
G1 X38.812 Y-38.737 F750.000
G1 X38.850 Y-38.837 F750.000
G1 X38.913 Y-38.925 F750.000
G1 X39.000 Y-38.994 F750.000
G1 X39.206 Y-39.106 F750.000
G1 X39.438 Y-39.169 F750.000
G1 X39.681 Y-39.206 F750.000
G1 X39.681 Y-39.206 F750.000
G1 X40.806 Y-39.200 F750.000
G1 X41.087 Y-39.163 F750.000
G1 X41.369 Y-39.087 F750.000
G1 X41.631 Y-38.956 F750.000
G1 X41.844 Y-38.750 F750.000
G1 X42.119 Y-38.331 F750.000
G1 X42.350 Y-38.013 F750.000
G1 X42.531 Y-37.663 F750.000
G1 X42.669 Y-37.294 F750.000
G1 X42.769 Y-36.913 F750.000
G1 X42.837 Y-36.525 F750.000
G1 X42.856 Y-36.131 F750.000
G1 X42.831 Y-35.737 F750.000
G1 X42.769 Y-35.344 F750.000
G1 X42.663 Y-34.962 F750.000
G1 X42.519 Y-34.594 F750.000
G1 X42.337 Y-34.237 F750.000
G1 X42.119 Y-33.906 F750.000
G1 X41.869 Y-33.594 F750.000
G1 X41.587 Y-33.312 F750.000
G1 X41.281 Y-33.062 F750.000
G1 X41.006 Y-32.913 F750.000
G1 X40.906 Y-32.900 F750.000
G1 X40.812 Y-32.938 F750.000
G1 X40.812 Y-32.938 F750.000
G1 X40.681 Y-33.269 F750.000
G1 X40.638 Y-33.500 F750.000
G1 X40.625 Y-33.737 F750.000
G0 X40.625 Y-33.862
G0 X40.456 Y-38.138
G1 X40.456 Y-38.269 F750.000
G1 X40.450 Y-38.625 F750.000
G1 X40.469 Y-38.737 F750.000
G1 X40.513 Y-38.837 F750.000
G1 X40.581 Y-38.925 F750.000
G1 X40.669 Y-38.994 F750.000
G1 X40.875 Y-39.106 F750.000
G1 X41.106 Y-39.169 F750.000
G1 X41.350 Y-39.206 F750.000
G1 X41.350 Y-39.206 F750.000
G1 X42.756 Y-39.200 F750.000
G1 X43.225 Y-39.094 F750.000
G1 X43.413 Y-39.019 F750.000
G1 X43.581 Y-38.906 F750.000
G1 X43.788 Y-38.688 F750.000
G1 X44.013 Y-38.356 F750.000
G1 X44.256 Y-38.050 F750.000
G1 X44.469 Y-37.719 F750.000
G1 X44.625 Y-37.356 F750.000
G1 X44.737 Y-36.975 F750.000
G1 X44.744 Y-36.275 F750.000
G1 X44.619 Y-35.775 F750.000
G1 X44.462 Y-35.281 F750.000
G1 X44.337 Y-34.181 F750.000
G1 X44.181 Y-33.688 F750.000
G1 X43.413 Y-32.469 F750.000
G1 X43.175 Y-32.150 F750.000
G1 X42.913 Y-31.850 F750.000
G1 X42.625 Y-31.575 F750.000
G1 X42.300 Y-31.350 F750.000
G1 X41.925 Y-31.175 F750.000
G1 X41.825 Y-31.163 F750.000
G1 X41.725 Y-31.181 F750.000
G1 X41.656 Y-31.250 F750.000
G1 X41.587 Y-31.438 F750.000
G1 X41.587 Y-31.438 F750.000
G1 X41.519 Y-31.788 F750.000
G1 X41.544 Y-32.144 F750.000
G1 X41.562 Y-32.263 F750.000
G0 X41.581 Y-32.381
G0 X42.256 Y-38.138
G1 X42.269 Y-38.269 F750.000
G1 X42.319 Y-38.631 F750.000
G1 X42.356 Y-38.737 F750.000
G1 X42.406 Y-38.837 F750.000
G1 X42.481 Y-38.925 F750.000
G1 X42.669 Y-39.056 F750.000
G1 X42.894 Y-39.144 F750.000
G1 X43.256 Y-39.206 F750.000
G1 X43.256 Y-39.206 F750.000
G1 X44.663 Y-39.194 F750.000
G1 X45.131 Y-39.100 F750.000
G1 X45.400 Y-38.981 F750.000
G1 X45.556 Y-38.856 F750.000
G1 X45.756 Y-38.631 F750.000
G1 X45.919 Y-38.381 F750.000
G1 X46.175 Y-38.081 F750.000
G1 X46.362 Y-37.737 F750.000
G1 X46.513 Y-37.369 F750.000
G1 X46.550 Y-36.969 F750.000
G1 X46.538 Y-36.869 F750.000
G1 X46.494 Y-36.775 F750.000
G1 X46.419 Y-36.706 F750.000
G1 X46.319 Y-36.706 F750.000
G1 X46.319 Y-36.706 F750.000
G1 X45.950 Y-36.750 F750.000
G1 X45.725 Y-36.831 F750.000
G1 X45.519 Y-36.956 F750.000
G0 X45.431 Y-37.038
G0 X44.612 Y-38.269
G1 X44.544 Y-38.381 F750.000
G1 X44.413 Y-38.619 F750.000
G1 X44.375 Y-38.731 F750.000
G1 X44.375 Y-38.831 F750.000
G1 X44.419 Y-38.919 F750.000
G1 X44.487 Y-38.994 F750.000
G1 X44.581 Y-39.056 F750.000
G1 X44.794 Y-39.144 F750.000
G1 X45.156 Y-39.206 F750.000
G1 X45.156 Y-39.206 F750.000
G1 X46.562 Y-39.194 F750.000
G1 X47.031 Y-39.106 F750.000
G1 X47.300 Y-38.994 F750.000
G1 X47.456 Y-38.869 F750.000
G1 X47.819 Y-38.388 F750.000
G1 X48.044 Y-38.062 F750.000
G1 X48.206 Y-37.700 F750.000
G1 X48.294 Y-37.312 F750.000
G1 X48.250 Y-36.913 F750.000
G1 X48.212 Y-36.812 F750.000
G1 X48.144 Y-36.731 F750.000
G1 X48.050 Y-36.688 F750.000
G1 X47.950 Y-36.706 F750.000
G1 X47.750 Y-36.706 F750.000
G1 X47.750 Y-36.706 F750.000
G1 X47.381 Y-36.750 F750.000
G1 X47.156 Y-36.831 F750.000
G1 X47.050 Y-36.888 F750.000
G1 X46.962 Y-36.962 F750.000
G0 X46.894 Y-37.050
G0 X46.794 Y-37.250
G0 X46.550 Y-38.175
G1 X46.525 Y-38.288 F750.000
G1 X46.450 Y-38.638 F750.000
G1 X46.456 Y-38.744 F750.000
G1 X46.481 Y-38.837 F750.000
G1 X46.544 Y-38.925 F750.000
G1 X46.619 Y-38.994 F750.000
G1 X46.825 Y-39.106 F750.000
G1 X47.056 Y-39.169 F750.000
G1 X47.300 Y-39.206 F750.000
G1 X47.300 Y-39.206 F750.000
G1 X47.675 Y-39.206 F750.000
G1 X47.763 Y-39.169 F750.000
G1 X48.044 Y-39.206 F750.000
G1 X48.606 Y-39.175 F750.000
G1 X48.981 Y-39.056 F750.000
G1 X49.150 Y-38.962 F750.000
G1 X49.231 Y-38.900 F750.000
G1 X49.362 Y-38.756 F750.000
G1 X49.575 Y-38.413 F750.000
G1 X49.794 Y-37.962 F750.000
G1 X49.925 Y-37.587 F750.000
G1 X49.994 Y-37.200 F750.000
G1 X49.987 Y-36.812 F750.000
G1 X49.931 Y-36.525 F750.000
G1 X49.844 Y-36.269 F750.000
G1 X49.794 Y-36.181 F750.000
G1 X49.519 Y-35.862 F750.000
G1 X49.425 Y-35.825 F750.000
G1 X49.325 Y-35.825 F750.000
G1 X49.325 Y-35.825 F750.000
G1 X49.156 Y-36.144 F750.000
G1 X49.050 Y-36.606 F750.000
G0 X49.025 Y-36.725
G0 X48.356 Y-38.212
G1 X48.306 Y-38.325 F750.000
G1 X48.169 Y-38.650 F750.000
G1 X48.150 Y-38.750 F750.000
G1 X48.169 Y-38.844 F750.000
G1 X48.219 Y-38.925 F750.000
G1 X48.294 Y-39.000 F750.000
G1 X48.494 Y-39.106 F750.000
G1 X48.725 Y-39.169 F750.000
G1 X48.969 Y-39.206 F750.000
G1 X48.969 Y-39.206 F750.000
G1 X49.438 Y-39.206 F750.000
G1 X49.531 Y-39.175 F750.000
G1 X49.906 Y-39.200 F750.000
G1 X50.188 Y-39.181 F750.000
G1 X50.562 Y-39.087 F750.000
G1 X50.819 Y-38.956 F750.000
G1 X51.031 Y-38.744 F750.000
G1 X51.212 Y-38.500 F750.000
G1 X51.312 Y-38.325 F750.000
G1 X51.538 Y-38.000 F750.000
G1 X51.688 Y-37.631 F750.000
G1 X51.788 Y-37.250 F750.000
G1 X51.837 Y-36.856 F750.000
G1 X51.844 Y-36.525 F750.000
G1 X51.794 Y-36.131 F750.000
G1 X51.694 Y-35.756 F750.000
G1 X51.556 Y-35.406 F750.000
G1 X51.362 Y-35.062 F750.000
G1 X51.131 Y-34.756 F750.000
G1 X50.837 Y-34.506 F750.000
G1 X50.606 Y-34.344 F750.000
G1 X50.294 Y-34.188 F750.000
G1 X50.094 Y-34.138 F750.000
G1 X49.994 Y-34.138 F750.000
G1 X49.794 Y-34.087 F750.000
G1 X49.694 Y-34.087 F750.000
G1 X49.594 Y-34.112 F750.000
G1 X49.525 Y-34.181 F750.000
G1 X49.525 Y-34.181 F750.000
G1 X49.550 Y-34.419 F750.000
G1 X49.619 Y-34.650 F750.000
G1 X49.731 Y-34.906 F750.000
G0 X49.775 Y-35.031
G0 X49.819 Y-35.288
G0 X49.744 Y-38.144
G1 X49.744 Y-38.269 F750.000
G1 X49.737 Y-38.625 F750.000
G1 X49.756 Y-38.737 F750.000
G1 X49.800 Y-38.837 F750.000
G1 X49.869 Y-38.925 F750.000
G1 X49.956 Y-38.994 F750.000
G1 X50.163 Y-39.106 F750.000
G1 X50.394 Y-39.169 F750.000
G1 X50.638 Y-39.206 F750.000
G1 X50.638 Y-39.206 F750.000
G1 X51.200 Y-39.206 F750.000
G1 X51.388 Y-39.169 F750.000
G1 X51.856 Y-39.163 F750.000
G1 X52.325 Y-39.069 F750.000
G1 X52.500 Y-38.987 F750.000
G1 X52.725 Y-38.794 F750.000
G1 X52.987 Y-38.487 F750.000
G1 X53.256 Y-38.069 F750.000
G1 X53.450 Y-37.725 F750.000
G1 X53.594 Y-37.356 F750.000
G1 X53.756 Y-36.581 F750.000
G1 X53.775 Y-36.188 F750.000
G1 X53.750 Y-35.794 F750.000
G1 X53.694 Y-35.400 F750.000
G1 X53.594 Y-35.019 F750.000
G1 X53.450 Y-34.644 F750.000
G1 X53.275 Y-34.288 F750.000
G1 X53.062 Y-33.950 F750.000
G1 X52.812 Y-33.638 F750.000
G1 X52.538 Y-33.350 F750.000
G1 X51.931 Y-32.831 F750.000
G1 X51.594 Y-32.619 F750.000
G1 X51.244 Y-32.425 F750.000
G1 X50.875 Y-32.269 F750.000
G1 X50.500 Y-32.144 F750.000
G1 X50.106 Y-32.094 F750.000
G1 X49.806 Y-32.094 F750.000
G1 X49.706 Y-32.112 F750.000
G1 X49.619 Y-32.156 F750.000
G1 X49.544 Y-32.225 F750.000
G1 X49.525 Y-32.881 F750.000
G1 X49.525 Y-32.881 F750.000
G1 X49.550 Y-33.119 F750.000
G1 X49.625 Y-33.350 F750.000
G1 X49.744 Y-33.600 F750.000
G0 X49.806 Y-33.731
G0 X51.206 Y-38.169
G1 X51.231 Y-38.288 F750.000
G1 X51.331 Y-38.638 F750.000
G1 X51.375 Y-38.744 F750.000
G1 X51.438 Y-38.837 F750.000
G1 X51.519 Y-38.925 F750.000
G1 X51.712 Y-39.056 F750.000
G1 X51.938 Y-39.144 F750.000
G1 X52.300 Y-39.206 F750.000
G1 X52.300 Y-39.206 F750.000
G1 X53.706 Y-39.200 F750.000
G1 X54.175 Y-39.094 F750.000
G1 X54.350 Y-39.019 F750.000
G1 X54.506 Y-38.900 F750.000
G1 X54.925 Y-38.337 F750.000
G1 X55.175 Y-38.031 F750.000
G1 X55.369 Y-37.688 F750.000
G1 X55.519 Y-37.325 F750.000
G1 X55.638 Y-36.950 F750.000
G1 X55.725 Y-36.562 F750.000
G1 X55.769 Y-36.169 F750.000
G1 X55.681 Y-35.569 F750.000
G1 X55.631 Y-35.369 F750.000
G1 X55.400 Y-34.900 F750.000
G1 X54.737 Y-34.225 F750.000
G1 X54.550 Y-33.975 F750.000
G1 X53.956 Y-32.994 F750.000
G1 X53.388 Y-31.775 F750.000
G1 X53.212 Y-31.519 F750.000
G1 X52.987 Y-31.306 F750.000
G1 X52.712 Y-31.156 F750.000
G1 X52.644 Y-31.081 F750.000
G1 X52.475 Y-30.962 F750.000
G1 X52.169 Y-30.706 F750.000
G1 X51.831 Y-30.494 F750.000
G1 X51.481 Y-30.312 F750.000
G1 X51.112 Y-30.169 F750.000
G1 X50.725 Y-30.075 F750.000
G1 X50.331 Y-30.044 F750.000
G1 X49.981 Y-30.050 F750.000
G1 X49.781 Y-30.100 F750.000
G1 X49.606 Y-30.200 F750.000
G1 X49.538 Y-30.275 F750.000
G1 X49.531 Y-30.931 F750.000
G1 X49.531 Y-30.931 F750.000
G1 X49.556 Y-31.169 F750.000
G1 X49.631 Y-31.400 F750.000
G1 X49.756 Y-31.650 F750.000
G0 X49.825 Y-31.775
G0 X52.962 Y-38.200
G1 X53.025 Y-38.325 F750.000
G1 X53.188 Y-38.650 F750.000
G1 X53.325 Y-38.844 F750.000
G1 X53.513 Y-39.000 F750.000
G1 X53.725 Y-39.106 F750.000
G1 X53.962 Y-39.169 F750.000
G1 X54.206 Y-39.206 F750.000
G1 X54.206 Y-39.206 F750.000
G1 X55.612 Y-39.188 F750.000
G1 X56.081 Y-39.075 F750.000
G1 X56.263 Y-39.000 F750.000
G1 X56.494 Y-38.819 F750.000
G1 X56.688 Y-38.587 F750.000
G1 X57.319 Y-37.694 F750.000
G1 X57.481 Y-37.337 F750.000
G1 X57.600 Y-36.962 F750.000
G1 X57.625 Y-36.462 F750.000
G1 X57.562 Y-36.263 F750.000
G1 X57.513 Y-36.175 F750.000
G1 X56.938 Y-35.925 F750.000
G1 X56.938 Y-35.925 F750.000
G1 X56.575 Y-35.831 F750.000
G1 X56.337 Y-35.825 F750.000
G1 X56.219 Y-35.837 F750.000
G1 X56.119 Y-35.875 F750.000
G0 X56.044 Y-35.938
G0 X55.981 Y-36.019
G0 X55.856 Y-36.331
G0 X55.375 Y-38.175
G1 X55.344 Y-38.288 F750.000
G1 X55.269 Y-38.638 F750.000
G1 X55.269 Y-38.744 F750.000
G1 X55.294 Y-38.837 F750.000
G1 X55.356 Y-38.925 F750.000
G1 X55.431 Y-38.994 F750.000
G1 X55.638 Y-39.106 F750.000
G1 X55.869 Y-39.169 F750.000
G1 X56.112 Y-39.206 F750.000
G1 X56.112 Y-39.206 F750.000
G1 X57.612 Y-39.188 F750.000
G1 X57.894 Y-39.131 F750.000
G1 X58.256 Y-38.987 F750.000
G1 X58.481 Y-38.794 F750.000
G1 X59.031 Y-38.087 F750.000
G1 X59.225 Y-37.744 F750.000
G1 X59.362 Y-37.375 F750.000
G1 X59.388 Y-36.975 F750.000
G1 X59.362 Y-36.775 F750.000
G1 X59.256 Y-36.594 F750.000
G1 X58.956 Y-36.544 F750.000
G1 X58.956 Y-36.544 F750.000
G1 X58.587 Y-36.544 F750.000
G1 X58.350 Y-36.594 F750.000
G1 X58.244 Y-36.638 F750.000
G1 X58.144 Y-36.694 F750.000
G0 X58.056 Y-36.769
G0 X57.925 Y-36.962
G0 X57.375 Y-38.212
G1 X57.325 Y-38.337 F750.000
G1 X57.231 Y-38.594 F750.000
G1 X57.206 Y-38.719 F750.000
G1 X57.225 Y-38.825 F750.000
G1 X57.269 Y-38.913 F750.000
G1 X57.344 Y-38.994 F750.000
G1 X57.438 Y-39.056 F750.000
G1 X57.656 Y-39.144 F750.000
G1 X58.019 Y-39.206 F750.000
G1 X58.019 Y-39.206 F750.000
G1 X58.769 Y-39.206 F750.000
G1 X58.856 Y-39.169 F750.000
G1 X59.325 Y-39.194 F750.000
G1 X59.794 Y-39.144 F750.000
G1 X59.981 Y-39.087 F750.000
G1 X60.069 Y-39.044 F750.000
G1 X60.487 Y-38.612 F750.000
G1 X60.744 Y-38.312 F750.000
G1 X60.950 Y-37.975 F750.000
G1 X61.094 Y-37.606 F750.000
G1 X61.156 Y-37.275 F750.000
G1 X61.112 Y-36.875 F750.000
G1 X61.069 Y-36.781 F750.000
G1 X61.000 Y-36.706 F750.000
G1 X60.906 Y-36.663 F750.000
G1 X60.806 Y-36.675 F750.000
G1 X60.806 Y-36.675 F750.000
G1 X60.450 Y-36.763 F750.000
G1 X60.237 Y-36.875 F750.000
G1 X60.050 Y-37.025 F750.000
G0 X59.969 Y-37.112
G0 X59.506 Y-37.994
G1 X59.450 Y-38.106 F750.000
G1 X59.306 Y-38.438 F750.000
G1 X59.281 Y-38.544 F750.000
G1 X59.288 Y-38.650 F750.000
G1 X59.312 Y-38.756 F750.000
G1 X59.362 Y-38.856 F750.000
G1 X59.506 Y-39.031 F750.000
G1 X59.700 Y-39.181 F750.000
G1 X59.913 Y-39.306 F750.000
G1 X59.913 Y-39.306 F750.000
G1 X60.688 Y-39.669 F750.000
G1 X60.875 Y-39.719 F750.000
G1 X60.969 Y-39.725 F750.000
G1 X61.062 Y-39.706 F750.000
G1 X61.244 Y-39.619 F750.000
G1 X61.425 Y-39.556 F750.000
G1 X61.862 Y-39.331 F750.000
G1 X62.175 Y-39.087 F750.000
G1 X62.444 Y-38.800 F750.000
G1 X62.638 Y-38.506 F750.000
G1 X62.769 Y-38.244 F750.000
G1 X62.875 Y-37.906 F750.000
G1 X62.969 Y-37.250 F750.000
G1 X62.944 Y-36.856 F750.000
G1 X62.875 Y-36.656 F750.000
G1 X62.825 Y-36.569 F750.000
G1 X62.750 Y-36.494 F750.000
G1 X62.656 Y-36.450 F750.000
G1 X62.456 Y-36.500 F750.000
G1 X62.456 Y-36.500 F750.000
G1 X62.219 Y-36.569 F750.000
G1 X62.000 Y-36.675 F750.000
G1 X61.806 Y-36.825 F750.000
G1 X61.719 Y-36.906 F750.000
G0 X61.638 Y-37.000
G0 X60.725 Y-38.344
G1 X60.656 Y-38.444 F750.000
G1 X60.462 Y-38.750 F750.000
G1 X60.419 Y-38.856 F750.000
G1 X60.388 Y-38.962 F750.000
G1 X60.381 Y-39.194 F750.000
G1 X60.438 Y-39.425 F750.000
G1 X60.544 Y-39.644 F750.000
G1 X60.675 Y-39.856 F750.000
G1 X60.675 Y-39.856 F750.000
G1 X61.112 Y-40.481 F750.000
G1 X61.331 Y-40.669 F750.000
G1 X61.506 Y-40.744 F750.000
G1 X61.600 Y-40.763 F750.000
G1 X61.788 Y-40.737 F750.000
G1 X61.881 Y-40.700 F750.000
G1 X61.975 Y-40.706 F750.000
G1 X62.819 Y-40.444 F750.000
G1 X63.175 Y-40.281 F750.000
G1 X63.525 Y-40.100 F750.000
G1 X63.837 Y-39.862 F750.000
G1 X64.112 Y-39.581 F750.000
G1 X64.325 Y-39.288 F750.000
G1 X64.650 Y-38.700 F750.000
G1 X64.769 Y-38.325 F750.000
G1 X64.856 Y-37.938 F750.000
G1 X64.919 Y-37.544 F750.000
G1 X64.925 Y-37.150 F750.000
G1 X64.894 Y-36.756 F750.000
G1 X64.794 Y-36.369 F750.000
G1 X64.569 Y-36.019 F750.000
G1 X64.500 Y-35.938 F750.000
G1 X64.319 Y-35.837 F750.000
G1 X64.219 Y-35.862 F750.000
G1 X64.131 Y-35.906 F750.000
G1 X64.131 Y-35.906 F750.000
G1 X63.844 Y-36.125 F750.000
G1 X63.556 Y-36.506 F750.000
G0 X63.487 Y-36.606
G0 X61.487 Y-39.150
G1 X61.413 Y-39.250 F750.000
G1 X61.131 Y-39.638 F750.000
G1 X61.044 Y-39.856 F750.000
G1 X61.013 Y-40.094 F750.000
G1 X61.031 Y-40.331 F750.000
G1 X61.131 Y-40.688 F750.000
G1 X61.131 Y-40.688 F750.000
G1 X61.525 Y-41.469 F750.000
G1 X61.700 Y-41.694 F750.000
G1 X61.981 Y-41.956 F750.000
G1 X62.150 Y-42.050 F750.000
G1 X62.337 Y-42.094 F750.000
G1 X62.525 Y-42.081 F750.000
G1 X62.619 Y-42.056 F750.000
G1 X62.706 Y-42.013 F750.000
G1 X63.025 Y-42.044 F750.000
G1 X63.413 Y-42.044 F750.000
G1 X63.800 Y-42.013 F750.000
G1 X64.181 Y-41.913 F750.000
G1 X64.531 Y-41.756 F750.000
G1 X64.819 Y-41.600 F750.000
G1 X65.131 Y-41.362 F750.000
G1 X65.650 Y-40.850 F750.000
G1 X65.881 Y-40.531 F750.000
G1 X66.088 Y-40.194 F750.000
G1 X66.463 Y-39.494 F750.000
G1 X66.606 Y-39.125 F750.000
G1 X66.844 Y-38.369 F750.000
G1 X66.925 Y-37.981 F750.000
G1 X66.975 Y-37.194 F750.000
G1 X66.956 Y-36.800 F750.000
G1 X66.900 Y-36.406 F750.000
G1 X66.794 Y-36.025 F750.000
G1 X66.669 Y-35.650 F750.000
G1 X66.475 Y-35.300 F750.000
G1 X66.269 Y-34.987 F750.000
G1 X66.100 Y-34.869 F750.000
G1 X66.031 Y-34.788 F750.000
G1 X65.950 Y-34.719 F750.000
G1 X65.850 Y-34.681 F750.000
G1 X65.756 Y-34.712 F750.000
G1 X65.688 Y-34.788 F750.000
G1 X65.688 Y-34.788 F750.000
G1 X65.506 Y-35.094 F750.000
G1 X65.369 Y-35.550 F750.000
G0 X65.325 Y-35.663
G0 X65.088 Y-36.069
G0 X62.081 Y-40.388
G1 X62.000 Y-40.494 F750.000
G1 X61.744 Y-40.906 F750.000
G1 X61.669 Y-41.131 F750.000
G1 X61.644 Y-41.369 F750.000
G1 X61.675 Y-41.606 F750.000
G1 X61.781 Y-41.962 F750.000
G1 X61.781 Y-41.962 F750.000
G1 X62.525 Y-43.094 F750.000
G1 X62.869 Y-43.431 F750.000
G1 X63.275 Y-43.675 F750.000
G1 X63.556 Y-43.737 F750.000
G1 X63.744 Y-43.712 F750.000
G1 X63.837 Y-43.675 F750.000
G1 X63.931 Y-43.688 F750.000
G1 X64.119 Y-43.638 F750.000
G1 X64.506 Y-43.575 F750.000
G1 X65.638 Y-43.256 F750.000
G1 X66.000 Y-43.106 F750.000
G1 X66.344 Y-42.913 F750.000
G1 X66.662 Y-42.681 F750.000
G1 X66.963 Y-42.431 F750.000
G1 X67.231 Y-42.144 F750.000
G1 X67.469 Y-41.831 F750.000
G1 X67.725 Y-41.531 F750.000
G1 X67.931 Y-41.194 F750.000
G1 X68.481 Y-40.138 F750.000
G1 X68.775 Y-39.406 F750.000
G1 X68.975 Y-38.638 F750.000
G1 X69.050 Y-38.250 F750.000
G1 X69.094 Y-37.856 F750.000
G1 X69.119 Y-37.462 F750.000
G1 X69.119 Y-37.069 F750.000
G1 X69.100 Y-36.675 F750.000
G1 X69.056 Y-36.281 F750.000
G1 X68.856 Y-35.513 F750.000
G1 X68.719 Y-35.138 F750.000
G1 X68.544 Y-34.781 F750.000
G1 X68.350 Y-34.431 F750.000
G1 X68.131 Y-34.100 F750.000
G1 X67.888 Y-33.788 F750.000
G1 X67.619 Y-33.494 F750.000
G1 X67.300 Y-33.256 F750.000
G1 X67.100 Y-33.188 F750.000
G1 X67.000 Y-33.175 F750.000
G1 X66.900 Y-33.194 F750.000
G1 X66.787 Y-33.356 F750.000
G1 X66.787 Y-33.356 F750.000
G1 X66.662 Y-33.694 F750.000
G1 X66.612 Y-34.169 F750.000
G0 X66.600 Y-34.288
G0 X65.900 Y-36.381
G0 X64.350 Y-39.375
G0 X62.994 Y-42.131
G1 X62.938 Y-42.244 F750.000
G1 X62.788 Y-42.569 F750.000
G1 X62.725 Y-42.800 F750.000
G1 X62.731 Y-43.031 F750.000
G1 X62.788 Y-43.263 F750.000
G1 X62.888 Y-43.481 F750.000
G1 X63.025 Y-43.694 F750.000
G1 X63.025 Y-43.694 F750.000
G1 X63.531 Y-44.250 F750.000
G1 X64.275 Y-44.850 F750.000
G1 X64.694 Y-45.075 F750.000
G1 X64.975 Y-45.156 F750.000
G1 X65.162 Y-45.169 F750.000
G1 X65.350 Y-45.131 F750.000
G1 X65.438 Y-45.094 F750.000
G1 X65.531 Y-45.106 F750.000
G1 X66.675 Y-44.906 F750.000
G1 X67.050 Y-44.794 F750.000
G1 X67.406 Y-44.631 F750.000
G1 X67.744 Y-44.431 F750.000
G1 X68.062 Y-44.206 F750.000
G1 X68.350 Y-43.938 F750.000
G1 X68.650 Y-43.688 F750.000
G1 X68.912 Y-43.394 F750.000
G1 X69.644 Y-42.456 F750.000
G1 X70.075 Y-41.794 F750.000
G1 X70.425 Y-41.087 F750.000
G1 X70.581 Y-40.725 F750.000
G1 X70.831 Y-39.969 F750.000
G1 X70.925 Y-39.587 F750.000
G1 X71.000 Y-39.200 F750.000
G1 X71.100 Y-38.819 F750.000
G1 X71.231 Y-38.038 F750.000
G1 X71.275 Y-37.250 F750.000
G1 X71.275 Y-36.856 F750.000
G1 X71.213 Y-36.069 F750.000
G1 X71.025 Y-35.294 F750.000
G1 X70.900 Y-34.919 F750.000
G1 X70.744 Y-34.550 F750.000
G1 X70.569 Y-34.194 F750.000
G1 X70.425 Y-33.825 F750.000
G1 X70.044 Y-33.125 F750.000
G1 X69.575 Y-32.481 F750.000
G1 X69.294 Y-32.200 F750.000
G1 X69.000 Y-31.931 F750.000
G1 X68.669 Y-31.706 F750.000
G1 X68.325 Y-31.512 F750.000
G1 X68.125 Y-31.475 F750.000
G1 X68.025 Y-31.475 F750.000
G1 X67.931 Y-31.431 F750.000
G1 X67.731 Y-31.431 F750.000
G1 X67.544 Y-31.494 F750.000
G1 X67.494 Y-31.681 F750.000
G1 X67.494 Y-31.681 F750.000
G1 X67.456 Y-32.038 F750.000
G1 X67.481 Y-32.275 F750.000
G1 X67.531 Y-32.513 F750.000
G0 X67.562 Y-32.631
G0 X67.756 Y-33.987
G0 X67.731 Y-34.231
G0 X67.650 Y-34.475
G0 X67.456 Y-34.831
G0 X66.963 Y-35.481
G0 X66.838 Y-35.700
G0 X64.331 Y-43.612
G1 X64.287 Y-43.750 F750.000
G1 X64.181 Y-44.156 F750.000
G1 X64.175 Y-44.413 F750.000
G1 X64.237 Y-44.656 F750.000
G1 X64.350 Y-44.869 F750.000
G1 X64.581 Y-45.163 F750.000
G1 X64.581 Y-45.163 F750.000
G1 X64.731 Y-45.288 F750.000
G1 X65.781 Y-45.975 F750.000
G1 X66.388 Y-46.269 F750.000
G1 X67.131 Y-46.475 F750.000
G1 X67.412 Y-46.494 F750.000
G1 X67.600 Y-46.475 F750.000
G1 X67.787 Y-46.413 F750.000
G1 X67.875 Y-46.369 F750.000
G1 X67.969 Y-46.350 F750.000
G1 X68.056 Y-46.306 F750.000
G1 X68.338 Y-46.225 F750.000
G1 X69.150 Y-45.875 F750.000
G1 X69.494 Y-45.694 F750.000
G1 X69.812 Y-45.462 F750.000
G1 X70.106 Y-45.200 F750.000
G1 X70.669 Y-44.650 F750.000
G1 X71.144 Y-44.019 F750.000
G1 X71.362 Y-43.688 F750.000
G1 X71.600 Y-43.375 F750.000
G1 X72.219 Y-42.362 F750.000
G1 X72.556 Y-41.650 F750.000
G1 X72.713 Y-41.288 F750.000
G1 X72.850 Y-40.913 F750.000
G1 X73.150 Y-39.763 F750.000
G1 X73.350 Y-38.594 F750.000
G1 X73.431 Y-37.806 F750.000
G1 X73.469 Y-37.019 F750.000
G1 X73.469 Y-36.625 F750.000
G1 X73.381 Y-35.837 F750.000
G1 X73.319 Y-35.444 F750.000
G1 X73.131 Y-34.675 F750.000
G1 X73.006 Y-34.294 F750.000
G1 X72.706 Y-33.562 F750.000
G1 X72.531 Y-33.206 F750.000
G1 X72.338 Y-32.856 F750.000
G1 X72.162 Y-32.500 F750.000
G1 X71.756 Y-31.819 F750.000
G1 X71.275 Y-31.181 F750.000
G1 X71.019 Y-30.875 F750.000
G1 X70.744 Y-30.587 F750.000
G1 X70.112 Y-30.100 F750.000
G1 X69.775 Y-29.887 F750.000
G1 X69.419 Y-29.706 F750.000
G1 X69.044 Y-29.581 F750.000
G1 X68.662 Y-29.475 F750.000
G1 X68.269 Y-29.438 F750.000
G1 X68.069 Y-29.469 F750.000
G1 X67.975 Y-29.506 F750.000
G1 X67.900 Y-29.575 F750.000
G1 X67.806 Y-29.613 F750.000
G1 X67.781 Y-29.706 F750.000
G1 X67.781 Y-29.706 F750.000
G1 X67.831 Y-30.056 F750.000
G1 X68.013 Y-30.500 F750.000
G0 X68.062 Y-30.606
G0 X68.556 Y-32.331
G0 X68.569 Y-32.562
G0 X68.494 Y-32.925
G0 X68.281 Y-33.519
G0 X67.869 Y-34.319
G0 X67.769 Y-34.669
G0 X66.450 Y-45.163
G1 X66.438 Y-45.294 F750.000
G1 X66.400 Y-45.663 F750.000
G1 X66.419 Y-45.894 F750.000
G1 X66.506 Y-46.106 F750.000
G1 X66.650 Y-46.300 F750.000
G1 X66.838 Y-46.456 F750.000
G1 X67.044 Y-46.594 F750.000
G1 X67.044 Y-46.594 F750.000
G1 X68.525 Y-47.094 F750.000
G1 X69.744 Y-47.263 F750.000
G1 X70.213 Y-47.244 F750.000
G1 X70.494 Y-47.169 F750.000
G1 X71.025 Y-46.900 F750.000
G1 X71.756 Y-46.400 F750.000
G1 X72.062 Y-46.150 F750.000
G1 X72.625 Y-45.600 F750.000
G1 X72.881 Y-45.300 F750.000
G1 X73.344 Y-44.656 F750.000
G1 X73.544 Y-44.312 F750.000
G1 X73.775 Y-43.994 F750.000
G1 X74.362 Y-42.962 F750.000
G1 X74.544 Y-42.612 F750.000
G1 X74.838 Y-41.875 F750.000
G1 X74.969 Y-41.500 F750.000
G1 X75.175 Y-40.737 F750.000
G1 X75.256 Y-40.350 F750.000
G1 X75.319 Y-39.956 F750.000
G1 X75.412 Y-39.569 F750.000
G1 X75.638 Y-37.994 F750.000
G1 X75.681 Y-37.206 F750.000
G1 X75.688 Y-36.812 F750.000
G1 X75.656 Y-36.025 F750.000
G1 X75.525 Y-35.237 F750.000
G1 X75.438 Y-34.850 F750.000
G1 X75.094 Y-33.712 F750.000
G1 X74.662 Y-32.606 F750.000
G1 X74.156 Y-31.525 F750.000
G1 X73.969 Y-31.175 F750.000
G1 X73.531 Y-30.512 F750.000
G1 X73.294 Y-30.194 F750.000
G1 X72.775 Y-29.587 F750.000
G1 X72.494 Y-29.300 F750.000
G1 X71.900 Y-28.769 F750.000
G1 X71.263 Y-28.294 F750.000
G1 X70.931 Y-28.075 F750.000
G1 X70.588 Y-27.875 F750.000
G1 X69.850 Y-27.569 F750.000
G1 X69.463 Y-27.475 F750.000
G1 X69.069 Y-27.406 F750.000
G1 X68.675 Y-27.369 F750.000
G1 X68.181 Y-27.375 F750.000
G1 X68.081 Y-27.387 F750.000
G1 X67.912 Y-27.488 F750.000
G1 X67.875 Y-27.581 F750.000
G1 X67.862 Y-28.331 F750.000
G1 X67.862 Y-28.331 F750.000
G1 X67.900 Y-28.688 F750.000
G1 X67.975 Y-28.913 F750.000
G1 X68.075 Y-29.125 F750.000
G0 X68.131 Y-29.238
G0 X68.931 Y-31.125
G0 X68.975 Y-31.356
G0 X68.950 Y-31.712
G0 X68.575 Y-33.500
G0 X68.575 Y-34.250
G0 X69.156 Y-46.125
G1 X69.162 Y-46.263 F750.000
G1 X69.194 Y-46.638 F750.000
G1 X69.219 Y-46.750 F750.000
G1 X69.256 Y-46.856 F750.000
G1 X69.319 Y-46.950 F750.000
G1 X69.481 Y-47.119 F750.000
G1 X69.688 Y-47.244 F750.000
G1 X70.037 Y-47.369 F750.000
G1 X70.037 Y-47.369 F750.000
G1 X71.444 Y-47.444 F750.000
G1 X72.944 Y-47.337 F750.000
G1 X73.225 Y-47.263 F750.000
G1 X73.838 Y-46.944 F750.000
G1 X74.075 Y-46.756 F750.000
G1 X74.425 Y-46.394 F750.000
G1 X74.612 Y-46.150 F750.000
G1 X75.231 Y-45.519 F750.000
G1 X75.481 Y-45.219 F750.000
G1 X75.713 Y-44.900 F750.000
G1 X75.925 Y-44.569 F750.000
G1 X76.119 Y-44.225 F750.000
G1 X76.287 Y-43.869 F750.000
G1 X76.481 Y-43.525 F750.000
G1 X76.938 Y-42.425 F750.000
G1 X77.188 Y-41.675 F750.000
G1 X77.400 Y-40.913 F750.000
G1 X77.562 Y-40.138 F750.000
G1 X77.681 Y-39.350 F750.000
G1 X77.756 Y-38.562 F750.000
G1 X77.775 Y-38.169 F750.000
G1 X77.831 Y-37.775 F750.000
G1 X77.888 Y-36.987 F750.000
G1 X77.850 Y-35.806 F750.000
G1 X77.806 Y-35.413 F750.000
G1 X77.638 Y-34.638 F750.000
G1 X77.525 Y-34.256 F750.000
G1 X77.444 Y-33.869 F750.000
G1 X77.088 Y-32.725 F750.000
G1 X76.662 Y-31.606 F750.000
G1 X76.344 Y-30.875 F750.000
G1 X75.944 Y-30.188 F750.000
G1 X75.731 Y-29.850 F750.000
G1 X75.250 Y-29.212 F750.000
G1 X74.994 Y-28.906 F750.000
G1 X74.763 Y-28.581 F750.000
