(Exported by FreeCAD)
(Post Processor: grbl_post)
(Output Time:2022-06-05 14:11:14.199287)
(Begin preamble)
G17 G90
G21
(Begin operation: Fixture)
(Path: Fixture)
G54
(Finish operation: Fixture)
(Begin operation: 3mm_Endmill_3026)
(Path: 3mm_Endmill_3026)
(3mm_Endmill_3026)
(Begin toolchange)
( M6 T2.0 )
M3 S8000.0
(Finish operation: 3mm_Endmill_3026)
(Begin operation: Drilling)
(Path: Drilling)
(Drilling)
(Begin Drilling)
G0 Z10.000
G90
G99
G81 X42.695 Y-12.598 Z0.000 F240.000 R6.000
G80
G0 Z8.000
G0 Z10.000
(Finish operation: Drilling)
(Begin operation: Profile)
(Path: Profile)
(Profile)
(Compensated Tool Path. Diameter: 3.175)
G0 Z10.000
G0 X82.563 Y-2.539
G0 Z8.000
G1 X82.563 Y-2.539 Z4.300 F240.000
G2 X86.444 Y-8.699 Z4.300 I-11.183 J-11.347 K0.000 F750.000
G2 X87.097 Y-11.909 Z4.300 I-10.485 J-3.806 K0.000 F750.000
G2 X87.038 Y-16.238 Z4.300 I-30.832 J-1.743 K0.000 F750.000
G2 X82.363 Y-25.057 Z4.300 I-15.588 J2.615 K0.000 F750.000
G2 X77.786 Y-50.885 Z4.300 I-10.919 J-11.384 K0.000 F750.000
G2 X72.827 Y-52.204 Z4.300 I-5.907 J12.228 K0.000 F750.000
G2 X57.427 Y-44.001 Z4.300 I-1.465 J15.809 K0.000 F750.000
G1 X28.032 Y-44.001 Z4.300 F750.000
G2 X27.367 Y-45.070 Z4.300 I-9.752 J5.323 K0.000 F750.000
G2 X23.228 Y-49.349 Z4.300 I-12.841 J8.279 K0.000 F750.000
G2 X18.065 Y-51.787 Z4.300 I-10.731 J16.042 K0.000 F750.000
G1 X18.062 Y-51.778 Z4.300 F750.000
G1 X17.814 Y-51.852 Z4.300 F750.000
G2 X15.896 Y-52.193 Z4.300 I-3.661 J15.039 K0.000 F750.000
G2 X0.602 Y-28.033 Z4.300 I-1.759 J15.807 K0.000 F750.000
G2 X3.062 Y-25.088 Z4.300 I14.723 J-9.801 K0.000 F750.000
G2 X-1.520 Y-16.751 Z4.300 I11.487 J11.741 K0.000 F750.000
G2 X-1.264 Y-9.680 Z4.300 I17.706 J2.900 K0.000 F750.000
G2 X0.181 Y-6.111 Z4.300 I15.181 J-4.066 K0.000 F750.000
G2 X22.385 Y-0.185 Z4.300 I13.920 J-7.597 K0.000 F750.000
G2 X27.986 Y-6.072 Z4.300 I-9.781 J-14.916 K0.000 F750.000
G1 X57.558 Y-6.072 Z4.300 F750.000
G2 X65.051 Y0.846 Z4.300 I13.623 J-7.240 K0.000 F750.000
G2 X81.665 Y-1.720 Z4.300 I6.311 J-14.214 K0.000 F750.000
G2 X82.563 Y-2.539 Z4.300 I-10.285 J-12.167 K0.000 F750.000
G1 X82.563 Y-2.539 Z3.600 F240.000
G2 X86.444 Y-8.699 Z3.600 I-11.183 J-11.347 K0.000 F750.000
G2 X87.097 Y-11.909 Z3.600 I-10.485 J-3.806 K0.000 F750.000
G2 X87.038 Y-16.238 Z3.600 I-30.832 J-1.743 K0.000 F750.000
G2 X82.363 Y-25.057 Z3.600 I-15.588 J2.615 K0.000 F750.000
G2 X77.786 Y-50.885 Z3.600 I-10.919 J-11.384 K0.000 F750.000
G2 X72.827 Y-52.204 Z3.600 I-5.907 J12.228 K0.000 F750.000
G2 X57.427 Y-44.001 Z3.600 I-1.465 J15.809 K0.000 F750.000
G1 X28.032 Y-44.001 Z3.600 F750.000
G2 X27.367 Y-45.070 Z3.600 I-9.752 J5.323 K0.000 F750.000
G2 X23.228 Y-49.349 Z3.600 I-12.841 J8.279 K0.000 F750.000
G2 X18.065 Y-51.787 Z3.600 I-10.731 J16.042 K0.000 F750.000
G1 X18.062 Y-51.778 Z3.600 F750.000
G1 X17.814 Y-51.852 Z3.600 F750.000
G2 X15.896 Y-52.193 Z3.600 I-3.661 J15.039 K0.000 F750.000
G2 X0.602 Y-28.033 Z3.600 I-1.759 J15.807 K0.000 F750.000
G2 X3.062 Y-25.088 Z3.600 I14.723 J-9.801 K0.000 F750.000
G2 X-1.520 Y-16.751 Z3.600 I11.487 J11.741 K0.000 F750.000
G2 X-1.264 Y-9.680 Z3.600 I17.706 J2.900 K0.000 F750.000
G2 X0.181 Y-6.111 Z3.600 I15.181 J-4.066 K0.000 F750.000
G2 X22.385 Y-0.185 Z3.600 I13.920 J-7.597 K0.000 F750.000
G2 X27.986 Y-6.072 Z3.600 I-9.781 J-14.916 K0.000 F750.000
G1 X57.558 Y-6.072 Z3.600 F750.000
G2 X65.051 Y0.846 Z3.600 I13.623 J-7.240 K0.000 F750.000
G2 X81.665 Y-1.720 Z3.600 I6.311 J-14.214 K0.000 F750.000
G2 X82.563 Y-2.539 Z3.600 I-10.285 J-12.167 K0.000 F750.000
G1 X82.563 Y-2.539 Z2.900 F240.000
G2 X86.444 Y-8.699 Z2.900 I-11.183 J-11.347 K0.000 F750.000
G2 X87.097 Y-11.909 Z2.900 I-10.485 J-3.806 K0.000 F750.000
G2 X87.038 Y-16.238 Z2.900 I-30.832 J-1.743 K0.000 F750.000
G2 X82.363 Y-25.057 Z2.900 I-15.588 J2.615 K0.000 F750.000
G2 X77.786 Y-50.885 Z2.900 I-10.919 J-11.384 K0.000 F750.000
G2 X72.827 Y-52.204 Z2.900 I-5.907 J12.228 K0.000 F750.000
G2 X57.427 Y-44.001 Z2.900 I-1.465 J15.809 K0.000 F750.000
G1 X28.032 Y-44.001 Z2.900 F750.000
G2 X27.367 Y-45.070 Z2.900 I-9.752 J5.323 K0.000 F750.000
G2 X23.228 Y-49.349 Z2.900 I-12.841 J8.279 K0.000 F750.000
G2 X18.065 Y-51.787 Z2.900 I-10.731 J16.042 K0.000 F750.000
G1 X18.062 Y-51.778 Z2.900 F750.000
G1 X17.814 Y-51.852 Z2.900 F750.000
G2 X15.896 Y-52.193 Z2.900 I-3.661 J15.039 K0.000 F750.000
G2 X0.602 Y-28.033 Z2.900 I-1.759 J15.807 K0.000 F750.000
G2 X3.062 Y-25.088 Z2.900 I14.723 J-9.801 K0.000 F750.000
G2 X-1.520 Y-16.751 Z2.900 I11.487 J11.741 K0.000 F750.000
G2 X-1.264 Y-9.680 Z2.900 I17.706 J2.900 K0.000 F750.000
G2 X0.181 Y-6.111 Z2.900 I15.181 J-4.066 K0.000 F750.000
G2 X22.385 Y-0.185 Z2.900 I13.920 J-7.597 K0.000 F750.000
G2 X27.986 Y-6.072 Z2.900 I-9.781 J-14.916 K0.000 F750.000
G1 X57.558 Y-6.072 Z2.900 F750.000
G2 X65.051 Y0.846 Z2.900 I13.623 J-7.240 K0.000 F750.000
G2 X81.665 Y-1.720 Z2.900 I6.311 J-14.214 K0.000 F750.000
G2 X82.563 Y-2.539 Z2.900 I-10.285 J-12.167 K0.000 F750.000
G1 X82.563 Y-2.539 Z2.200 F240.000
G2 X86.444 Y-8.699 Z2.200 I-11.183 J-11.347 K0.000 F750.000
G2 X87.097 Y-11.909 Z2.200 I-10.485 J-3.806 K0.000 F750.000
G2 X87.038 Y-16.238 Z2.200 I-30.832 J-1.743 K0.000 F750.000
G2 X82.363 Y-25.057 Z2.200 I-15.588 J2.615 K0.000 F750.000
G2 X77.786 Y-50.885 Z2.200 I-10.919 J-11.384 K0.000 F750.000
G2 X72.827 Y-52.204 Z2.200 I-5.907 J12.228 K0.000 F750.000
G2 X57.427 Y-44.001 Z2.200 I-1.465 J15.809 K0.000 F750.000
G1 X28.032 Y-44.001 Z2.200 F750.000
G2 X27.367 Y-45.070 Z2.200 I-9.752 J5.323 K0.000 F750.000
G2 X23.228 Y-49.349 Z2.200 I-12.841 J8.279 K0.000 F750.000
G2 X18.065 Y-51.787 Z2.200 I-10.731 J16.042 K0.000 F750.000
G1 X18.062 Y-51.778 Z2.200 F750.000
G1 X17.814 Y-51.852 Z2.200 F750.000
G2 X15.896 Y-52.193 Z2.200 I-3.661 J15.039 K0.000 F750.000
G2 X0.602 Y-28.033 Z2.200 I-1.759 J15.807 K0.000 F750.000
G2 X3.062 Y-25.088 Z2.200 I14.723 J-9.801 K0.000 F750.000
G2 X-1.520 Y-16.751 Z2.200 I11.487 J11.741 K0.000 F750.000
G2 X-1.264 Y-9.680 Z2.200 I17.706 J2.900 K0.000 F750.000
G2 X0.181 Y-6.111 Z2.200 I15.181 J-4.066 K0.000 F750.000
G2 X22.385 Y-0.185 Z2.200 I13.920 J-7.597 K0.000 F750.000
G2 X27.986 Y-6.072 Z2.200 I-9.781 J-14.916 K0.000 F750.000
G1 X57.558 Y-6.072 Z2.200 F750.000
G2 X65.051 Y0.846 Z2.200 I13.623 J-7.240 K0.000 F750.000
G2 X81.665 Y-1.720 Z2.200 I6.311 J-14.214 K0.000 F750.000
G2 X82.563 Y-2.539 Z2.200 I-10.285 J-12.167 K0.000 F750.000
G1 X82.563 Y-2.539 Z1.500 F240.000
G2 X86.444 Y-8.699 Z1.500 I-11.183 J-11.347 K0.000 F750.000
G2 X87.097 Y-11.909 Z1.500 I-10.485 J-3.806 K0.000 F750.000
G2 X87.038 Y-16.238 Z1.500 I-30.832 J-1.743 K0.000 F750.000
G2 X82.363 Y-25.057 Z1.500 I-15.588 J2.615 K0.000 F750.000
G2 X77.786 Y-50.885 Z1.500 I-10.919 J-11.384 K0.000 F750.000
G2 X72.827 Y-52.204 Z1.500 I-5.907 J12.228 K0.000 F750.000
G2 X57.427 Y-44.001 Z1.500 I-1.465 J15.809 K0.000 F750.000
G1 X28.032 Y-44.001 Z1.500 F750.000
G2 X27.367 Y-45.070 Z1.500 I-9.752 J5.323 K0.000 F750.000
G2 X23.228 Y-49.349 Z1.500 I-12.841 J8.279 K0.000 F750.000
G2 X18.065 Y-51.787 Z1.500 I-10.731 J16.042 K0.000 F750.000
G1 X18.062 Y-51.778 Z1.500 F750.000
G1 X17.814 Y-51.852 Z1.500 F750.000
G2 X15.896 Y-52.193 Z1.500 I-3.661 J15.039 K0.000 F750.000
G2 X0.602 Y-28.033 Z1.500 I-1.759 J15.807 K0.000 F750.000
G2 X3.062 Y-25.088 Z1.500 I14.723 J-9.801 K0.000 F750.000
G2 X-1.520 Y-16.751 Z1.500 I11.487 J11.741 K0.000 F750.000
G2 X-1.264 Y-9.680 Z1.500 I17.706 J2.900 K0.000 F750.000
G2 X0.181 Y-6.111 Z1.500 I15.181 J-4.066 K0.000 F750.000
G2 X22.385 Y-0.185 Z1.500 I13.920 J-7.597 K0.000 F750.000
G2 X27.986 Y-6.072 Z1.500 I-9.781 J-14.916 K0.000 F750.000
G1 X57.558 Y-6.072 Z1.500 F750.000
G2 X65.051 Y0.846 Z1.500 I13.623 J-7.240 K0.000 F750.000
G2 X81.665 Y-1.720 Z1.500 I6.311 J-14.214 K0.000 F750.000
G2 X82.563 Y-2.539 Z1.500 I-10.285 J-12.167 K0.000 F750.000
G1 X82.563 Y-2.539 Z0.800 F240.000
G2 X86.444 Y-8.699 Z0.800 I-11.183 J-11.347 K0.000 F750.000
G2 X87.097 Y-11.909 Z0.800 I-10.485 J-3.806 K0.000 F750.000
G2 X87.038 Y-16.238 Z0.800 I-30.832 J-1.743 K0.000 F750.000
G2 X82.363 Y-25.057 Z0.800 I-15.588 J2.615 K0.000 F750.000
G2 X77.786 Y-50.885 Z0.800 I-10.919 J-11.384 K0.000 F750.000
G2 X72.827 Y-52.204 Z0.800 I-5.907 J12.228 K0.000 F750.000
G2 X57.427 Y-44.001 Z0.800 I-1.465 J15.809 K0.000 F750.000
G1 X28.032 Y-44.001 Z0.800 F750.000
G2 X27.367 Y-45.070 Z0.800 I-9.752 J5.323 K0.000 F750.000
G2 X23.228 Y-49.349 Z0.800 I-12.841 J8.279 K0.000 F750.000
G2 X18.065 Y-51.787 Z0.800 I-10.731 J16.042 K0.000 F750.000
G1 X18.062 Y-51.778 Z0.800 F750.000
G1 X17.814 Y-51.852 Z0.800 F750.000
G2 X15.896 Y-52.193 Z0.800 I-3.661 J15.039 K0.000 F750.000
G2 X0.602 Y-28.033 Z0.800 I-1.759 J15.807 K0.000 F750.000
G2 X3.062 Y-25.088 Z0.800 I14.723 J-9.801 K0.000 F750.000
G2 X-1.520 Y-16.751 Z0.800 I11.487 J11.741 K0.000 F750.000
G2 X-1.264 Y-9.680 Z0.800 I17.706 J2.900 K0.000 F750.000
G2 X0.181 Y-6.111 Z0.800 I15.181 J-4.066 K0.000 F750.000
G2 X22.385 Y-0.185 Z0.800 I13.920 J-7.597 K0.000 F750.000
G2 X27.986 Y-6.072 Z0.800 I-9.781 J-14.916 K0.000 F750.000
G1 X57.558 Y-6.072 Z0.800 F750.000
G2 X65.051 Y0.846 Z0.800 I13.623 J-7.240 K0.000 F750.000
G2 X81.665 Y-1.720 Z0.800 I6.311 J-14.214 K0.000 F750.000
G2 X82.563 Y-2.539 Z0.800 I-10.285 J-12.167 K0.000 F750.000
G1 X82.563 Y-2.539 Z0.100 F240.000
G2 X86.444 Y-8.699 Z0.100 I-11.183 J-11.347 K0.000 F750.000
G2 X87.097 Y-11.909 Z0.100 I-10.485 J-3.806 K0.000 F750.000
G2 X87.038 Y-16.238 Z0.100 I-30.832 J-1.743 K0.000 F750.000
G2 X82.363 Y-25.057 Z0.100 I-15.588 J2.615 K0.000 F750.000
G2 X77.786 Y-50.885 Z0.100 I-10.919 J-11.384 K0.000 F750.000
G2 X72.827 Y-52.204 Z0.100 I-5.907 J12.228 K0.000 F750.000
G2 X57.427 Y-44.001 Z0.100 I-1.465 J15.809 K0.000 F750.000
G1 X28.032 Y-44.001 Z0.100 F750.000
G2 X27.367 Y-45.070 Z0.100 I-9.752 J5.323 K0.000 F750.000
G2 X23.228 Y-49.349 Z0.100 I-12.841 J8.279 K0.000 F750.000
G2 X18.065 Y-51.787 Z0.100 I-10.731 J16.042 K0.000 F750.000
G1 X18.062 Y-51.778 Z0.100 F750.000
G1 X17.814 Y-51.852 Z0.100 F750.000
G2 X15.896 Y-52.193 Z0.100 I-3.661 J15.039 K0.000 F750.000
G2 X0.602 Y-28.033 Z0.100 I-1.759 J15.807 K0.000 F750.000
G2 X3.062 Y-25.088 Z0.100 I14.723 J-9.801 K0.000 F750.000
G2 X-1.520 Y-16.751 Z0.100 I11.487 J11.741 K0.000 F750.000
G2 X-1.264 Y-9.680 Z0.100 I17.706 J2.900 K0.000 F750.000
G2 X0.181 Y-6.111 Z0.100 I15.181 J-4.066 K0.000 F750.000
G2 X22.385 Y-0.185 Z0.100 I13.920 J-7.597 K0.000 F750.000
G2 X27.986 Y-6.072 Z0.100 I-9.781 J-14.916 K0.000 F750.000
G1 X57.558 Y-6.072 Z0.100 F750.000
G2 X65.051 Y0.846 Z0.100 I13.623 J-7.240 K0.000 F750.000
G2 X81.665 Y-1.720 Z0.100 I6.311 J-14.214 K0.000 F750.000
G2 X82.563 Y-2.539 Z0.100 I-10.285 J-12.167 K0.000 F750.000
G1 X82.563 Y-2.539 Z0.000 F240.000
G2 X86.444 Y-8.699 Z0.000 I-11.183 J-11.347 K0.000 F750.000
G2 X87.097 Y-11.909 Z0.000 I-10.485 J-3.806 K0.000 F750.000
G2 X87.038 Y-16.238 Z0.000 I-30.832 J-1.743 K0.000 F750.000
G2 X82.363 Y-25.057 Z0.000 I-15.588 J2.615 K0.000 F750.000
G2 X77.786 Y-50.885 Z0.000 I-10.919 J-11.384 K0.000 F750.000
G2 X72.827 Y-52.204 Z0.000 I-5.907 J12.228 K0.000 F750.000
G2 X57.427 Y-44.001 Z0.000 I-1.465 J15.809 K0.000 F750.000
G1 X28.032 Y-44.001 Z0.000 F750.000
G2 X27.367 Y-45.070 Z0.000 I-9.752 J5.323 K0.000 F750.000
G2 X23.228 Y-49.349 Z0.000 I-12.841 J8.279 K0.000 F750.000
G2 X18.065 Y-51.787 Z0.000 I-10.731 J16.042 K0.000 F750.000
G1 X18.062 Y-51.778 Z0.000 F750.000
G1 X17.814 Y-51.852 Z0.000 F750.000
G2 X15.896 Y-52.193 Z0.000 I-3.661 J15.039 K0.000 F750.000
G2 X0.602 Y-28.033 Z0.000 I-1.759 J15.807 K0.000 F750.000
G2 X3.062 Y-25.088 Z0.000 I14.723 J-9.801 K0.000 F750.000
G2 X-1.520 Y-16.751 Z0.000 I11.487 J11.741 K0.000 F750.000
G2 X-1.264 Y-9.680 Z0.000 I17.706 J2.900 K0.000 F750.000
G2 X0.181 Y-6.111 Z0.000 I15.181 J-4.066 K0.000 F750.000
G2 X22.385 Y-0.185 Z0.000 I13.920 J-7.597 K0.000 F750.000
G2 X27.986 Y-6.072 Z0.000 I-9.781 J-14.916 K0.000 F750.000
G1 X57.558 Y-6.072 Z0.000 F750.000
G2 X65.051 Y0.846 Z0.000 I13.623 J-7.240 K0.000 F750.000
G2 X81.665 Y-1.720 Z0.000 I6.311 J-14.214 K0.000 F750.000
G2 X82.563 Y-2.539 Z0.000 I-10.285 J-12.167 K0.000 F750.000
G0 Z10.000
G0 Z10.000
(Finish operation: Profile)
(Begin postamble)
M5
G17 G90
M2
