(Exported by FreeCAD)
(Post Processor: grbl_post)
(Output Time:2022-06-08 21:23:51.606558)
(Begin preamble)
G17 G90
G21
(Begin operation: Fixture)
(Path: Fixture)
G54
(Finish operation: Fixture)
(Begin operation: 3mm_Endmill_3026)
(Path: 3mm_Endmill_3026)
(3mm_Endmill_3026)
(Begin toolchange)
( M6 T2.0 )
M3 S8000.0
(Finish operation: 3mm_Endmill_3026)
(Begin operation: Drilling)
(Path: Drilling)
(Drilling)
(Begin Drilling)
G0 Z10.000
G90
G99
G81 X42.695 Y-12.598 Z-0.100 F240.000 R6.000
G80
G0 Z8.000
G0 Z10.000
(Finish operation: Drilling)
(Begin operation: Profile)
(Path: Profile)
(Profile)
(Compensated Tool Path. Diameter: 3.175)
G0 Z10.000
G0 X82.903 Y-2.163
G0 Z8.000
G1 X82.903 Y-2.163 Z4.300 F240.000
G2 X86.024 Y-6.432 Z4.300 I-11.951 J-12.012 K0.000 F750.000
G2 X87.595 Y-11.859 Z4.300 I-12.473 J-6.551 K0.000 F750.000
G2 X87.536 Y-16.282 Z4.300 I-31.339 J-1.796 K0.000 F750.000
G2 X83.073 Y-25.056 Z4.300 I-16.050 J2.642 K0.000 F750.000
G2 X78.908 Y-50.901 Z4.300 I-11.612 J-11.387 K0.000 F750.000
G2 X73.691 Y-52.620 Z4.300 I-7.248 J13.225 K0.000 F750.000
G2 X57.129 Y-44.501 Z4.300 I-2.297 J16.267 K0.000 F750.000
G1 X28.315 Y-44.501 Z4.300 F750.000
G2 X21.105 Y-51.155 Z4.300 I-14.136 J8.087 K0.000 F750.000
G2 X15.966 Y-52.688 Z4.300 I-6.949 J13.915 K0.000 F750.000
G2 X0.168 Y-27.784 Z4.300 I-1.830 J16.302 K0.000 F750.000
G2 X2.357 Y-25.096 Z4.300 I14.367 J-9.465 K0.000 F750.000
G2 X-2.005 Y-16.870 Z4.300 I12.306 J11.796 K0.000 F750.000
G2 X-2.150 Y-11.911 Z4.300 I17.407 J2.987 K0.000 F750.000
G2 X-0.725 Y-6.782 Z4.300 I14.464 J-1.254 K0.000 F750.000
G2 X22.661 Y0.231 Z4.300 I14.822 J-6.925 K0.000 F750.000
G2 X28.261 Y-5.572 Z4.300 I-9.969 J-15.222 K0.000 F750.000
G1 X57.262 Y-5.572 Z4.300 F750.000
G2 X64.841 Y1.299 Z4.300 I13.891 J-7.707 K0.000 F750.000
G2 X81.031 Y-0.554 Z4.300 I6.522 J-14.670 K0.000 F750.000
G2 X82.903 Y-2.163 Z4.300 I-10.078 J-13.621 K0.000 F750.000
G1 X82.903 Y-2.163 Z3.600 F240.000
G2 X86.024 Y-6.432 Z3.600 I-11.951 J-12.012 K0.000 F750.000
G2 X87.595 Y-11.859 Z3.600 I-12.473 J-6.551 K0.000 F750.000
G2 X87.536 Y-16.282 Z3.600 I-31.339 J-1.796 K0.000 F750.000
G2 X83.073 Y-25.056 Z3.600 I-16.050 J2.642 K0.000 F750.000
G2 X78.908 Y-50.901 Z3.600 I-11.612 J-11.387 K0.000 F750.000
G2 X73.691 Y-52.620 Z3.600 I-7.248 J13.225 K0.000 F750.000
G2 X57.129 Y-44.501 Z3.600 I-2.297 J16.267 K0.000 F750.000
G1 X28.315 Y-44.501 Z3.600 F750.000
G2 X21.105 Y-51.155 Z3.600 I-14.136 J8.087 K0.000 F750.000
G2 X15.966 Y-52.688 Z3.600 I-6.949 J13.915 K0.000 F750.000
G2 X0.168 Y-27.784 Z3.600 I-1.830 J16.302 K0.000 F750.000
G2 X2.357 Y-25.096 Z3.600 I14.367 J-9.465 K0.000 F750.000
G2 X-2.005 Y-16.870 Z3.600 I12.306 J11.796 K0.000 F750.000
G2 X-2.150 Y-11.911 Z3.600 I17.407 J2.987 K0.000 F750.000
G2 X-0.725 Y-6.782 Z3.600 I14.464 J-1.254 K0.000 F750.000
G2 X22.661 Y0.231 Z3.600 I14.822 J-6.925 K0.000 F750.000
G2 X28.261 Y-5.572 Z3.600 I-9.969 J-15.222 K0.000 F750.000
G1 X57.262 Y-5.572 Z3.600 F750.000
G2 X64.841 Y1.299 Z3.600 I13.891 J-7.707 K0.000 F750.000
G2 X81.031 Y-0.554 Z3.600 I6.522 J-14.670 K0.000 F750.000
G2 X82.903 Y-2.163 Z3.600 I-10.078 J-13.621 K0.000 F750.000
G1 X82.903 Y-2.163 Z2.900 F240.000
G2 X86.024 Y-6.432 Z2.900 I-11.951 J-12.012 K0.000 F750.000
G2 X87.595 Y-11.859 Z2.900 I-12.473 J-6.551 K0.000 F750.000
G2 X87.536 Y-16.282 Z2.900 I-31.339 J-1.796 K0.000 F750.000
G2 X83.073 Y-25.056 Z2.900 I-16.050 J2.642 K0.000 F750.000
G2 X78.908 Y-50.901 Z2.900 I-11.612 J-11.387 K0.000 F750.000
G2 X73.691 Y-52.620 Z2.900 I-7.248 J13.225 K0.000 F750.000
G2 X57.129 Y-44.501 Z2.900 I-2.297 J16.267 K0.000 F750.000
G1 X28.315 Y-44.501 Z2.900 F750.000
G2 X21.105 Y-51.155 Z2.900 I-14.136 J8.087 K0.000 F750.000
G2 X15.966 Y-52.688 Z2.900 I-6.949 J13.915 K0.000 F750.000
G2 X0.168 Y-27.784 Z2.900 I-1.830 J16.302 K0.000 F750.000
G2 X2.357 Y-25.096 Z2.900 I14.367 J-9.465 K0.000 F750.000
G2 X-2.005 Y-16.870 Z2.900 I12.306 J11.796 K0.000 F750.000
G2 X-2.150 Y-11.911 Z2.900 I17.407 J2.987 K0.000 F750.000
G2 X-0.725 Y-6.782 Z2.900 I14.464 J-1.254 K0.000 F750.000
G2 X22.661 Y0.231 Z2.900 I14.822 J-6.925 K0.000 F750.000
G2 X28.261 Y-5.572 Z2.900 I-9.969 J-15.222 K0.000 F750.000
G1 X57.262 Y-5.572 Z2.900 F750.000
G2 X64.841 Y1.299 Z2.900 I13.891 J-7.707 K0.000 F750.000
G2 X81.031 Y-0.554 Z2.900 I6.522 J-14.670 K0.000 F750.000
G2 X82.903 Y-2.163 Z2.900 I-10.078 J-13.621 K0.000 F750.000
G1 X82.903 Y-2.163 Z2.200 F240.000
G2 X86.024 Y-6.432 Z2.200 I-11.951 J-12.012 K0.000 F750.000
G2 X87.595 Y-11.859 Z2.200 I-12.473 J-6.551 K0.000 F750.000
G2 X87.536 Y-16.282 Z2.200 I-31.339 J-1.796 K0.000 F750.000
G2 X83.073 Y-25.056 Z2.200 I-16.050 J2.642 K0.000 F750.000
G2 X78.908 Y-50.901 Z2.200 I-11.612 J-11.387 K0.000 F750.000
G2 X73.691 Y-52.620 Z2.200 I-7.248 J13.225 K0.000 F750.000
G2 X57.129 Y-44.501 Z2.200 I-2.297 J16.267 K0.000 F750.000
G1 X28.315 Y-44.501 Z2.200 F750.000
G2 X21.105 Y-51.155 Z2.200 I-14.136 J8.087 K0.000 F750.000
G2 X15.966 Y-52.688 Z2.200 I-6.949 J13.915 K0.000 F750.000
G2 X0.168 Y-27.784 Z2.200 I-1.830 J16.302 K0.000 F750.000
G2 X2.357 Y-25.096 Z2.200 I14.367 J-9.465 K0.000 F750.000
G2 X-2.005 Y-16.870 Z2.200 I12.306 J11.796 K0.000 F750.000
G2 X-2.150 Y-11.911 Z2.200 I17.407 J2.987 K0.000 F750.000
G2 X-0.725 Y-6.782 Z2.200 I14.464 J-1.254 K0.000 F750.000
G2 X22.661 Y0.231 Z2.200 I14.822 J-6.925 K0.000 F750.000
G2 X28.261 Y-5.572 Z2.200 I-9.969 J-15.222 K0.000 F750.000
G1 X57.262 Y-5.572 Z2.200 F750.000
G2 X64.841 Y1.299 Z2.200 I13.891 J-7.707 K0.000 F750.000
G2 X81.031 Y-0.554 Z2.200 I6.522 J-14.670 K0.000 F750.000
G2 X82.903 Y-2.163 Z2.200 I-10.078 J-13.621 K0.000 F750.000
G1 X82.903 Y-2.163 Z1.500 F240.000
G2 X86.024 Y-6.432 Z1.500 I-11.951 J-12.012 K0.000 F750.000
G2 X87.595 Y-11.859 Z1.500 I-12.473 J-6.551 K0.000 F750.000
G2 X87.536 Y-16.282 Z1.500 I-31.339 J-1.796 K0.000 F750.000
G2 X83.073 Y-25.056 Z1.500 I-16.050 J2.642 K0.000 F750.000
G2 X78.908 Y-50.901 Z1.500 I-11.612 J-11.387 K0.000 F750.000
G2 X73.691 Y-52.620 Z1.500 I-7.248 J13.225 K0.000 F750.000
G2 X57.129 Y-44.501 Z1.500 I-2.297 J16.267 K0.000 F750.000
G1 X28.315 Y-44.501 Z1.500 F750.000
G2 X21.105 Y-51.155 Z1.500 I-14.136 J8.087 K0.000 F750.000
G2 X15.966 Y-52.688 Z1.500 I-6.949 J13.915 K0.000 F750.000
G2 X0.168 Y-27.784 Z1.500 I-1.830 J16.302 K0.000 F750.000
G2 X2.357 Y-25.096 Z1.500 I14.367 J-9.465 K0.000 F750.000
G2 X-2.005 Y-16.870 Z1.500 I12.306 J11.796 K0.000 F750.000
G2 X-2.150 Y-11.911 Z1.500 I17.407 J2.987 K0.000 F750.000
G2 X-0.725 Y-6.782 Z1.500 I14.464 J-1.254 K0.000 F750.000
G2 X22.661 Y0.231 Z1.500 I14.822 J-6.925 K0.000 F750.000
G2 X28.261 Y-5.572 Z1.500 I-9.969 J-15.222 K0.000 F750.000
G1 X57.262 Y-5.572 Z1.500 F750.000
G2 X64.841 Y1.299 Z1.500 I13.891 J-7.707 K0.000 F750.000
G2 X81.031 Y-0.554 Z1.500 I6.522 J-14.670 K0.000 F750.000
G2 X82.903 Y-2.163 Z1.500 I-10.078 J-13.621 K0.000 F750.000
G1 X82.903 Y-2.163 Z0.800 F240.000
G2 X86.024 Y-6.432 Z0.800 I-11.951 J-12.012 K0.000 F750.000
G2 X87.595 Y-11.859 Z0.800 I-12.473 J-6.551 K0.000 F750.000
G2 X87.536 Y-16.282 Z0.800 I-31.339 J-1.796 K0.000 F750.000
G2 X83.073 Y-25.056 Z0.800 I-16.050 J2.642 K0.000 F750.000
G2 X78.908 Y-50.901 Z0.800 I-11.612 J-11.387 K0.000 F750.000
G2 X73.691 Y-52.620 Z0.800 I-7.248 J13.225 K0.000 F750.000
G2 X57.129 Y-44.501 Z0.800 I-2.297 J16.267 K0.000 F750.000
G1 X28.315 Y-44.501 Z0.800 F750.000
G2 X21.105 Y-51.155 Z0.800 I-14.136 J8.087 K0.000 F750.000
G2 X15.966 Y-52.688 Z0.800 I-6.949 J13.915 K0.000 F750.000
G2 X0.168 Y-27.784 Z0.800 I-1.830 J16.302 K0.000 F750.000
G2 X2.357 Y-25.096 Z0.800 I14.367 J-9.465 K0.000 F750.000
G2 X-2.005 Y-16.870 Z0.800 I12.306 J11.796 K0.000 F750.000
G2 X-2.150 Y-11.911 Z0.800 I17.407 J2.987 K0.000 F750.000
G2 X-0.725 Y-6.782 Z0.800 I14.464 J-1.254 K0.000 F750.000
G2 X22.661 Y0.231 Z0.800 I14.822 J-6.925 K0.000 F750.000
G2 X28.261 Y-5.572 Z0.800 I-9.969 J-15.222 K0.000 F750.000
G1 X57.262 Y-5.572 Z0.800 F750.000
G2 X64.841 Y1.299 Z0.800 I13.891 J-7.707 K0.000 F750.000
G2 X81.031 Y-0.554 Z0.800 I6.522 J-14.670 K0.000 F750.000
G2 X82.903 Y-2.163 Z0.800 I-10.078 J-13.621 K0.000 F750.000
G1 X82.903 Y-2.163 Z0.100 F240.000
G2 X86.024 Y-6.432 Z0.100 I-11.951 J-12.012 K0.000 F750.000
G2 X87.595 Y-11.859 Z0.100 I-12.473 J-6.551 K0.000 F750.000
G2 X87.536 Y-16.282 Z0.100 I-31.339 J-1.796 K0.000 F750.000
G2 X83.073 Y-25.056 Z0.100 I-16.050 J2.642 K0.000 F750.000
G2 X78.908 Y-50.901 Z0.100 I-11.612 J-11.387 K0.000 F750.000
G2 X73.691 Y-52.620 Z0.100 I-7.248 J13.225 K0.000 F750.000
G2 X57.129 Y-44.501 Z0.100 I-2.297 J16.267 K0.000 F750.000
G1 X28.315 Y-44.501 Z0.100 F750.000
G2 X21.105 Y-51.155 Z0.100 I-14.136 J8.087 K0.000 F750.000
G2 X15.966 Y-52.688 Z0.100 I-6.949 J13.915 K0.000 F750.000
G2 X0.168 Y-27.784 Z0.100 I-1.830 J16.302 K0.000 F750.000
G2 X2.357 Y-25.096 Z0.100 I14.367 J-9.465 K0.000 F750.000
G2 X-2.005 Y-16.870 Z0.100 I12.306 J11.796 K0.000 F750.000
G2 X-2.150 Y-11.911 Z0.100 I17.407 J2.987 K0.000 F750.000
G2 X-0.725 Y-6.782 Z0.100 I14.464 J-1.254 K0.000 F750.000
G2 X22.661 Y0.231 Z0.100 I14.822 J-6.925 K0.000 F750.000
G2 X28.261 Y-5.572 Z0.100 I-9.969 J-15.222 K0.000 F750.000
G1 X57.262 Y-5.572 Z0.100 F750.000
G2 X64.841 Y1.299 Z0.100 I13.891 J-7.707 K0.000 F750.000
G2 X81.031 Y-0.554 Z0.100 I6.522 J-14.670 K0.000 F750.000
G2 X82.903 Y-2.163 Z0.100 I-10.078 J-13.621 K0.000 F750.000
G1 X82.903 Y-2.163 Z0.000 F240.000
G2 X86.024 Y-6.432 Z0.000 I-11.951 J-12.012 K0.000 F750.000
G2 X87.595 Y-11.859 Z0.000 I-12.473 J-6.551 K0.000 F750.000
G2 X87.536 Y-16.282 Z0.000 I-31.339 J-1.796 K0.000 F750.000
G2 X83.073 Y-25.056 Z0.000 I-16.050 J2.642 K0.000 F750.000
G2 X78.908 Y-50.901 Z0.000 I-11.612 J-11.387 K0.000 F750.000
G2 X73.691 Y-52.620 Z0.000 I-7.248 J13.225 K0.000 F750.000
G2 X57.129 Y-44.501 Z0.000 I-2.297 J16.267 K0.000 F750.000
G1 X28.315 Y-44.501 Z0.000 F750.000
G2 X21.105 Y-51.155 Z0.000 I-14.136 J8.087 K0.000 F750.000
G2 X15.966 Y-52.688 Z0.000 I-6.949 J13.915 K0.000 F750.000
G2 X0.168 Y-27.784 Z0.000 I-1.830 J16.302 K0.000 F750.000
G2 X2.357 Y-25.096 Z0.000 I14.367 J-9.465 K0.000 F750.000
G2 X-2.005 Y-16.870 Z0.000 I12.306 J11.796 K0.000 F750.000
G2 X-2.150 Y-11.911 Z0.000 I17.407 J2.987 K0.000 F750.000
G2 X-0.725 Y-6.782 Z0.000 I14.464 J-1.254 K0.000 F750.000
G2 X22.661 Y0.231 Z0.000 I14.822 J-6.925 K0.000 F750.000
G2 X28.261 Y-5.572 Z0.000 I-9.969 J-15.222 K0.000 F750.000
G1 X57.262 Y-5.572 Z0.000 F750.000
G2 X64.841 Y1.299 Z0.000 I13.891 J-7.707 K0.000 F750.000
G2 X81.031 Y-0.554 Z0.000 I6.522 J-14.670 K0.000 F750.000
G2 X82.903 Y-2.163 Z0.000 I-10.078 J-13.621 K0.000 F750.000
G0 Z10.000
G0 Z10.000
(Finish operation: Profile)
(Begin postamble)
M5
G17 G90
M2
