(Exported by FreeCAD)
(Post Processor: grbl_post)
(Output Time:2022-05-15 16:39:45.856348)
(Begin preamble)
G17 G90
G21
(Begin operation: Fixture)
(Path: Fixture)
G54
(Finish operation: Fixture)
(Begin operation: 3mm_Endmill_1flutes001)
(Path: 3mm_Endmill_1flutes001)
(3mm_Endmill_1flutes001)
(Begin toolchange)
( M6 T3.0 )
M3 S0.0
(Finish operation: 3mm_Endmill_1flutes001)
(Begin operation: Keys)
(Path: Keys)
(Keys)
(Compensated Tool Path. Diameter: 3.0)
G0 Z5.000
G0 X11.211 Y-25.947
G0 Z3.000
G1 X11.211 Y-25.947 Z-1.100
G3 X9.409 Y-27.095 Z-1.100 I-0.774 J-0.774 K0.000
G3 X10.812 Y-27.749 Z-1.100 I1.028 J0.374 K0.000
G3 X11.466 Y-26.347 Z-1.100 I-0.374 J1.028 K0.000
G3 X11.211 Y-25.947 Z-1.100 I-1.028 J-0.374 K0.000
G0 Z5.000
G0 Z5.000
G0 X11.211 Y-25.947
G0 X18.892
G0 X18.892 Z3.000
G1 X18.892 Y-25.947 Z-1.100
G1 X18.892 Y-32.347 Z-1.100
G1 X29.743 Y-32.347 Z-1.100
G1 X29.743 Y-21.495 Z-1.100
G1 X18.892 Y-21.495 Z-1.100
G1 X18.892 Y-25.947 Z-1.100
G0 Z5.000
G0 Z5.000
G0 X18.892 Y-25.947
G0 Y-40.496
G0 Y-40.496 Z3.000
G1 X18.892 Y-40.496 Z-1.100
G1 X18.892 Y-51.348 Z-1.100
G1 X29.743 Y-51.348 Z-1.100
G1 X29.743 Y-40.496 Z-1.100
G1 X18.892 Y-40.496 Z-1.100
G0 Z5.000
G0 Z5.000
G0 X18.892 Y-40.496
G0 Y-59.498
G0 Y-59.498 Z3.000
G1 X18.892 Y-59.498 Z-1.100
G1 X18.892 Y-70.349 Z-1.100
G1 X29.743 Y-70.349 Z-1.100
G1 X29.743 Y-59.498 Z-1.100
G1 X18.892 Y-59.498 Z-1.100
G0 Z5.000
G0 Z5.000
G0 X18.892 Y-59.498
G0 X11.358 Y-64.169
G0 X11.358 Y-64.169 Z3.000
G1 X11.358 Y-64.169 Z-1.100
G3 X10.054 Y-63.717 Z-1.100 I-0.930 J-0.577 K0.000
G3 X9.400 Y-65.120 Z-1.100 I0.374 J-1.028 K0.000
G3 X10.802 Y-65.774 Z-1.100 I1.028 J0.374 K0.000
G3 X11.358 Y-64.169 Z-1.100 I-0.374 J1.028 K0.000
G0 Z5.000
G0 Z5.000
G0 X11.358 Y-64.169
G0 X37.894
G0 X37.894 Z3.000
G1 X37.894 Y-64.169 Z-1.100
G1 X37.894 Y-70.349 Z-1.100
G1 X48.745 Y-70.349 Z-1.100
G1 X48.745 Y-59.498 Z-1.100
G1 X37.894 Y-59.498 Z-1.100
G1 X37.894 Y-64.169 Z-1.100
G0 Z5.000
G0 Z5.000
G0 X37.894 Y-64.169
G0 Y-51.348
G0 Y-51.348 Z3.000
G1 X37.894 Y-51.348 Z-1.100
G1 X48.745 Y-51.348 Z-1.100
G1 X48.745 Y-40.496 Z-1.100
G1 X37.894 Y-40.496 Z-1.100
G1 X37.894 Y-51.348 Z-1.100
G0 Z5.000
G0 Z5.000
G0 X37.894 Y-51.348
G0 Y-32.347
G0 Y-32.347 Z3.000
G1 X37.894 Y-32.347 Z-1.100
G1 X48.745 Y-32.347 Z-1.100
G1 X48.745 Y-21.495 Z-1.100
G1 X37.894 Y-21.495 Z-1.100
G1 X37.894 Y-32.347 Z-1.100
G0 Z5.000
G0 Z5.000
G0 X37.894 Y-32.347
G0 X56.895 Y-27.596
G0 X56.895 Y-27.596 Z3.000
G1 X56.895 Y-27.596 Z-1.100
G1 X67.746 Y-27.596 Z-1.100
G1 X67.746 Y-16.745 Z-1.100
G1 X56.895 Y-16.745 Z-1.100
G1 X56.895 Y-27.596 Z-1.100
G0 Z5.000
G0 Z5.000
G0 X56.895 Y-27.596
G0 Y-35.746
G0 Y-35.746 Z3.000
G1 X56.895 Y-35.746 Z-1.100
G1 X56.895 Y-46.597 Z-1.100
G1 X67.746 Y-46.597 Z-1.100
G1 X67.746 Y-35.746 Z-1.100
G1 X56.895 Y-35.746 Z-1.100
G0 Z5.000
G0 Z5.000
G0 X56.895 Y-35.746
G0 Y-54.748
G0 Y-54.748 Z3.000
G1 X56.895 Y-54.748 Z-1.100
G1 X56.895 Y-65.599 Z-1.100
G1 X67.746 Y-65.599 Z-1.100
G1 X67.746 Y-54.748 Z-1.100
G1 X56.895 Y-54.748 Z-1.100
G0 Z5.000
G0 Z5.000
G0 X56.895 Y-54.748
G0 X75.896
G0 X75.896 Z3.000
G1 X75.896 Y-54.748 Z-1.100
G1 X75.896 Y-63.223 Z-1.100
G1 X86.747 Y-63.223 Z-1.100
G1 X86.747 Y-52.372 Z-1.100
G1 X75.896 Y-52.372 Z-1.100
G1 X75.896 Y-54.748 Z-1.100
G0 Z5.000
G0 Z5.000
G0 X75.896 Y-54.748
G0 Y-44.222
G0 Y-44.222 Z3.000
G1 X75.896 Y-44.222 Z-1.100
G1 X86.747 Y-44.222 Z-1.100
G1 X86.747 Y-33.371 Z-1.100
G1 X75.896 Y-33.371 Z-1.100
G1 X75.896 Y-44.222 Z-1.100
G0 Z5.000
G0 Z5.000
G0 X75.896 Y-44.222
G0 Y-25.221
G0 Y-25.221 Z3.000
G1 X75.896 Y-25.221 Z-1.100
G1 X86.747 Y-25.221 Z-1.100
G1 X86.747 Y-14.370 Z-1.100
G1 X75.896 Y-14.370 Z-1.100
G1 X75.896 Y-25.221 Z-1.100
G0 Z5.000
G0 Z5.000
G0 X75.896 Y-25.221
G0 X94.898
G0 X94.898 Z3.000
G1 X94.898 Y-25.221 Z-1.100
G1 X94.898 Y-27.596 Z-1.100
G1 X105.749 Y-27.596 Z-1.100
G1 X105.749 Y-16.745 Z-1.100
G1 X94.898 Y-16.745 Z-1.100
G1 X94.898 Y-25.221 Z-1.100
G0 Z5.000
G0 Z5.000
G0 X94.898 Y-25.221
G0 X118.384 Y-11.230
G0 X118.384 Y-11.230 Z3.000
G1 X118.384 Y-11.230 Z-1.100
G3 X119.699 Y-11.698 Z-1.100 I0.940 J0.560 K0.000
G3 X118.950 Y-9.642 Z-1.100 I-0.374 J1.028 K0.000
G3 X118.384 Y-11.230 Z-1.100 I0.374 J-1.028 K0.000
G0 Z5.000
G0 Z5.000
G0 X118.384 Y-11.230
G0 Y-19.120
G0 Y-19.120 Z3.000
G1 X118.384 Y-19.120 Z-1.100
G1 X113.899 Y-19.120 Z-1.100
G1 X113.899 Y-29.971 Z-1.100
G1 X124.750 Y-29.971 Z-1.100
G1 X124.750 Y-19.120 Z-1.100
G1 X118.384 Y-19.120 Z-1.100
G0 Z5.000
G0 Z5.000
G0 X118.384 Y-19.120
G0 Y-38.122
G0 Y-38.122 Z3.000
G1 X118.384 Y-38.122 Z-1.100
G1 X113.899 Y-38.122 Z-1.100
G1 X113.899 Y-48.973 Z-1.100
G1 X124.750 Y-48.973 Z-1.100
G1 X124.750 Y-38.122 Z-1.100
G1 X118.384 Y-38.122 Z-1.100
G0 Z5.000
G0 Z5.000
G0 X118.384 Y-38.122
G0 X105.749
G0 X105.749 Z3.000
G1 X105.749 Y-38.122 Z-1.100
G1 X105.749 Y-35.746 Z-1.100
G1 X94.898 Y-35.746 Z-1.100
G1 X94.898 Y-46.597 Z-1.100
G1 X105.749 Y-46.597 Z-1.100
G1 X105.749 Y-38.122 Z-1.100
G0 Z5.000
G0 Z5.000
G0 X105.749 Y-38.122
G0 Y-54.748
G0 Y-54.748 Z3.000
G1 X105.749 Y-54.748 Z-1.100
G1 X94.898 Y-54.748 Z-1.100
G1 X94.898 Y-65.599 Z-1.100
G1 X105.749 Y-65.599 Z-1.100
G1 X105.749 Y-54.748 Z-1.100
G0 Z5.000
G0 Z5.000
G0 X105.749 Y-54.748
G0 X113.899 Y-57.123
G0 X113.899 Y-57.123 Z3.000
G1 X113.899 Y-57.123 Z-1.100
G1 X113.899 Y-67.974 Z-1.100
G1 X124.750 Y-67.974 Z-1.100
G1 X124.750 Y-57.123 Z-1.100
G1 X113.899 Y-57.123 Z-1.100
G0 Z5.000
G0 Z5.000
G0 X113.899 Y-57.123
G0 X108.826 Y-76.133
G0 X108.826 Y-76.133 Z3.000
G1 X108.826 Y-76.133 Z-1.100
G1 X107.989 Y-75.910 Z-1.100
G1 X105.191 Y-86.394 Z-1.100
G1 X115.675 Y-89.192 Z-1.100
G1 X118.473 Y-78.708 Z-1.100
G1 X108.826 Y-76.133 Z-1.100
G0 Z5.000
G0 Z5.000
G0 X108.826 Y-76.133
G0 X96.248
G0 X96.248 Z3.000
G1 X96.248 Y-76.133 Z-1.100
G1 X96.248 Y-74.374 Z-1.100
G1 X85.397 Y-74.374 Z-1.100
G1 X85.397 Y-85.225 Z-1.100
G1 X96.248 Y-85.225 Z-1.100
G1 X96.248 Y-76.133 Z-1.100
G0 Z5.000
G0 Z5.000
G0 X96.248 Y-76.133
G0 X126.670 Y-88.285
G0 X126.670 Y-88.285 Z3.000
G1 X126.670 Y-88.285 Z-1.100
G1 X136.071 Y-93.704 Z-1.100
G1 X141.490 Y-84.303 Z-1.100
G1 X132.089 Y-78.884 Z-1.100
G1 X126.670 Y-88.285 Z-1.100
G0 Z5.000
G0 Z5.000
G0 X126.670 Y-88.285
G0 X144.824 Y-93.421
G0 X144.824 Y-93.421 Z3.000
G1 X144.824 Y-93.421 Z-1.100
G3 X146.301 Y-94.728 Z-1.100 I1.053 J-0.298 K0.000
G3 X145.453 Y-92.709 Z-1.100 I-0.424 J1.009 K0.000
G3 X144.824 Y-93.421 Z-1.100 I0.424 J-1.009 K0.000
G0 Z5.000
G0 Z5.000
(Finish operation: Keys)
(Begin operation: Profile)
(Path: Profile)
(Profile)
(Compensated Tool Path. Diameter: 3.0)
G0 Z5.000
G0 X71.754 Y-79.936
G0 Z3.000
G1 X71.754 Y-79.936 Z-1.100
G2 X72.340 Y-81.351 Z-1.100 I-1.415 J-1.415 K0.000
G1 X72.330 Y-100.922 Z-1.100
G2 X70.330 Y-102.921 Z-1.100 I-2.001 J0.001 K0.000
G1 X11.656 Y-102.921 Z-1.100
G2 X9.746 Y-99.579 Z-1.100 I0.122 J2.287 K0.000
G1 X20.602 Y-80.740 Z-1.100
G2 X22.984 Y-79.350 Z-1.100 I2.550 J-1.634 K0.000
G1 X70.340 Y-79.350 Z-1.100
G2 X71.754 Y-79.936 Z-1.100 I-0.001 J-2.001 K0.000
G0 Z5.000
G0 Z5.000
G0 X71.754 Y-79.936
G0 X72.896 Y-79.103
G0 X72.896 Y-79.103 Z3.000
G1 X72.896 Y-79.103 Z-1.100
G3 X70.310 Y-75.559 Z-1.100 I-709723.415 J-517877.572 K0.000
G1 X15.822 Y-75.559 Z-1.100
G2 X13.889 Y-74.043 Z-1.100 I0.016 J2.011 K0.000
G2 X13.819 Y-72.957 Z-1.100 I4.228 J0.819 K0.000
G3 X12.542 Y-71.268 Z-1.100 I-1.535 J0.167 K0.000
G3 X10.541 Y-71.250 Z-1.100 I-3.338 J-257.323 K0.000
G2 X3.932 Y-64.685 Z-1.100 I-0.119 J6.490 K0.000
G2 X9.914 Y-58.278 Z-1.100 I6.531 J-0.102 K0.000
G2 X12.253 Y-58.245 Z-1.100 I1.482 J-22.130 K0.000
G3 X13.813 Y-56.686 Z-1.100 I0.046 J1.513 K0.000
G1 X13.820 Y-34.779 Z-1.100
G3 X12.554 Y-33.244 Z-1.100 I-1.507 J0.047 K0.000
G3 X10.551 Y-33.225 Z-1.100 I-3.057 J-220.134 K0.000
G2 X3.941 Y-26.661 Z-1.100 I-0.120 J6.490 K0.000
G2 X9.923 Y-20.254 Z-1.100 I6.531 J-0.102 K0.000
G2 X12.263 Y-20.221 Z-1.100 I1.482 J-22.130 K0.000
G3 X13.201 Y-19.931 Z-1.100 I0.036 J1.547 K0.000
G3 X13.811 Y-18.374 Z-1.100 I-0.978 J1.281 K0.000
G2 X15.823 Y-16.305 Z-1.100 I2.027 J0.041 K0.000
G1 X51.825 Y-16.305 Z-1.100
G1 X51.825 Y-13.554 Z-1.100
G2 X53.825 Y-11.555 Z-1.100 I2.001 J-0.001 K0.000
G1 X70.826 Y-11.555 Z-1.100
G2 X72.826 Y-9.305 Z-1.100 I2.029 J0.210 K0.000
G1 X89.827 Y-9.305 Z-1.100
G2 X91.828 Y-11.555 Z-1.100 I-0.009 J-2.022 K0.000
G1 X108.829 Y-11.555 Z-1.100
G2 X110.429 Y-12.368 Z-1.100 I0.005 J-1.973 K0.000
G2 X110.829 Y-14.054 Z-1.100 I-1.950 J-1.352 K0.000
G1 X111.267 Y-14.054 Z-1.100
G3 X112.802 Y-12.788 Z-1.100 I0.046 J1.507 K0.000
G3 X112.822 Y-10.873 Z-1.100 I-175.821 J2.824 K0.000
G2 X113.405 Y-8.057 Z-1.100 I6.806 J0.060 K0.000
G2 X125.783 Y-9.956 Z-1.100 I5.937 J-2.595 K0.000
G2 X125.824 Y-12.494 Z-1.100 I-20.842 J-1.611 K0.000
G3 X127.089 Y-14.031 Z-1.100 I1.507 J-0.049 K0.000
G3 X128.046 Y-14.071 Z-1.100 I3.341 J67.921 K0.000
G2 X129.815 Y-15.844 Z-1.100 I-0.213 J-1.982 K0.000
G2 X129.830 Y-65.606 Z-1.100 I-21905.663 J-31.118 K0.000
G3 X129.854 Y-65.648 Z-1.100 I0.142 J0.057 K0.000
G1 X148.736 Y-76.572 Z-1.100
G2 X149.670 Y-80.316 Z-1.100 I-1.566 J-2.379 K0.000
G1 X146.970 Y-85.036 Z-1.100
G3 X147.295 Y-86.988 Z-1.100 I1.285 J-0.789 K0.000
G2 X149.164 Y-88.111 Z-1.100 I-94.071 J-158.744 K0.000
G2 X152.300 Y-92.727 Z-1.100 I-3.293 J-5.610 K0.000
G2 X142.710 Y-99.392 Z-1.100 I-6.422 J-0.992 K0.000
G1 X141.066 Y-98.436 Z-1.100
G3 X138.927 Y-99.006 Z-1.100 I-0.804 J-1.283 K0.000
G1 X136.417 Y-103.379 Z-1.100
G2 X133.137 Y-104.132 Z-1.100 I-2.016 J1.258 K0.000
G1 X118.578 Y-95.753 Z-1.100
G1 X118.571 Y-95.751 Z-1.100
G1 X81.856 Y-90.294 Z-1.100
G2 X80.515 Y-89.544 Z-1.100 I0.270 J2.057 K0.000
G3 X72.896 Y-79.103 Z-1.100 I-709731.034 J-517867.130 K0.000
G0 Z5.000
G0 Z5.000
(Finish operation: Profile)
(Begin postamble)
M5
G17 G90
M2
