(Exported by FreeCAD)
(Post Processor: grbl_post)
(Output Time:2022-05-15 19:59:25.190254)
(Begin preamble)
G17 G90
G21
(Begin operation: Fixture)
(Path: Fixture)
G54
(Finish operation: Fixture)
(Begin operation: TC: 3mm_Endmill_1flutes)
(Path: TC: 3mm_Endmill_1flutes)
(TC: 3mm_Endmill_1flutes)
(Begin toolchange)
( M6 T3.0 )
M3 S12000.0
(Finish operation: TC: 3mm_Endmill_1flutes)
(Begin operation: DogboneDressup001)
(Path: DogboneDressup001)
(Keys)
(Compensated Tool Path. Diameter: 2.9)
G0 Z5.000
G0 X11.247 Y-25.912
G0 Z3.000
G1 X11.247 Y-25.912 Z-1.100 F250.000
G3 X9.362 Y-27.112 Z-1.100 I-0.809 J-0.809 K0.000 F650.000
G3 X11.513 Y-26.330 Z-1.100 I1.075 J0.391 K0.000 F650.000
G3 X11.247 Y-25.912 Z-1.100 I-1.075 J-0.391 K0.000 F650.000
G0 Z5.000
G0 Z5.000
G0 X11.247 Y-25.912
G0 X18.842
G0 X18.842 Z3.000
G1 X18.842 Y-25.912 Z-1.100 F250.000
G1 X18.842 Y-32.397 Z-1.100 F650.000
G1 X18.417 Y-32.821 Z-1.100 F650.000
G1 X18.842 Y-32.397 Z-1.100 F650.000
G1 X29.793 Y-32.397 Z-1.100 F650.000
G1 X29.793 Y-32.397 Z-1.100 F650.000
G1 X30.217 Y-32.821 Z-1.100 F650.000
G1 X29.793 Y-32.397 Z-1.100 F650.000
G1 X29.793 Y-21.445 Z-1.100 F650.000
G1 X29.793 Y-21.445 Z-1.100 F650.000
G1 X30.217 Y-21.021 Z-1.100 F650.000
G1 X29.793 Y-21.445 Z-1.100 F650.000
G1 X18.842 Y-21.445 Z-1.100 F650.000
G1 X18.842 Y-21.445 Z-1.100 F650.000
G1 X18.417 Y-21.021 Z-1.100 F650.000
G1 X18.842 Y-21.445 Z-1.100 F650.000
G1 X18.842 Y-25.912 Z-1.100 F650.000
G1 X18.842 Y-25.912 Z-1.100 F650.000
G0 Z5.000
G0 Z5.000
G0 X18.842 Y-25.912
G0 Y-40.446
G0 Y-40.446 Z3.000
G1 X18.842 Y-40.446 Z-1.100 F250.000
G1 X18.842 Y-51.398 Z-1.100 F650.000
G1 X18.417 Y-51.822 Z-1.100 F650.000
G1 X18.842 Y-51.398 Z-1.100 F650.000
G1 X29.793 Y-51.398 Z-1.100 F650.000
G1 X29.793 Y-51.398 Z-1.100 F650.000
G1 X30.217 Y-51.822 Z-1.100 F650.000
G1 X29.793 Y-51.398 Z-1.100 F650.000
G1 X29.793 Y-40.446 Z-1.100 F650.000
G1 X29.793 Y-40.446 Z-1.100 F650.000
G1 X30.217 Y-40.022 Z-1.100 F650.000
G1 X29.793 Y-40.446 Z-1.100 F650.000
G1 X18.842 Y-40.446 Z-1.100 F650.000
G1 X18.842 Y-40.446 Z-1.100 F650.000
G1 X18.417 Y-40.022 Z-1.100 F650.000
G1 X18.842 Y-40.446 Z-1.100 F650.000
G0 Z5.000
G0 Z5.000
G0 X18.842 Y-40.446
G0 Y-59.448
G0 Y-59.448 Z3.000
G1 X18.842 Y-59.448 Z-1.100 F250.000
G1 X18.842 Y-70.399 Z-1.100 F650.000
G1 X18.417 Y-70.824 Z-1.100 F650.000
G1 X18.842 Y-70.399 Z-1.100 F650.000
G1 X29.793 Y-70.399 Z-1.100 F650.000
G1 X29.793 Y-70.399 Z-1.100 F650.000
G1 X30.217 Y-70.824 Z-1.100 F650.000
G1 X29.793 Y-70.399 Z-1.100 F650.000
G1 X29.793 Y-59.448 Z-1.100 F650.000
G1 X29.793 Y-59.448 Z-1.100 F650.000
G1 X30.217 Y-59.023 Z-1.100 F650.000
G1 X29.793 Y-59.448 Z-1.100 F650.000
G1 X18.842 Y-59.448 Z-1.100 F650.000
G1 X18.842 Y-59.448 Z-1.100 F650.000
G1 X18.417 Y-59.023 Z-1.100 F650.000
G1 X18.842 Y-59.448 Z-1.100 F650.000
G0 Z5.000
G0 Z5.000
G0 X18.842 Y-59.448
G0 X11.396 Y-64.136
G0 X11.396 Y-64.136 Z3.000
G1 X11.396 Y-64.136 Z-1.100 F250.000
G3 X10.036 Y-63.670 Z-1.100 I-0.968 J-0.610 K0.000 F650.000
G3 X10.819 Y-65.821 Z-1.100 I0.391 J-1.075 K0.000 F650.000
G3 X11.396 Y-64.136 Z-1.100 I-0.391 J1.075 K0.000 F650.000
G0 Z5.000
G0 Z5.000
G0 X11.396 Y-64.136
G0 X37.844
G0 X37.844 Z3.000
G1 X37.844 Y-64.136 Z-1.100 F250.000
G1 X37.844 Y-70.399 Z-1.100 F650.000
G1 X37.419 Y-70.824 Z-1.100 F650.000
G1 X37.844 Y-70.399 Z-1.100 F650.000
G1 X48.795 Y-70.399 Z-1.100 F650.000
G1 X48.795 Y-70.399 Z-1.100 F650.000
G1 X49.219 Y-70.824 Z-1.100 F650.000
G1 X48.795 Y-70.399 Z-1.100 F650.000
G1 X48.795 Y-59.448 Z-1.100 F650.000
G1 X48.795 Y-59.448 Z-1.100 F650.000
G1 X49.219 Y-59.023 Z-1.100 F650.000
G1 X48.795 Y-59.448 Z-1.100 F650.000
G1 X37.844 Y-59.448 Z-1.100 F650.000
G1 X37.844 Y-59.448 Z-1.100 F650.000
G1 X37.419 Y-59.023 Z-1.100 F650.000
G1 X37.844 Y-59.448 Z-1.100 F650.000
G1 X37.844 Y-64.136 Z-1.100 F650.000
G1 X37.844 Y-64.136 Z-1.100 F650.000
G0 Z5.000
G0 Z5.000
G0 X37.844 Y-64.136
G0 Y-51.398
G0 Y-51.398 Z3.000
G1 X37.844 Y-51.398 Z-1.100 F250.000
G1 X48.795 Y-51.398 Z-1.100 F650.000
G1 X49.219 Y-51.822 Z-1.100 F650.000
G1 X48.795 Y-51.398 Z-1.100 F650.000
G1 X48.795 Y-40.446 Z-1.100 F650.000
G1 X48.795 Y-40.446 Z-1.100 F650.000
G1 X49.219 Y-40.022 Z-1.100 F650.000
G1 X48.795 Y-40.446 Z-1.100 F650.000
G1 X37.844 Y-40.446 Z-1.100 F650.000
G1 X37.844 Y-40.446 Z-1.100 F650.000
G1 X37.419 Y-40.022 Z-1.100 F650.000
G1 X37.844 Y-40.446 Z-1.100 F650.000
G1 X37.844 Y-51.398 Z-1.100 F650.000
G1 X37.844 Y-51.398 Z-1.100 F650.000
G1 X37.419 Y-51.822 Z-1.100 F650.000
G1 X37.844 Y-51.398 Z-1.100 F650.000
G0 Z5.000
G0 Z5.000
G0 X37.844 Y-51.398
G0 Y-32.397
G0 Y-32.397 Z3.000
G1 X37.844 Y-32.397 Z-1.100 F250.000
G1 X48.795 Y-32.397 Z-1.100 F650.000
G1 X49.219 Y-32.821 Z-1.100 F650.000
G1 X48.795 Y-32.397 Z-1.100 F650.000
G1 X48.795 Y-21.445 Z-1.100 F650.000
G1 X48.795 Y-21.445 Z-1.100 F650.000
G1 X49.219 Y-21.021 Z-1.100 F650.000
G1 X48.795 Y-21.445 Z-1.100 F650.000
G1 X37.844 Y-21.445 Z-1.100 F650.000
G1 X37.844 Y-21.445 Z-1.100 F650.000
G1 X37.419 Y-21.021 Z-1.100 F650.000
G1 X37.844 Y-21.445 Z-1.100 F650.000
G1 X37.844 Y-32.397 Z-1.100 F650.000
G1 X37.844 Y-32.397 Z-1.100 F650.000
G1 X37.419 Y-32.821 Z-1.100 F650.000
G1 X37.844 Y-32.397 Z-1.100 F650.000
G0 Z5.000
G0 Z5.000
G0 X37.844 Y-32.397
G0 X56.845 Y-27.646
G0 X56.845 Y-27.646 Z3.000
G1 X56.845 Y-27.646 Z-1.100 F250.000
G1 X67.796 Y-27.646 Z-1.100 F650.000
G1 X68.221 Y-28.071 Z-1.100 F650.000
G1 X67.796 Y-27.646 Z-1.100 F650.000
G1 X67.796 Y-16.695 Z-1.100 F650.000
G1 X67.796 Y-16.695 Z-1.100 F650.000
G1 X68.221 Y-16.270 Z-1.100 F650.000
G1 X67.796 Y-16.695 Z-1.100 F650.000
G1 X56.845 Y-16.695 Z-1.100 F650.000
G1 X56.845 Y-16.695 Z-1.100 F650.000
G1 X56.420 Y-16.270 Z-1.100 F650.000
G1 X56.845 Y-16.695 Z-1.100 F650.000
G1 X56.845 Y-27.646 Z-1.100 F650.000
G1 X56.845 Y-27.646 Z-1.100 F650.000
G1 X56.420 Y-28.071 Z-1.100 F650.000
G1 X56.845 Y-27.646 Z-1.100 F650.000
G0 Z5.000
G0 Z5.000
G0 X56.845 Y-27.646
G0 Y-35.696
G0 Y-35.696 Z3.000
G1 X56.845 Y-35.696 Z-1.100 F250.000
G1 X56.845 Y-46.647 Z-1.100 F650.000
G1 X56.420 Y-47.072 Z-1.100 F650.000
G1 X56.845 Y-46.647 Z-1.100 F650.000
G1 X67.796 Y-46.647 Z-1.100 F650.000
G1 X67.796 Y-46.647 Z-1.100 F650.000
G1 X68.221 Y-47.072 Z-1.100 F650.000
G1 X67.796 Y-46.647 Z-1.100 F650.000
G1 X67.796 Y-35.696 Z-1.100 F650.000
G1 X67.796 Y-35.696 Z-1.100 F650.000
G1 X68.221 Y-35.272 Z-1.100 F650.000
G1 X67.796 Y-35.696 Z-1.100 F650.000
G1 X56.845 Y-35.696 Z-1.100 F650.000
G1 X56.845 Y-35.696 Z-1.100 F650.000
G1 X56.420 Y-35.272 Z-1.100 F650.000
G1 X56.845 Y-35.696 Z-1.100 F650.000
G0 Z5.000
G0 Z5.000
G0 X56.845 Y-35.696
G0 Y-54.698
G0 Y-54.698 Z3.000
G1 X56.845 Y-54.698 Z-1.100 F250.000
G1 X56.845 Y-65.649 Z-1.100 F650.000
G1 X56.420 Y-66.073 Z-1.100 F650.000
G1 X56.845 Y-65.649 Z-1.100 F650.000
G1 X67.796 Y-65.649 Z-1.100 F650.000
G1 X67.796 Y-65.649 Z-1.100 F650.000
G1 X68.221 Y-66.073 Z-1.100 F650.000
G1 X67.796 Y-65.649 Z-1.100 F650.000
G1 X67.796 Y-54.698 Z-1.100 F650.000
G1 X67.796 Y-54.698 Z-1.100 F650.000
G1 X68.221 Y-54.273 Z-1.100 F650.000
G1 X67.796 Y-54.698 Z-1.100 F650.000
G1 X56.845 Y-54.698 Z-1.100 F650.000
G1 X56.845 Y-54.698 Z-1.100 F650.000
G1 X56.420 Y-54.273 Z-1.100 F650.000
G1 X56.845 Y-54.698 Z-1.100 F650.000
G0 Z5.000
G0 Z5.000
G0 X56.845 Y-54.698
G0 X75.846
G0 X75.846 Z3.000
G1 X75.846 Y-54.698 Z-1.100 F250.000
G1 X75.846 Y-63.273 Z-1.100 F650.000
G1 X75.422 Y-63.698 Z-1.100 F650.000
G1 X75.846 Y-63.273 Z-1.100 F650.000
G1 X86.797 Y-63.273 Z-1.100 F650.000
G1 X86.797 Y-63.273 Z-1.100 F650.000
G1 X87.222 Y-63.698 Z-1.100 F650.000
G1 X86.797 Y-63.273 Z-1.100 F650.000
G1 X86.797 Y-52.322 Z-1.100 F650.000
G1 X86.797 Y-52.322 Z-1.100 F650.000
G1 X87.222 Y-51.898 Z-1.100 F650.000
G1 X86.797 Y-52.322 Z-1.100 F650.000
G1 X75.846 Y-52.322 Z-1.100 F650.000
G1 X75.846 Y-52.322 Z-1.100 F650.000
G1 X75.422 Y-51.898 Z-1.100 F650.000
G1 X75.846 Y-52.322 Z-1.100 F650.000
G1 X75.846 Y-54.698 Z-1.100 F650.000
G1 X75.846 Y-54.698 Z-1.100 F650.000
G0 Z5.000
G0 Z5.000
G0 X75.846 Y-54.698
G0 Y-44.272
G0 Y-44.272 Z3.000
G1 X75.846 Y-44.272 Z-1.100 F250.000
G1 X86.797 Y-44.272 Z-1.100 F650.000
G1 X87.222 Y-44.697 Z-1.100 F650.000
G1 X86.797 Y-44.272 Z-1.100 F650.000
G1 X86.797 Y-33.321 Z-1.100 F650.000
G1 X86.797 Y-33.321 Z-1.100 F650.000
G1 X87.222 Y-32.896 Z-1.100 F650.000
G1 X86.797 Y-33.321 Z-1.100 F650.000
G1 X75.846 Y-33.321 Z-1.100 F650.000
G1 X75.846 Y-33.321 Z-1.100 F650.000
G1 X75.422 Y-32.896 Z-1.100 F650.000
G1 X75.846 Y-33.321 Z-1.100 F650.000
G1 X75.846 Y-44.272 Z-1.100 F650.000
G1 X75.846 Y-44.272 Z-1.100 F650.000
G1 X75.422 Y-44.697 Z-1.100 F650.000
G1 X75.846 Y-44.272 Z-1.100 F650.000
G0 Z5.000
G0 Z5.000
G0 X75.846 Y-44.272
G0 Y-25.271
G0 Y-25.271 Z3.000
G1 X75.846 Y-25.271 Z-1.100 F250.000
G1 X86.797 Y-25.271 Z-1.100 F650.000
G1 X87.222 Y-25.696 Z-1.100 F650.000
G1 X86.797 Y-25.271 Z-1.100 F650.000
G1 X86.797 Y-14.320 Z-1.100 F650.000
G1 X86.797 Y-14.320 Z-1.100 F650.000
G1 X87.222 Y-13.895 Z-1.100 F650.000
G1 X86.797 Y-14.320 Z-1.100 F650.000
G1 X75.846 Y-14.320 Z-1.100 F650.000
G1 X75.846 Y-14.320 Z-1.100 F650.000
G1 X75.422 Y-13.895 Z-1.100 F650.000
G1 X75.846 Y-14.320 Z-1.100 F650.000
G1 X75.846 Y-25.271 Z-1.100 F650.000
G1 X75.846 Y-25.271 Z-1.100 F650.000
G1 X75.422 Y-25.696 Z-1.100 F650.000
G1 X75.846 Y-25.271 Z-1.100 F650.000
G0 Z5.000
G0 Z5.000
G0 X75.846 Y-25.271
G0 X94.848
G0 X94.848 Z3.000
G1 X94.848 Y-25.271 Z-1.100 F250.000
G1 X94.848 Y-27.646 Z-1.100 F650.000
G1 X94.423 Y-28.071 Z-1.100 F650.000
G1 X94.848 Y-27.646 Z-1.100 F650.000
G1 X105.799 Y-27.646 Z-1.100 F650.000
G1 X105.799 Y-27.646 Z-1.100 F650.000
G1 X106.223 Y-28.071 Z-1.100 F650.000
G1 X105.799 Y-27.646 Z-1.100 F650.000
G1 X105.799 Y-16.695 Z-1.100 F650.000
G1 X105.799 Y-16.695 Z-1.100 F650.000
G1 X106.223 Y-16.270 Z-1.100 F650.000
G1 X105.799 Y-16.695 Z-1.100 F650.000
G1 X94.848 Y-16.695 Z-1.100 F650.000
G1 X94.848 Y-16.695 Z-1.100 F650.000
G1 X94.423 Y-16.270 Z-1.100 F650.000
G1 X94.848 Y-16.695 Z-1.100 F650.000
G1 X94.848 Y-25.271 Z-1.100 F650.000
G1 X94.848 Y-25.271 Z-1.100 F650.000
G0 Z5.000
G0 Z5.000
G0 X94.848 Y-25.271
G0 X118.342 Y-11.256
G0 X118.342 Y-11.256 Z3.000
G1 X118.342 Y-11.256 Z-1.100 F250.000
G3 X119.716 Y-11.745 Z-1.100 I0.983 J0.586 K0.000 F650.000
G3 X118.933 Y-9.595 Z-1.100 I-0.391 J1.075 K0.000 F650.000
G3 X118.342 Y-11.256 Z-1.100 I0.391 J-1.075 K0.000 F650.000
G0 Z5.000
G0 Z5.000
G0 X118.342 Y-11.256
G0 Y-19.070
G0 Y-19.070 Z3.000
G1 X118.342 Y-19.070 Z-1.100 F250.000
G1 X113.849 Y-19.070 Z-1.100 F650.000
G1 X113.424 Y-18.646 Z-1.100 F650.000
G1 X113.849 Y-19.070 Z-1.100 F650.000
G1 X113.849 Y-30.021 Z-1.100 F650.000
G1 X113.849 Y-30.021 Z-1.100 F650.000
G1 X113.424 Y-30.446 Z-1.100 F650.000
G1 X113.849 Y-30.021 Z-1.100 F650.000
G1 X124.800 Y-30.021 Z-1.100 F650.000
G1 X124.800 Y-30.021 Z-1.100 F650.000
G1 X125.225 Y-30.446 Z-1.100 F650.000
G1 X124.800 Y-30.021 Z-1.100 F650.000
G1 X124.800 Y-19.070 Z-1.100 F650.000
G1 X124.800 Y-19.070 Z-1.100 F650.000
G1 X125.225 Y-18.646 Z-1.100 F650.000
G1 X124.800 Y-19.070 Z-1.100 F650.000
G1 X118.342 Y-19.070 Z-1.100 F650.000
G1 X118.342 Y-19.070 Z-1.100 F650.000
G0 Z5.000
G0 Z5.000
G0 X118.342 Y-19.070
G0 Y-38.072
G0 Y-38.072 Z3.000
G1 X118.342 Y-38.072 Z-1.100 F250.000
G1 X113.849 Y-38.072 Z-1.100 F650.000
G1 X113.424 Y-37.647 Z-1.100 F650.000
G1 X113.849 Y-38.072 Z-1.100 F650.000
G1 X113.849 Y-49.023 Z-1.100 F650.000
G1 X113.849 Y-49.023 Z-1.100 F650.000
G1 X113.424 Y-49.447 Z-1.100 F650.000
G1 X113.849 Y-49.023 Z-1.100 F650.000
G1 X124.800 Y-49.023 Z-1.100 F650.000
G1 X124.800 Y-49.023 Z-1.100 F650.000
G1 X125.225 Y-49.447 Z-1.100 F650.000
G1 X124.800 Y-49.023 Z-1.100 F650.000
G1 X124.800 Y-38.072 Z-1.100 F650.000
G1 X124.800 Y-38.072 Z-1.100 F650.000
G1 X125.225 Y-37.647 Z-1.100 F650.000
G1 X124.800 Y-38.072 Z-1.100 F650.000
G1 X118.342 Y-38.072 Z-1.100 F650.000
G1 X118.342 Y-38.072 Z-1.100 F650.000
G0 Z5.000
G0 Z5.000
G0 X118.342 Y-38.072
G0 X105.799
G0 X105.799 Z3.000
G1 X105.799 Y-38.072 Z-1.100 F250.000
G1 X105.799 Y-35.696 Z-1.100 F650.000
G1 X106.223 Y-35.272 Z-1.100 F650.000
G1 X105.799 Y-35.696 Z-1.100 F650.000
G1 X94.848 Y-35.696 Z-1.100 F650.000
G1 X94.848 Y-35.696 Z-1.100 F650.000
G1 X94.423 Y-35.272 Z-1.100 F650.000
G1 X94.848 Y-35.696 Z-1.100 F650.000
G1 X94.848 Y-46.647 Z-1.100 F650.000
G1 X94.848 Y-46.647 Z-1.100 F650.000
G1 X94.423 Y-47.072 Z-1.100 F650.000
G1 X94.848 Y-46.647 Z-1.100 F650.000
G1 X105.799 Y-46.647 Z-1.100 F650.000
G1 X105.799 Y-46.647 Z-1.100 F650.000
G1 X106.223 Y-47.072 Z-1.100 F650.000
G1 X105.799 Y-46.647 Z-1.100 F650.000
G1 X105.799 Y-38.072 Z-1.100 F650.000
G1 X105.799 Y-38.072 Z-1.100 F650.000
G0 Z5.000
G0 Z5.000
G0 X105.799 Y-38.072
G0 Y-54.698
G0 Y-54.698 Z3.000
G1 X105.799 Y-54.698 Z-1.100 F250.000
G1 X94.848 Y-54.698 Z-1.100 F650.000
G1 X94.423 Y-54.273 Z-1.100 F650.000
G1 X94.848 Y-54.698 Z-1.100 F650.000
G1 X94.848 Y-65.649 Z-1.100 F650.000
G1 X94.848 Y-65.649 Z-1.100 F650.000
G1 X94.423 Y-66.073 Z-1.100 F650.000
G1 X94.848 Y-65.649 Z-1.100 F650.000
G1 X105.799 Y-65.649 Z-1.100 F650.000
G1 X105.799 Y-65.649 Z-1.100 F650.000
G1 X106.223 Y-66.073 Z-1.100 F650.000
G1 X105.799 Y-65.649 Z-1.100 F650.000
G1 X105.799 Y-54.698 Z-1.100 F650.000
G1 X105.799 Y-54.698 Z-1.100 F650.000
G1 X106.223 Y-54.273 Z-1.100 F650.000
G1 X105.799 Y-54.698 Z-1.100 F650.000
G0 Z5.000
G0 Z5.000
G0 X105.799 Y-54.698
G0 X113.849 Y-57.073
G0 X113.849 Y-57.073 Z3.000
G1 X113.849 Y-57.073 Z-1.100 F250.000
G1 X113.849 Y-68.024 Z-1.100 F650.000
G1 X113.424 Y-68.449 Z-1.100 F650.000
G1 X113.849 Y-68.024 Z-1.100 F650.000
G1 X124.800 Y-68.024 Z-1.100 F650.000
G1 X124.800 Y-68.024 Z-1.100 F650.000
G1 X125.225 Y-68.449 Z-1.100 F650.000
G1 X124.800 Y-68.024 Z-1.100 F650.000
G1 X124.800 Y-57.073 Z-1.100 F650.000
G1 X124.800 Y-57.073 Z-1.100 F650.000
G1 X125.225 Y-56.648 Z-1.100 F650.000
G1 X124.800 Y-57.073 Z-1.100 F650.000
G1 X113.849 Y-57.073 Z-1.100 F650.000
G1 X113.849 Y-57.073 Z-1.100 F650.000
G1 X113.424 Y-56.648 Z-1.100 F650.000
G1 X113.849 Y-57.073 Z-1.100 F650.000
G0 Z5.000
G0 Z5.000
G0 X113.849 Y-57.073
G0 X108.779 Y-76.069
G0 X108.779 Y-76.069 Z3.000
G1 X108.779 Y-76.069 Z-1.100 F250.000
G1 X107.953 Y-75.848 Z-1.100 F650.000
G1 X107.652 Y-75.329 Z-1.100 F650.000
G1 X107.953 Y-75.848 Z-1.100 F650.000
G1 X105.129 Y-86.429 Z-1.100 F650.000
G1 X105.129 Y-86.429 Z-1.100 F650.000
G1 X104.610 Y-86.730 Z-1.100 F650.000
G1 X105.129 Y-86.429 Z-1.100 F650.000
G1 X115.710 Y-89.253 Z-1.100 F650.000
G1 X115.710 Y-89.253 Z-1.100 F650.000
G1 X116.011 Y-89.773 Z-1.100 F650.000
G1 X115.710 Y-89.253 Z-1.100 F650.000
G1 X118.534 Y-78.672 Z-1.100 F650.000
G1 X118.534 Y-78.672 Z-1.100 F650.000
G1 X119.054 Y-78.371 Z-1.100 F650.000
G1 X118.534 Y-78.672 Z-1.100 F650.000
G1 X108.779 Y-76.069 Z-1.100 F650.000
G1 X108.779 Y-76.069 Z-1.100 F650.000
G0 Z5.000
G0 Z5.000
G0 X108.779 Y-76.069
G0 X96.298
G0 X96.298 Z3.000
G1 X96.298 Y-76.069 Z-1.100 F250.000
G1 X96.298 Y-74.324 Z-1.100 F650.000
G1 X96.723 Y-73.899 Z-1.100 F650.000
G1 X96.298 Y-74.324 Z-1.100 F650.000
G1 X85.347 Y-74.324 Z-1.100 F650.000
G1 X85.347 Y-74.324 Z-1.100 F650.000
G1 X84.922 Y-73.899 Z-1.100 F650.000
G1 X85.347 Y-74.324 Z-1.100 F650.000
G1 X85.347 Y-85.275 Z-1.100 F650.000
G1 X85.347 Y-85.275 Z-1.100 F650.000
G1 X84.922 Y-85.700 Z-1.100 F650.000
G1 X85.347 Y-85.275 Z-1.100 F650.000
G1 X96.298 Y-85.275 Z-1.100 F650.000
G1 X96.298 Y-85.275 Z-1.100 F650.000
G1 X96.723 Y-85.700 Z-1.100 F650.000
G1 X96.298 Y-85.275 Z-1.100 F650.000
G1 X96.298 Y-76.069 Z-1.100 F650.000
G1 X96.298 Y-76.069 Z-1.100 F650.000
G0 Z5.000
G0 Z5.000
G0 X96.298 Y-76.069
G0 X126.602 Y-88.303
G0 X126.602 Y-88.303 Z3.000
G1 X126.602 Y-88.303 Z-1.100 F250.000
G1 X136.089 Y-93.772 Z-1.100 F650.000
G1 X136.245 Y-94.352 Z-1.100 F650.000
G1 X136.089 Y-93.772 Z-1.100 F650.000
G1 X141.558 Y-84.285 Z-1.100 F650.000
G1 X141.558 Y-84.285 Z-1.100 F650.000
G1 X142.139 Y-84.129 Z-1.100 F650.000
G1 X141.558 Y-84.285 Z-1.100 F650.000
G1 X132.071 Y-78.816 Z-1.100 F650.000
G1 X132.071 Y-78.816 Z-1.100 F650.000
G1 X131.915 Y-78.236 Z-1.100 F650.000
G1 X132.071 Y-78.816 Z-1.100 F650.000
G1 X126.602 Y-88.303 Z-1.100 F650.000
G1 X126.602 Y-88.303 Z-1.100 F650.000
G1 X126.022 Y-88.459 Z-1.100 F650.000
G1 X126.602 Y-88.303 Z-1.100 F650.000
G0 Z5.000
G0 Z5.000
G0 X126.602 Y-88.303
G0 X144.775 Y-93.409
G0 X144.775 Y-93.409 Z3.000
G1 X144.775 Y-93.409 Z-1.100 F250.000
G3 X146.321 Y-94.774 Z-1.100 I1.102 J-0.310 K0.000 F650.000
G3 X145.434 Y-92.663 Z-1.100 I-0.444 J1.055 K0.000 F650.000
G3 X144.775 Y-93.409 Z-1.100 I0.444 J-1.055 K0.000 F650.000
G0 Z5.000
G0 Z5.000
(Finish operation: DogboneDressup001)
(Begin operation: Profile)
(Path: Profile)
(Profile)
(Compensated Tool Path. Diameter: 2.9)
G0 Z5.000
G0 X71.719 Y-79.971
G0 Z3.000
G1 X71.719 Y-79.971 Z-1.100 F250.000
G2 X72.290 Y-81.351 Z-1.100 I-1.380 J-1.380 K0.000 F650.000
G1 X72.280 Y-100.922 Z-1.100 F650.000
G2 X70.330 Y-102.871 Z-1.100 I-1.951 J0.002 K0.000 F650.000
G1 X11.656 Y-102.871 Z-1.100 F650.000
G2 X9.789 Y-99.604 Z-1.100 I0.122 J2.237 K0.000 F650.000
G1 X20.645 Y-80.765 Z-1.100 F650.000
G2 X22.984 Y-79.400 Z-1.100 I2.507 J-1.608 K0.000 F650.000
G1 X70.340 Y-79.400 Z-1.100 F650.000
G2 X71.719 Y-79.971 Z-1.100 I-0.001 J-1.951 K0.000 F650.000
G0 Z5.000
G0 Z5.000
G0 X71.719 Y-79.971
G0 X72.941 Y-79.079
G0 X72.941 Y-79.079 Z3.000
G1 X72.941 Y-79.079 Z-1.100 F250.000
G3 X70.336 Y-75.509 Z-1.100 I-709813.842 J-517943.540 K0.000 F650.000
G1 X15.822 Y-75.509 Z-1.100 F650.000
G2 X13.938 Y-74.033 Z-1.100 I0.016 J1.961 K0.000 F650.000
G2 X13.869 Y-72.955 Z-1.100 I4.172 J0.810 K0.000 F650.000
G3 X12.550 Y-71.218 Z-1.100 I-1.584 J0.166 K0.000 F650.000
G3 X10.542 Y-71.200 Z-1.100 I-3.171 J-233.702 K0.000 F650.000
G2 X3.982 Y-64.688 Z-1.100 I-0.120 J6.440 K0.000 F650.000
G2 X9.920 Y-58.328 Z-1.100 I6.481 J-0.099 K0.000 F650.000
G2 X12.255 Y-58.295 Z-1.100 I1.477 J-22.184 K0.000 F650.000
G3 X13.863 Y-56.688 Z-1.100 I0.045 J1.563 K0.000 F650.000
G1 X13.870 Y-34.777 Z-1.100 F650.000
G3 X12.561 Y-33.194 Z-1.100 I-1.556 J0.046 K0.000 F650.000
G3 X10.552 Y-33.175 Z-1.100 I-2.936 J-202.564 K0.000 F650.000
G2 X3.991 Y-26.664 Z-1.100 I-0.121 J6.440 K0.000 F650.000
G2 X9.930 Y-20.304 Z-1.100 I6.481 J-0.099 K0.000 F650.000
G2 X12.265 Y-20.271 Z-1.100 I1.477 J-22.184 K0.000 F650.000
G3 X13.231 Y-19.971 Z-1.100 I0.035 J1.595 K0.000 F650.000
G3 X13.861 Y-18.375 Z-1.100 I-1.004 J1.320 K0.000 F650.000
G2 X15.823 Y-16.355 Z-1.100 I1.977 J0.042 K0.000 F650.000
G1 X51.875 Y-16.355 Z-1.100 F650.000
G1 X51.875 Y-13.554 Z-1.100 F650.000
G2 X53.825 Y-11.605 Z-1.100 I1.951 J-0.001 K0.000 F650.000
G1 X70.876 Y-11.605 Z-1.100 F650.000
G2 X72.826 Y-9.355 Z-1.100 I1.984 J0.251 K0.000 F650.000
G1 X89.827 Y-9.355 Z-1.100 F650.000
G1 X90.110 Y-9.382 Z-1.100 F650.000
G2 X91.778 Y-11.605 Z-1.100 I-0.311 J-1.970 K0.000 F650.000
G1 X108.829 Y-11.605 Z-1.100 F650.000
G2 X110.609 Y-12.760 Z-1.100 I-0.025 J-1.987 K0.000 F650.000
G2 X110.779 Y-14.104 Z-1.100 I-2.703 J-1.024 K0.000 F650.000
G1 X111.269 Y-14.104 Z-1.100 F650.000
G3 X112.851 Y-12.796 Z-1.100 I0.045 J1.557 K0.000 F650.000
G3 X112.872 Y-10.874 Z-1.100 I-164.172 J2.736 K0.000 F650.000
G2 X113.451 Y-8.076 Z-1.100 I6.755 J0.061 K0.000 F650.000
G2 X125.733 Y-9.959 Z-1.100 I5.890 J-2.577 K0.000 F650.000
G2 X125.774 Y-12.496 Z-1.100 I-20.817 J-1.609 K0.000 F650.000
G3 X127.081 Y-14.081 Z-1.100 I1.557 J-0.047 K0.000 F650.000
G3 X128.040 Y-14.121 Z-1.100 I4.335 J91.434 K0.000 F650.000
G2 X129.766 Y-15.851 Z-1.100 I-0.207 J-1.932 K0.000 F650.000
G2 X129.780 Y-65.618 Z-1.100 I-22677.835 J-31.113 K0.000 F650.000
G3 X129.820 Y-65.685 Z-1.100 I0.231 J0.091 K0.000 F650.000
G1 X148.711 Y-76.615 Z-1.100 F650.000
G2 X149.627 Y-80.291 Z-1.100 I-1.541 J-2.336 K0.000 F650.000
G1 X146.925 Y-85.013 Z-1.100 F650.000
G3 X147.263 Y-87.027 Z-1.100 I1.329 J-0.813 K0.000 F650.000
G2 X149.137 Y-88.153 Z-1.100 I-101.700 J-171.387 K0.000 F650.000
G2 X152.250 Y-92.732 Z-1.100 I-3.266 J-5.568 K0.000 F650.000
G2 X142.732 Y-99.347 Z-1.100 I-6.372 J-0.987 K0.000 F650.000
G1 X141.089 Y-98.392 Z-1.100 F650.000
G3 X138.884 Y-98.979 Z-1.100 I-0.827 J-1.326 K0.000 F650.000
G1 X136.374 Y-103.354 Z-1.100 F650.000
G2 X133.163 Y-104.089 Z-1.100 I-1.972 J1.233 K0.000 F650.000
G1 X118.597 Y-95.706 Z-1.100 F650.000
G1 X118.581 Y-95.702 Z-1.100 F650.000
G1 X81.864 Y-90.244 Z-1.100 F650.000
G2 X80.556 Y-89.515 Z-1.100 I0.263 J2.008 K0.000 F650.000
G3 X72.941 Y-79.079 Z-1.100 I-709821.457 J-517933.105 K0.000 F650.000
G0 Z5.000
G0 Z5.000
(Finish operation: Profile)
(Begin postamble)
M5
G17 G90
M2
