(Exported by FreeCAD)
(Post Processor: grbl_post)
(Output Time:2022-05-15 10:40:29.976503)
(Begin preamble)
G17 G90
G21
(Begin operation: Fixture)
(Path: Fixture)
G54
(Finish operation: Fixture)
(Begin operation: 3mm_Endmill_2flutes002)
(Path: 3mm_Endmill_2flutes002)
(3mm_Endmill_2flutes002)
(Begin toolchange)
( M6 T2.0 )
M3 S12000.0
(Finish operation: 3mm_Endmill_2flutes002)
(Begin operation: Keys)
(Path: Keys)
(Keys)
(Compensated Tool Path. Diameter: 3.175)
G0 Z5.000
G0 X11.149 Y-26.009
G0 Z3.000
G1 X11.149 Y-26.009 Z-1.100 F250.000
G3 X9.492 Y-27.065 Z-1.100 I-0.712 J-0.712 K0.000 F650.000
G3 X11.383 Y-26.377 Z-1.100 I0.946 J0.344 K0.000 F650.000
G3 X11.149 Y-26.009 Z-1.100 I-0.946 J-0.344 K0.000 F650.000
G0 Z5.000
G0 Z5.000
G0 X11.149 Y-26.009
G0 X18.979
G0 X18.979 Z3.000
G1 X18.979 Y-26.009 Z-1.100 F250.000
G1 X18.979 Y-32.259 Z-1.100 F650.000
G1 X29.655 Y-32.259 Z-1.100 F650.000
G1 X29.655 Y-21.583 Z-1.100 F650.000
G1 X18.979 Y-21.583 Z-1.100 F650.000
G1 X18.979 Y-26.009 Z-1.100 F650.000
G0 Z5.000
G0 Z5.000
G0 X18.979 Y-26.009
G0 Y-40.584
G0 Y-40.584 Z3.000
G1 X18.979 Y-40.584 Z-1.100 F250.000
G1 X18.979 Y-51.260 Z-1.100 F650.000
G1 X29.655 Y-51.260 Z-1.100 F650.000
G1 X29.655 Y-40.584 Z-1.100 F650.000
G1 X18.979 Y-40.584 Z-1.100 F650.000
G0 Z5.000
G0 Z5.000
G0 X18.979 Y-40.584
G0 Y-59.586
G0 Y-59.586 Z3.000
G1 X18.979 Y-59.586 Z-1.100 F250.000
G1 X18.979 Y-70.262 Z-1.100 F650.000
G1 X29.655 Y-70.262 Z-1.100 F650.000
G1 X29.655 Y-59.586 Z-1.100 F650.000
G1 X18.979 Y-59.586 Z-1.100 F650.000
G0 Z5.000
G0 Z5.000
G0 X18.979 Y-59.586
G0 X11.289 Y-64.225
G0 X11.289 Y-64.225 Z3.000
G1 X11.289 Y-64.225 Z-1.100 F250.000
G3 X10.084 Y-63.800 Z-1.100 I-0.862 J-0.520 K0.000 F650.000
G3 X10.772 Y-65.691 Z-1.100 I0.344 J-0.946 K0.000 F650.000
G3 X11.289 Y-64.225 Z-1.100 I-0.344 J0.946 K0.000 F650.000
G0 Z5.000
G0 Z5.000
G0 X11.289 Y-64.225
G0 X37.981
G0 X37.981 Z3.000
G1 X37.981 Y-64.225 Z-1.100 F250.000
G1 X37.981 Y-70.262 Z-1.100 F650.000
G1 X48.657 Y-70.262 Z-1.100 F650.000
G1 X48.657 Y-59.586 Z-1.100 F650.000
G1 X37.981 Y-59.586 Z-1.100 F650.000
G1 X37.981 Y-64.225 Z-1.100 F650.000
G0 Z5.000
G0 Z5.000
G0 X37.981 Y-64.225
G0 Y-51.260
G0 Y-51.260 Z3.000
G1 X37.981 Y-51.260 Z-1.100 F250.000
G1 X48.657 Y-51.260 Z-1.100 F650.000
G1 X48.657 Y-40.584 Z-1.100 F650.000
G1 X37.981 Y-40.584 Z-1.100 F650.000
G1 X37.981 Y-51.260 Z-1.100 F650.000
G0 Z5.000
G0 Z5.000
G0 X37.981 Y-51.260
G0 Y-32.259
G0 Y-32.259 Z3.000
G1 X37.981 Y-32.259 Z-1.100 F250.000
G1 X48.657 Y-32.259 Z-1.100 F650.000
G1 X48.657 Y-21.583 Z-1.100 F650.000
G1 X37.981 Y-21.583 Z-1.100 F650.000
G1 X37.981 Y-32.259 Z-1.100 F650.000
G0 Z5.000
G0 Z5.000
G0 X37.981 Y-32.259
G0 X56.982 Y-27.509
G0 X56.982 Y-27.509 Z3.000
G1 X56.982 Y-27.509 Z-1.100 F250.000
G1 X67.659 Y-27.509 Z-1.100 F650.000
G1 X67.659 Y-16.832 Z-1.100 F650.000
G1 X56.982 Y-16.832 Z-1.100 F650.000
G1 X56.982 Y-27.509 Z-1.100 F650.000
G0 Z5.000
G0 Z5.000
G0 X56.982 Y-27.509
G0 Y-35.834
G0 Y-35.834 Z3.000
G1 X56.982 Y-35.834 Z-1.100 F250.000
G1 X56.982 Y-46.510 Z-1.100 F650.000
G1 X67.659 Y-46.510 Z-1.100 F650.000
G1 X67.659 Y-35.834 Z-1.100 F650.000
G1 X56.982 Y-35.834 Z-1.100 F650.000
G0 Z5.000
G0 Z5.000
G0 X56.982 Y-35.834
G0 Y-54.835
G0 Y-54.835 Z3.000
G1 X56.982 Y-54.835 Z-1.100 F250.000
G1 X56.982 Y-65.511 Z-1.100 F650.000
G1 X67.659 Y-65.511 Z-1.100 F650.000
G1 X67.659 Y-54.835 Z-1.100 F650.000
G1 X56.982 Y-54.835 Z-1.100 F650.000
G0 Z5.000
G0 Z5.000
G0 X56.982 Y-54.835
G0 X75.984
G0 X75.984 Z3.000
G1 X75.984 Y-54.835 Z-1.100 F250.000
G1 X75.984 Y-63.136 Z-1.100 F650.000
G1 X86.660 Y-63.136 Z-1.100 F650.000
G1 X86.660 Y-52.460 Z-1.100 F650.000
G1 X75.984 Y-52.460 Z-1.100 F650.000
G1 X75.984 Y-54.835 Z-1.100 F650.000
G0 Z5.000
G0 Z5.000
G0 X75.984 Y-54.835
G0 Y-44.135
G0 Y-44.135 Z3.000
G1 X75.984 Y-44.135 Z-1.100 F250.000
G1 X86.660 Y-44.135 Z-1.100 F650.000
G1 X86.660 Y-33.459 Z-1.100 F650.000
G1 X75.984 Y-33.459 Z-1.100 F650.000
G1 X75.984 Y-44.135 Z-1.100 F650.000
G0 Z5.000
G0 Z5.000
G0 X75.984 Y-44.135
G0 Y-25.134
G0 Y-25.134 Z3.000
G1 X75.984 Y-25.134 Z-1.100 F250.000
G1 X86.660 Y-25.134 Z-1.100 F650.000
G1 X86.660 Y-14.458 Z-1.100 F650.000
G1 X75.984 Y-14.458 Z-1.100 F650.000
G1 X75.984 Y-25.134 Z-1.100 F650.000
G0 Z5.000
G0 Z5.000
G0 X75.984 Y-25.134
G0 X94.985
G0 X94.985 Z3.000
G1 X94.985 Y-25.134 Z-1.100 F250.000
G1 X94.985 Y-27.509 Z-1.100 F650.000
G1 X105.661 Y-27.509 Z-1.100 F650.000
G1 X105.661 Y-16.832 Z-1.100 F650.000
G1 X94.985 Y-16.832 Z-1.100 F650.000
G1 X94.985 Y-25.134 Z-1.100 F650.000
G0 Z5.000
G0 Z5.000
G0 X94.985 Y-25.134
G0 X118.459 Y-11.184
G0 X118.459 Y-11.184 Z3.000
G1 X118.459 Y-11.184 Z-1.100 F250.000
G3 X119.669 Y-11.616 Z-1.100 I0.865 J0.514 K0.000 F650.000
G3 X118.980 Y-9.724 Z-1.100 I-0.344 J0.946 K0.000 F650.000
G3 X118.459 Y-11.184 Z-1.100 I0.344 J-0.946 K0.000 F650.000
G0 Z5.000
G0 Z5.000
G0 X118.459 Y-11.184
G0 Y-19.208
G0 Y-19.208 Z3.000
G1 X118.459 Y-19.208 Z-1.100 F250.000
G1 X113.986 Y-19.208 Z-1.100 F650.000
G1 X113.986 Y-29.884 Z-1.100 F650.000
G1 X124.662 Y-29.884 Z-1.100 F650.000
G1 X124.662 Y-19.208 Z-1.100 F650.000
G1 X118.459 Y-19.208 Z-1.100 F650.000
G0 Z5.000
G0 Z5.000
G0 X118.459 Y-19.208
G0 Y-38.209
G0 Y-38.209 Z3.000
G1 X118.459 Y-38.209 Z-1.100 F250.000
G1 X113.986 Y-38.209 Z-1.100 F650.000
G1 X113.986 Y-48.885 Z-1.100 F650.000
G1 X124.662 Y-48.885 Z-1.100 F650.000
G1 X124.662 Y-38.209 Z-1.100 F650.000
G1 X118.459 Y-38.209 Z-1.100 F650.000
G0 Z5.000
G0 Z5.000
G0 X118.459 Y-38.209
G0 X105.661
G0 X105.661 Z3.000
G1 X105.661 Y-38.209 Z-1.100 F250.000
G1 X105.661 Y-35.834 Z-1.100 F650.000
G1 X94.985 Y-35.834 Z-1.100 F650.000
G1 X94.985 Y-46.510 Z-1.100 F650.000
G1 X105.661 Y-46.510 Z-1.100 F650.000
G1 X105.661 Y-38.209 Z-1.100 F650.000
G0 Z5.000
G0 Z5.000
G0 X105.661 Y-38.209
G0 Y-54.835
G0 Y-54.835 Z3.000
G1 X105.661 Y-54.835 Z-1.100 F250.000
G1 X94.985 Y-54.835 Z-1.100 F650.000
G1 X94.985 Y-65.511 Z-1.100 F650.000
G1 X105.661 Y-65.511 Z-1.100 F650.000
G1 X105.661 Y-54.835 Z-1.100 F650.000
G0 Z5.000
G0 Z5.000
G0 X105.661 Y-54.835
G0 X113.986 Y-57.210
G0 X113.986 Y-57.210 Z3.000
G1 X113.986 Y-57.210 Z-1.100 F250.000
G1 X113.986 Y-67.886 Z-1.100 F650.000
G1 X124.662 Y-67.886 Z-1.100 F650.000
G1 X124.662 Y-57.210 Z-1.100 F650.000
G1 X113.986 Y-57.210 Z-1.100 F650.000
G0 Z5.000
G0 Z5.000
G0 X113.986 Y-57.210
G0 X108.906 Y-76.245
G0 X108.906 Y-76.245 Z3.000
G1 X108.906 Y-76.245 Z-1.100 F250.000
G1 X108.051 Y-76.017 Z-1.100 F650.000
G1 X105.298 Y-86.332 Z-1.100 F650.000
G1 X115.613 Y-89.085 Z-1.100 F650.000
G1 X118.366 Y-78.770 Z-1.100 F650.000
G1 X108.906 Y-76.245 Z-1.100 F650.000
G0 Z5.000
G0 Z5.000
G0 X108.906 Y-76.245
G0 X96.161
G0 X96.161 Z3.000
G1 X96.161 Y-76.245 Z-1.100 F250.000
G1 X96.161 Y-74.462 Z-1.100 F650.000
G1 X85.484 Y-74.462 Z-1.100 F650.000
G1 X85.484 Y-85.138 Z-1.100 F650.000
G1 X96.161 Y-85.138 Z-1.100 F650.000
G1 X96.161 Y-76.245 Z-1.100 F650.000
G0 Z5.000
G0 Z5.000
G0 X96.161 Y-76.245
G0 X126.790 Y-88.253
G0 X126.790 Y-88.253 Z3.000
G1 X126.790 Y-88.253 Z-1.100 F250.000
G1 X136.039 Y-93.585 Z-1.100 F650.000
G1 X141.371 Y-84.335 Z-1.100 F650.000
G1 X132.121 Y-79.004 Z-1.100 F650.000
G1 X126.790 Y-88.253 Z-1.100 F650.000
G0 Z5.000
G0 Z5.000
G0 X126.790 Y-88.253
G0 X144.909 Y-93.441
G0 X144.909 Y-93.441 Z3.000
G1 X144.909 Y-93.441 Z-1.100 F250.000
G3 X146.267 Y-94.647 Z-1.100 I0.968 J-0.277 K0.000 F650.000
G3 X145.487 Y-92.790 Z-1.100 I-0.390 J0.928 K0.000 F650.000
G3 X144.909 Y-93.441 Z-1.100 I0.390 J-0.928 K0.000 F650.000
G0 Z5.000
G0 Z5.000
(Finish operation: Keys)
(Begin operation: Profile001)
(Path: Profile001)
(Profile001)
(Compensated Tool Path. Diameter: 3.175)
G0 Z5.000
G0 X71.816 Y-79.874
G0 Z3.000
G1 X71.816 Y-79.874 Z-1.100 F250.000
G2 X72.428 Y-81.351 Z-1.100 I-1.477 J-1.477 K0.000 F650.000
G1 X72.417 Y-100.922 Z-1.100 F650.000
G2 X70.330 Y-103.008 Z-1.100 I-2.088 J0.001 K0.000 F650.000
G1 X11.656 Y-103.009 Z-1.100 F650.000
G2 X9.670 Y-99.536 Z-1.100 I0.122 J2.375 K0.000 F650.000
G1 X20.526 Y-80.696 Z-1.100 F650.000
G2 X22.984 Y-79.262 Z-1.100 I2.626 J-1.677 K0.000 F650.000
G1 X70.340 Y-79.262 Z-1.100 F650.000
G2 X71.816 Y-79.874 Z-1.100 I-0.001 J-2.089 K0.000 F650.000
G0 Z5.000
G0 Z5.000
G0 X71.816 Y-79.874
G0 X72.817 Y-79.143
G0 X72.817 Y-79.143 Z3.000
G1 X72.817 Y-79.143 Z-1.100 F250.000
G3 X70.266 Y-75.647 Z-1.100 I-708666.642 J-517106.484 K0.000 F650.000
G1 X15.822 Y-75.647 Z-1.100 F650.000
G2 X13.803 Y-74.060 Z-1.100 I0.016 J2.098 K0.000 F650.000
G2 X13.731 Y-72.960 Z-1.100 I4.326 J0.835 K0.000 F650.000
G3 X12.528 Y-71.354 Z-1.100 I-1.449 J0.168 K0.000 F650.000
G3 X10.540 Y-71.337 Z-1.100 I-3.756 J-315.627 K0.000 F650.000
G2 X3.845 Y-64.876 Z-1.100 I-0.117 J6.578 K0.000 F650.000
G2 X9.902 Y-58.191 Z-1.100 I6.613 J0.094 K0.000 F650.000
G2 X12.250 Y-58.158 Z-1.100 I1.491 J-22.040 K0.000 F650.000
G3 X13.725 Y-56.682 Z-1.100 I0.049 J1.427 K0.000 F650.000
G1 X13.732 Y-34.783 Z-1.100 F650.000
G3 X12.540 Y-33.330 Z-1.100 I-1.420 J0.050 K0.000 F650.000
G3 X10.549 Y-33.313 Z-1.100 I-3.350 J-261.634 K0.000 F650.000
G2 X3.854 Y-26.852 Z-1.100 I-0.118 J6.578 K0.000 F650.000
G2 X9.912 Y-20.167 Z-1.100 I6.613 J0.095 K0.000 F650.000
G2 X12.259 Y-20.133 Z-1.100 I1.491 J-22.040 K0.000 F650.000
G3 X13.149 Y-19.860 Z-1.100 I0.038 J1.463 K0.000 F650.000
G3 X13.724 Y-18.372 Z-1.100 I-0.932 J1.215 K0.000 F650.000
G2 X15.823 Y-16.218 Z-1.100 I2.115 J0.039 K0.000 F650.000
G1 X51.737 Y-16.218 Z-1.100 F650.000
G1 X51.737 Y-13.554 Z-1.100 F650.000
G2 X53.825 Y-11.467 Z-1.100 I2.088 J-0.001 K0.000 F650.000
G1 X70.739 Y-11.467 Z-1.100 F650.000
G2 X72.826 Y-9.217 Z-1.100 I2.110 J0.135 K0.000 F650.000
G1 X89.827 Y-9.217 Z-1.100 F650.000
G2 X91.915 Y-11.467 Z-1.100 I-0.004 J-2.097 K0.000 F650.000
G1 X108.829 Y-11.467 Z-1.100 F650.000
G2 X110.502 Y-12.319 Z-1.100 I0.005 J-2.060 K0.000 F650.000
G2 X110.916 Y-13.967 Z-1.100 I-1.951 J-1.366 K0.000 F650.000
G1 X111.263 Y-13.967 Z-1.100 F650.000
G3 X112.715 Y-12.774 Z-1.100 I0.049 J1.420 K0.000 F650.000
G3 X112.734 Y-10.871 Z-1.100 I-202.102 J3.026 K0.000 F650.000
G2 X113.323 Y-8.025 Z-1.100 I6.894 J0.058 K0.000 F650.000
G2 X125.870 Y-9.950 Z-1.100 I6.018 J-2.627 K0.000 F650.000
G2 X125.912 Y-12.491 Z-1.100 I-20.885 J-1.613 K0.000 F650.000
G3 X127.103 Y-13.944 Z-1.100 I1.420 J-0.051 K0.000 F650.000
G3 X128.057 Y-13.985 Z-1.100 I2.389 J45.412 K0.000 F650.000
G2 X129.902 Y-15.832 Z-1.100 I-0.224 J-2.069 K0.000 F650.000
G2 X129.917 Y-65.583 Z-1.100 I-20673.859 J-31.123 K0.000 F650.000
G1 X148.780 Y-76.496 Z-1.100 F650.000
G2 X149.746 Y-80.359 Z-1.100 I-1.610 J-2.455 K0.000 F650.000
G1 X147.047 Y-85.077 Z-1.100 F650.000
G3 X147.351 Y-86.921 Z-1.100 I1.208 J-0.748 K0.000 F650.000
G2 X149.210 Y-88.037 Z-1.100 I-82.736 J-139.955 K0.000 F650.000
G2 X152.387 Y-92.717 Z-1.100 I-3.340 J-5.685 K0.000 F650.000
G2 X142.671 Y-99.471 Z-1.100 I-6.509 J-1.001 K0.000 F650.000
G1 X141.025 Y-98.514 Z-1.100 F650.000
G3 X139.001 Y-99.053 Z-1.100 I-0.762 J-1.207 K0.000 F650.000
G1 X136.493 Y-103.422 Z-1.100 F650.000
G2 X133.093 Y-104.208 Z-1.100 I-2.092 J1.302 K0.000 F650.000
G1 X118.547 Y-95.836 Z-1.100 F650.000
G1 X81.843 Y-90.380 Z-1.100 F650.000
G2 X80.444 Y-89.596 Z-1.100 I0.282 J2.143 K0.000 F650.000
G3 X72.817 Y-79.143 Z-1.100 I-708674.269 J-517096.032 K0.000 F650.000
G0 Z5.000
G0 Z5.000
(Finish operation: Profile001)
(Begin postamble)
M5
G17 G90
M2
