(Exported by FreeCAD)
(Post Processor: grbl_post)
(Output Time:2022-05-21 13:14:26.874666)
(Begin preamble)
G17 G90
G21
(Begin operation: Fixture)
(Path: Fixture)
G54
(Finish operation: Fixture)
(Begin operation: TC: 3mm_Endmill_1flutes003)
(Path: TC: 3mm_Endmill_1flutes003)
(TC: 3mm_Endmill_1flutes003)
(Begin toolchange)
( M6 T3.0 )
M3 S12000.0
(Finish operation: TC: 3mm_Endmill_1flutes003)
(Begin operation: DogboneDressup)
(Coolant On:Mist)
M7
(Path: DogboneDressup)
(Profile)
(Compensated Tool Path. Diameter: 2.6)
G0 Z7.000
G0 X21.700 Y21.700
G0 Z5.000
G1 X21.700 Y21.700 Z0.000 F250.000
G1 X21.700 Y11.300 Z0.000 F650.000
G1 X21.700 Y10.000 Z0.000 F650.000
G1 X21.700 Y11.300 Z0.000 F650.000
G1 X11.300 Y11.300 Z0.000 F650.000
G1 X11.300 Y11.300 Z0.000 F650.000
G1 X11.300 Y10.000 Z0.000 F650.000
G1 X11.300 Y11.300 Z0.000 F650.000
G1 X11.300 Y21.700 Z0.000 F650.000
G1 X11.300 Y21.700 Z0.000 F650.000
G1 X11.300 Y23.000 Z0.000 F650.000
G1 X11.300 Y21.700 Z0.000 F650.000
G1 X21.700 Y21.700 Z0.000 F650.000
G1 X21.700 Y21.700 Z0.000 F650.000
G1 X21.700 Y23.000 Z0.000 F650.000
G1 X21.700 Y21.700 Z0.000 F650.000
G0 Z7.000
G0 Z7.000
G0 X21.700 Y21.700
G0 X21.700 Y34.300
G0 X21.700 Y34.300 Z5.000
G1 X21.700 Y34.300 Z0.000 F250.000
G1 X11.300 Y34.300 Z0.000 F650.000
G1 X11.300 Y33.000 Z0.000 F650.000
G1 X11.300 Y34.300 Z0.000 F650.000
G1 X11.300 Y45.200 Z0.000 F650.000
G1 X11.300 Y45.200 Z0.000 F650.000
G1 X11.300 Y46.500 Z0.000 F650.000
G1 X11.300 Y45.200 Z0.000 F650.000
G1 X22.200 Y45.200 Z0.000 F650.000
G1 X22.200 Y45.200 Z0.000 F650.000
G1 X22.200 Y46.500 Z0.000 F650.000
G1 X22.200 Y45.200 Z0.000 F650.000
G1 X22.200 Y34.300 Z0.000 F650.000
G1 X22.200 Y34.300 Z0.000 F650.000
G1 X22.200 Y33.000 Z0.000 F650.000
G1 X22.200 Y34.300 Z0.000 F650.000
G1 X21.700 Y34.300 Z0.000 F650.000
G0 Z7.000
G0 Z7.000
G0 X21.700 Y34.300
G0 X21.700 Y57.800
G0 X21.700 Y57.800 Z5.000
G1 X21.700 Y57.800 Z0.000 F250.000
G1 X11.300 Y57.800 Z0.000 F650.000
G1 X11.300 Y56.500 Z0.000 F650.000
G1 X11.300 Y57.800 Z0.000 F650.000
G1 X11.300 Y69.000 Z0.000 F650.000
G1 X11.300 Y69.000 Z0.000 F650.000
G1 X11.300 Y70.300 Z0.000 F650.000
G1 X11.300 Y69.000 Z0.000 F650.000
G1 X22.500 Y69.000 Z0.000 F650.000
G1 X22.500 Y69.000 Z0.000 F650.000
G1 X22.500 Y70.300 Z0.000 F650.000
G1 X22.500 Y69.000 Z0.000 F650.000
G1 X22.500 Y57.800 Z0.000 F650.000
G1 X22.500 Y57.800 Z0.000 F650.000
G1 X22.500 Y56.500 Z0.000 F650.000
G1 X22.500 Y57.800 Z0.000 F650.000
G1 X21.700 Y57.800 Z0.000 F650.000
G0 Z7.000
G0 Z7.000
G0 X21.700 Y57.800
G0 Y81.600
G0 Y81.600 Z5.000
G1 X21.700 Y81.600 Z0.000 F250.000
G1 X11.300 Y81.600 Z0.000 F650.000
G1 X11.300 Y80.300 Z0.000 F650.000
G1 X11.300 Y81.600 Z0.000 F650.000
G1 X11.300 Y93.000 Z0.000 F650.000
G1 X11.300 Y93.000 Z0.000 F650.000
G1 X11.300 Y94.300 Z0.000 F650.000
G1 X11.300 Y93.000 Z0.000 F650.000
G1 X22.700 Y93.000 Z0.000 F650.000
G1 X22.700 Y93.000 Z0.000 F650.000
G1 X22.700 Y94.300 Z0.000 F650.000
G1 X22.700 Y93.000 Z0.000 F650.000
G1 X22.700 Y81.600 Z0.000 F650.000
G1 X22.700 Y81.600 Z0.000 F650.000
G1 X22.700 Y80.300 Z0.000 F650.000
G1 X22.700 Y81.600 Z0.000 F650.000
G1 X21.700 Y81.600 Z0.000 F650.000
G1 X21.700 Y81.600 Z0.000 F650.000
G1 X21.700 Y80.300 Z0.000 F650.000
G1 X21.700 Y81.600 Z0.000 F650.000
G0 Z7.000
G0 Z7.000
G0 X21.700 Y81.600
G0 X36.300
G0 X36.300 Z5.000
G1 X36.300 Y81.600 Z0.000 F250.000
G1 X36.300 Y100.000 Z0.000 F650.000
G3 X35.000 Y101.300 Z0.000 I-1.300 J0.000 K0.000 F650.000
G1 X0.000 Y101.300 Z0.000 F650.000
G3 X-1.300 Y100.000 Z0.000 I-0.000 J-1.300 K0.000 F650.000
G1 X-1.300 Y0.000 Z0.000 F650.000
G3 X0.000 Y-1.300 Z0.000 I1.300 J-0.000 K0.000 F650.000
G1 X35.000 Y-1.300 Z0.000 F650.000
G3 X36.300 Y0.000 Z0.000 I0.000 J1.300 K0.000 F650.000
G1 X36.300 Y81.600 Z0.000 F650.000
G1 X36.300 Y80.300 Z0.000 F650.000
G1 X36.300 Y81.600 Z0.000 F650.000
G0 Z7.000
G0 Z7.000
(Finish operation: DogboneDressup)
(Coolant Off:Mist)
M9
(Begin operation: Drilling)
(Path: Drilling)
(Drilling)
(Begin Drilling)
G0 Z7.000
G90
G99
G81 X30.000 Y17.141 Z0.000 F250.000 R3.000
G80
G0 Z5.000
G81 X30.000 Y40.599 Z0.000 F250.000 R3.000
G80
G0 Z5.000
G81 X30.000 Y64.346 Z0.000 F250.000 R3.000
G80
G0 Z5.000
G81 X30.000 Y88.300 Z0.000 F250.000 R3.000
G80
G0 Z5.000
G0 Z7.000
(Finish operation: Drilling)
(Begin postamble)
M5
G17 G90
M2
