(Exported by FreeCAD)
(Post Processor: grbl_post)
(Output Time:2022-05-22 01:59:28.570771)
(Begin preamble)
G17 G90
G21
(Begin operation: Fixture)
(Path: Fixture)
G54
(Finish operation: Fixture)
(Begin operation: 3mm_Endmill_1flutes004)
(Path: 3mm_Endmill_1flutes004)
(3mm_Endmill_1flutes004)
(Begin toolchange)
( M6 T2.0 )
M3 S12000.0
(Finish operation: 3mm_Endmill_1flutes004)
(Begin operation: DogboneDressup)
(Path: DogboneDressup)
(Keys)
(Compensated Tool Path. Diameter: 3.0)
G0 Z7.000
G0 X29.843 Y-21.395
G0 Z5.000
G1 X29.843 Y-21.395 Z0.500 F250.000
G1 X29.843 Y-32.447 Z0.500 F650.000
G1 X31.343 Y-32.447 Z0.500 F650.000
G1 X29.843 Y-32.447 Z0.500 F650.000
G1 X18.792 Y-32.447 Z0.500 F650.000
G1 X18.792 Y-32.447 Z0.500 F650.000
G1 X17.292 Y-32.447 Z0.500 F650.000
G1 X18.792 Y-32.447 Z0.500 F650.000
G1 X18.792 Y-21.395 Z0.500 F650.000
G1 X18.792 Y-21.395 Z0.500 F650.000
G1 X17.292 Y-21.395 Z0.500 F650.000
G1 X18.792 Y-21.395 Z0.500 F650.000
G1 X29.843 Y-21.395 Z0.500 F650.000
G1 X29.843 Y-21.395 Z0.500 F650.000
G1 X31.343 Y-21.395 Z0.500 F650.000
G1 X29.843 Y-21.395 Z0.500 F650.000
G1 X29.843 Y-21.395 Z0.000 F250.000
G1 X29.843 Y-32.447 Z0.000 F650.000
G1 X31.343 Y-32.447 Z0.000 F650.000
G1 X29.843 Y-32.447 Z0.000 F650.000
G1 X18.792 Y-32.447 Z0.000 F650.000
G1 X18.792 Y-32.447 Z0.000 F650.000
G1 X17.292 Y-32.447 Z0.000 F650.000
G1 X18.792 Y-32.447 Z0.000 F650.000
G1 X18.792 Y-21.395 Z0.000 F650.000
G1 X18.792 Y-21.395 Z0.000 F650.000
G1 X17.292 Y-21.395 Z0.000 F650.000
G1 X18.792 Y-21.395 Z0.000 F650.000
G1 X29.843 Y-21.395 Z0.000 F650.000
G1 X29.843 Y-21.395 Z0.000 F650.000
G1 X31.343 Y-21.395 Z0.000 F650.000
G1 X29.843 Y-21.395 Z0.000 F650.000
G0 Z7.000
G0 Z7.000
G0 X29.843 Y-21.395
G0 Y-40.396
G0 Y-40.396 Z5.000
G1 X29.843 Y-40.396 Z0.500 F250.000
G1 X29.843 Y-51.448 Z0.500 F650.000
G1 X31.343 Y-51.448 Z0.500 F650.000
G1 X29.843 Y-51.448 Z0.500 F650.000
G1 X18.792 Y-51.448 Z0.500 F650.000
G1 X18.792 Y-51.448 Z0.500 F650.000
G1 X17.292 Y-51.448 Z0.500 F650.000
G1 X18.792 Y-51.448 Z0.500 F650.000
G1 X18.792 Y-40.396 Z0.500 F650.000
G1 X18.792 Y-40.396 Z0.500 F650.000
G1 X17.292 Y-40.396 Z0.500 F650.000
G1 X18.792 Y-40.396 Z0.500 F650.000
G1 X29.843 Y-40.396 Z0.500 F650.000
G1 X29.843 Y-40.396 Z0.500 F650.000
G1 X31.343 Y-40.396 Z0.500 F650.000
G1 X29.843 Y-40.396 Z0.500 F650.000
G1 X29.843 Y-40.396 Z0.000 F250.000
G1 X29.843 Y-51.448 Z0.000 F650.000
G1 X31.343 Y-51.448 Z0.000 F650.000
G1 X29.843 Y-51.448 Z0.000 F650.000
G1 X18.792 Y-51.448 Z0.000 F650.000
G1 X18.792 Y-51.448 Z0.000 F650.000
G1 X17.292 Y-51.448 Z0.000 F650.000
G1 X18.792 Y-51.448 Z0.000 F650.000
G1 X18.792 Y-40.396 Z0.000 F650.000
G1 X18.792 Y-40.396 Z0.000 F650.000
G1 X17.292 Y-40.396 Z0.000 F650.000
G1 X18.792 Y-40.396 Z0.000 F650.000
G1 X29.843 Y-40.396 Z0.000 F650.000
G1 X29.843 Y-40.396 Z0.000 F650.000
G1 X31.343 Y-40.396 Z0.000 F650.000
G1 X29.843 Y-40.396 Z0.000 F650.000
G0 Z7.000
G0 Z7.000
G0 X29.843 Y-40.396
G0 Y-59.398
G0 Y-59.398 Z5.000
G1 X29.843 Y-59.398 Z0.500 F250.000
G1 X29.843 Y-70.449 Z0.500 F650.000
G1 X31.343 Y-70.449 Z0.500 F650.000
G1 X29.843 Y-70.449 Z0.500 F650.000
G1 X18.792 Y-70.449 Z0.500 F650.000
G1 X18.792 Y-70.449 Z0.500 F650.000
G1 X17.292 Y-70.449 Z0.500 F650.000
G1 X18.792 Y-70.449 Z0.500 F650.000
G1 X18.792 Y-59.398 Z0.500 F650.000
G1 X18.792 Y-59.398 Z0.500 F650.000
G1 X17.292 Y-59.398 Z0.500 F650.000
G1 X18.792 Y-59.398 Z0.500 F650.000
G1 X29.843 Y-59.398 Z0.500 F650.000
G1 X29.843 Y-59.398 Z0.500 F650.000
G1 X31.343 Y-59.398 Z0.500 F650.000
G1 X29.843 Y-59.398 Z0.500 F650.000
G1 X29.843 Y-59.398 Z0.000 F250.000
G1 X29.843 Y-70.449 Z0.000 F650.000
G1 X31.343 Y-70.449 Z0.000 F650.000
G1 X29.843 Y-70.449 Z0.000 F650.000
G1 X18.792 Y-70.449 Z0.000 F650.000
G1 X18.792 Y-70.449 Z0.000 F650.000
G1 X17.292 Y-70.449 Z0.000 F650.000
G1 X18.792 Y-70.449 Z0.000 F650.000
G1 X18.792 Y-59.398 Z0.000 F650.000
G1 X18.792 Y-59.398 Z0.000 F650.000
G1 X17.292 Y-59.398 Z0.000 F650.000
G1 X18.792 Y-59.398 Z0.000 F650.000
G1 X29.843 Y-59.398 Z0.000 F650.000
G1 X29.843 Y-59.398 Z0.000 F650.000
G1 X31.343 Y-59.398 Z0.000 F650.000
G1 X29.843 Y-59.398 Z0.000 F650.000
G0 Z7.000
G0 Z7.000
G0 X29.843 Y-59.398
G0 X37.794
G0 X37.794 Z5.000
G1 X37.794 Y-59.398 Z0.500 F250.000
G1 X48.845 Y-59.398 Z0.500 F650.000
G1 X50.345 Y-59.398 Z0.500 F650.000
G1 X48.845 Y-59.398 Z0.500 F650.000
G1 X48.845 Y-70.449 Z0.500 F650.000
G1 X48.845 Y-70.449 Z0.500 F650.000
G1 X50.345 Y-70.449 Z0.500 F650.000
G1 X48.845 Y-70.449 Z0.500 F650.000
G1 X37.794 Y-70.449 Z0.500 F650.000
G1 X37.794 Y-70.449 Z0.500 F650.000
G1 X36.294 Y-70.449 Z0.500 F650.000
G1 X37.794 Y-70.449 Z0.500 F650.000
G1 X37.794 Y-59.398 Z0.500 F650.000
G1 X37.794 Y-59.398 Z0.500 F650.000
G1 X36.294 Y-59.398 Z0.500 F650.000
G1 X37.794 Y-59.398 Z0.500 F650.000
G1 X37.794 Y-59.398 Z0.000 F250.000
G1 X48.845 Y-59.398 Z0.000 F650.000
G1 X50.345 Y-59.398 Z0.000 F650.000
G1 X48.845 Y-59.398 Z0.000 F650.000
G1 X48.845 Y-70.449 Z0.000 F650.000
G1 X48.845 Y-70.449 Z0.000 F650.000
G1 X50.345 Y-70.449 Z0.000 F650.000
G1 X48.845 Y-70.449 Z0.000 F650.000
G1 X37.794 Y-70.449 Z0.000 F650.000
G1 X37.794 Y-70.449 Z0.000 F650.000
G1 X36.294 Y-70.449 Z0.000 F650.000
G1 X37.794 Y-70.449 Z0.000 F650.000
G1 X37.794 Y-59.398 Z0.000 F650.000
G1 X37.794 Y-59.398 Z0.000 F650.000
G1 X36.294 Y-59.398 Z0.000 F650.000
G1 X37.794 Y-59.398 Z0.000 F650.000
G0 Z7.000
G0 Z7.000
G0 X37.794 Y-59.398
G0 Y-51.448
G0 Y-51.448 Z5.000
G1 X37.794 Y-51.448 Z0.500 F250.000
G1 X37.794 Y-40.396 Z0.500 F650.000
G1 X36.294 Y-40.396 Z0.500 F650.000
G1 X37.794 Y-40.396 Z0.500 F650.000
G1 X48.845 Y-40.396 Z0.500 F650.000
G1 X48.845 Y-40.396 Z0.500 F650.000
G1 X50.345 Y-40.396 Z0.500 F650.000
G1 X48.845 Y-40.396 Z0.500 F650.000
G1 X48.845 Y-51.448 Z0.500 F650.000
G1 X48.845 Y-51.448 Z0.500 F650.000
G1 X50.345 Y-51.448 Z0.500 F650.000
G1 X48.845 Y-51.448 Z0.500 F650.000
G1 X37.794 Y-51.448 Z0.500 F650.000
G1 X37.794 Y-51.448 Z0.500 F650.000
G1 X36.294 Y-51.448 Z0.500 F650.000
G1 X37.794 Y-51.448 Z0.500 F650.000
G1 X37.794 Y-51.448 Z0.000 F250.000
G1 X37.794 Y-40.396 Z0.000 F650.000
G1 X36.294 Y-40.396 Z0.000 F650.000
G1 X37.794 Y-40.396 Z0.000 F650.000
G1 X48.845 Y-40.396 Z0.000 F650.000
G1 X48.845 Y-40.396 Z0.000 F650.000
G1 X50.345 Y-40.396 Z0.000 F650.000
G1 X48.845 Y-40.396 Z0.000 F650.000
G1 X48.845 Y-51.448 Z0.000 F650.000
G1 X48.845 Y-51.448 Z0.000 F650.000
G1 X50.345 Y-51.448 Z0.000 F650.000
G1 X48.845 Y-51.448 Z0.000 F650.000
G1 X37.794 Y-51.448 Z0.000 F650.000
G1 X37.794 Y-51.448 Z0.000 F650.000
G1 X36.294 Y-51.448 Z0.000 F650.000
G1 X37.794 Y-51.448 Z0.000 F650.000
G0 Z7.000
G0 Z7.000
G0 X37.794 Y-51.448
G0 Y-32.447
G0 Y-32.447 Z5.000
G1 X37.794 Y-32.447 Z0.500 F250.000
G1 X37.794 Y-21.395 Z0.500 F650.000
G1 X36.294 Y-21.395 Z0.500 F650.000
G1 X37.794 Y-21.395 Z0.500 F650.000
G1 X48.845 Y-21.395 Z0.500 F650.000
G1 X48.845 Y-21.395 Z0.500 F650.000
G1 X50.345 Y-21.395 Z0.500 F650.000
G1 X48.845 Y-21.395 Z0.500 F650.000
G1 X48.845 Y-32.447 Z0.500 F650.000
G1 X48.845 Y-32.447 Z0.500 F650.000
G1 X50.345 Y-32.447 Z0.500 F650.000
G1 X48.845 Y-32.447 Z0.500 F650.000
G1 X37.794 Y-32.447 Z0.500 F650.000
G1 X37.794 Y-32.447 Z0.500 F650.000
G1 X36.294 Y-32.447 Z0.500 F650.000
G1 X37.794 Y-32.447 Z0.500 F650.000
G1 X37.794 Y-32.447 Z0.000 F250.000
G1 X37.794 Y-21.395 Z0.000 F650.000
G1 X36.294 Y-21.395 Z0.000 F650.000
G1 X37.794 Y-21.395 Z0.000 F650.000
G1 X48.845 Y-21.395 Z0.000 F650.000
G1 X48.845 Y-21.395 Z0.000 F650.000
G1 X50.345 Y-21.395 Z0.000 F650.000
G1 X48.845 Y-21.395 Z0.000 F650.000
G1 X48.845 Y-32.447 Z0.000 F650.000
G1 X48.845 Y-32.447 Z0.000 F650.000
G1 X50.345 Y-32.447 Z0.000 F650.000
G1 X48.845 Y-32.447 Z0.000 F650.000
G1 X37.794 Y-32.447 Z0.000 F650.000
G1 X37.794 Y-32.447 Z0.000 F650.000
G1 X36.294 Y-32.447 Z0.000 F650.000
G1 X37.794 Y-32.447 Z0.000 F650.000
G0 Z7.000
G0 Z7.000
G0 X37.794 Y-32.447
G0 X56.795 Y-27.696
G0 X56.795 Y-27.696 Z5.000
G1 X56.795 Y-27.696 Z0.500 F250.000
G1 X56.795 Y-16.645 Z0.500 F650.000
G1 X55.295 Y-16.645 Z0.500 F650.000
G1 X56.795 Y-16.645 Z0.500 F650.000
G1 X67.846 Y-16.645 Z0.500 F650.000
G1 X67.846 Y-16.645 Z0.500 F650.000
G1 X69.346 Y-16.645 Z0.500 F650.000
G1 X67.846 Y-16.645 Z0.500 F650.000
G1 X67.846 Y-27.696 Z0.500 F650.000
G1 X67.846 Y-27.696 Z0.500 F650.000
G1 X69.346 Y-27.696 Z0.500 F650.000
G1 X67.846 Y-27.696 Z0.500 F650.000
G1 X56.795 Y-27.696 Z0.500 F650.000
G1 X56.795 Y-27.696 Z0.500 F650.000
G1 X55.295 Y-27.696 Z0.500 F650.000
G1 X56.795 Y-27.696 Z0.500 F650.000
G1 X56.795 Y-27.696 Z0.000 F250.000
G1 X56.795 Y-16.645 Z0.000 F650.000
G1 X55.295 Y-16.645 Z0.000 F650.000
G1 X56.795 Y-16.645 Z0.000 F650.000
G1 X67.846 Y-16.645 Z0.000 F650.000
G1 X67.846 Y-16.645 Z0.000 F650.000
G1 X69.346 Y-16.645 Z0.000 F650.000
G1 X67.846 Y-16.645 Z0.000 F650.000
G1 X67.846 Y-27.696 Z0.000 F650.000
G1 X67.846 Y-27.696 Z0.000 F650.000
G1 X69.346 Y-27.696 Z0.000 F650.000
G1 X67.846 Y-27.696 Z0.000 F650.000
G1 X56.795 Y-27.696 Z0.000 F650.000
G1 X56.795 Y-27.696 Z0.000 F650.000
G1 X55.295 Y-27.696 Z0.000 F650.000
G1 X56.795 Y-27.696 Z0.000 F650.000
G0 Z7.000
G0 Z7.000
G0 X56.795 Y-27.696
G0 Y-35.646
G0 Y-35.646 Z5.000
G1 X56.795 Y-35.646 Z0.500 F250.000
G1 X67.846 Y-35.646 Z0.500 F650.000
G1 X69.346 Y-35.646 Z0.500 F650.000
G1 X67.846 Y-35.646 Z0.500 F650.000
G1 X67.846 Y-46.697 Z0.500 F650.000
G1 X67.846 Y-46.697 Z0.500 F650.000
G1 X69.346 Y-46.697 Z0.500 F650.000
G1 X67.846 Y-46.697 Z0.500 F650.000
G1 X56.795 Y-46.697 Z0.500 F650.000
G1 X56.795 Y-46.697 Z0.500 F650.000
G1 X55.295 Y-46.697 Z0.500 F650.000
G1 X56.795 Y-46.697 Z0.500 F650.000
G1 X56.795 Y-35.646 Z0.500 F650.000
G1 X56.795 Y-35.646 Z0.500 F650.000
G1 X55.295 Y-35.646 Z0.500 F650.000
G1 X56.795 Y-35.646 Z0.500 F650.000
G1 X56.795 Y-35.646 Z0.000 F250.000
G1 X67.846 Y-35.646 Z0.000 F650.000
G1 X69.346 Y-35.646 Z0.000 F650.000
G1 X67.846 Y-35.646 Z0.000 F650.000
G1 X67.846 Y-46.697 Z0.000 F650.000
G1 X67.846 Y-46.697 Z0.000 F650.000
G1 X69.346 Y-46.697 Z0.000 F650.000
G1 X67.846 Y-46.697 Z0.000 F650.000
G1 X56.795 Y-46.697 Z0.000 F650.000
G1 X56.795 Y-46.697 Z0.000 F650.000
G1 X55.295 Y-46.697 Z0.000 F650.000
G1 X56.795 Y-46.697 Z0.000 F650.000
G1 X56.795 Y-35.646 Z0.000 F650.000
G1 X56.795 Y-35.646 Z0.000 F650.000
G1 X55.295 Y-35.646 Z0.000 F650.000
G1 X56.795 Y-35.646 Z0.000 F650.000
G0 Z7.000
G0 Z7.000
G0 X56.795 Y-35.646
G0 Y-54.648
G0 Y-54.648 Z5.000
G1 X56.795 Y-54.648 Z0.500 F250.000
G1 X67.846 Y-54.648 Z0.500 F650.000
G1 X69.346 Y-54.648 Z0.500 F650.000
G1 X67.846 Y-54.648 Z0.500 F650.000
G1 X67.846 Y-65.699 Z0.500 F650.000
G1 X67.846 Y-65.699 Z0.500 F650.000
G1 X69.346 Y-65.699 Z0.500 F650.000
G1 X67.846 Y-65.699 Z0.500 F650.000
G1 X56.795 Y-65.699 Z0.500 F650.000
G1 X56.795 Y-65.699 Z0.500 F650.000
G1 X55.295 Y-65.699 Z0.500 F650.000
G1 X56.795 Y-65.699 Z0.500 F650.000
G1 X56.795 Y-54.648 Z0.500 F650.000
G1 X56.795 Y-54.648 Z0.500 F650.000
G1 X55.295 Y-54.648 Z0.500 F650.000
G1 X56.795 Y-54.648 Z0.500 F650.000
G1 X56.795 Y-54.648 Z0.000 F250.000
G1 X67.846 Y-54.648 Z0.000 F650.000
G1 X69.346 Y-54.648 Z0.000 F650.000
G1 X67.846 Y-54.648 Z0.000 F650.000
G1 X67.846 Y-65.699 Z0.000 F650.000
G1 X67.846 Y-65.699 Z0.000 F650.000
G1 X69.346 Y-65.699 Z0.000 F650.000
G1 X67.846 Y-65.699 Z0.000 F650.000
G1 X56.795 Y-65.699 Z0.000 F650.000
G1 X56.795 Y-65.699 Z0.000 F650.000
G1 X55.295 Y-65.699 Z0.000 F650.000
G1 X56.795 Y-65.699 Z0.000 F650.000
G1 X56.795 Y-54.648 Z0.000 F650.000
G1 X56.795 Y-54.648 Z0.000 F650.000
G1 X55.295 Y-54.648 Z0.000 F650.000
G1 X56.795 Y-54.648 Z0.000 F650.000
G0 Z7.000
G0 Z7.000
G0 X56.795 Y-54.648
G0 X75.796
G0 X75.796 Z5.000
G1 X75.796 Y-54.648 Z0.500 F250.000
G1 X75.796 Y-52.272 Z0.500 F650.000
G1 X74.296 Y-52.272 Z0.500 F650.000
G1 X75.796 Y-52.272 Z0.500 F650.000
G1 X86.847 Y-52.272 Z0.500 F650.000
G1 X86.847 Y-52.272 Z0.500 F650.000
G1 X88.347 Y-52.272 Z0.500 F650.000
G1 X86.847 Y-52.272 Z0.500 F650.000
G1 X86.847 Y-63.323 Z0.500 F650.000
G1 X86.847 Y-63.323 Z0.500 F650.000
G1 X88.347 Y-63.323 Z0.500 F650.000
G1 X86.847 Y-63.323 Z0.500 F650.000
G1 X75.796 Y-63.323 Z0.500 F650.000
G1 X75.796 Y-63.323 Z0.500 F650.000
G1 X74.296 Y-63.323 Z0.500 F650.000
G1 X75.796 Y-63.323 Z0.500 F650.000
G1 X75.796 Y-54.648 Z0.500 F650.000
G1 X75.796 Y-54.648 Z0.500 F650.000
G1 X75.796 Y-54.648 Z0.000 F250.000
G1 X75.796 Y-52.272 Z0.000 F650.000
G1 X74.296 Y-52.272 Z0.000 F650.000
G1 X75.796 Y-52.272 Z0.000 F650.000
G1 X86.847 Y-52.272 Z0.000 F650.000
G1 X86.847 Y-52.272 Z0.000 F650.000
G1 X88.347 Y-52.272 Z0.000 F650.000
G1 X86.847 Y-52.272 Z0.000 F650.000
G1 X86.847 Y-63.323 Z0.000 F650.000
G1 X86.847 Y-63.323 Z0.000 F650.000
G1 X88.347 Y-63.323 Z0.000 F650.000
G1 X86.847 Y-63.323 Z0.000 F650.000
G1 X75.796 Y-63.323 Z0.000 F650.000
G1 X75.796 Y-63.323 Z0.000 F650.000
G1 X74.296 Y-63.323 Z0.000 F650.000
G1 X75.796 Y-63.323 Z0.000 F650.000
G1 X75.796 Y-54.648 Z0.000 F650.000
G1 X75.796 Y-54.648 Z0.000 F650.000
G0 Z7.000
G0 Z7.000
G0 X75.796 Y-54.648
G0 Y-44.322
G0 Y-44.322 Z5.000
G1 X75.796 Y-44.322 Z0.500 F250.000
G1 X75.796 Y-33.271 Z0.500 F650.000
G1 X74.296 Y-33.271 Z0.500 F650.000
G1 X75.796 Y-33.271 Z0.500 F650.000
G1 X86.847 Y-33.271 Z0.500 F650.000
G1 X86.847 Y-33.271 Z0.500 F650.000
G1 X88.347 Y-33.271 Z0.500 F650.000
G1 X86.847 Y-33.271 Z0.500 F650.000
G1 X86.847 Y-44.322 Z0.500 F650.000
G1 X86.847 Y-44.322 Z0.500 F650.000
G1 X88.347 Y-44.322 Z0.500 F650.000
G1 X86.847 Y-44.322 Z0.500 F650.000
G1 X75.796 Y-44.322 Z0.500 F650.000
G1 X75.796 Y-44.322 Z0.500 F650.000
G1 X74.296 Y-44.322 Z0.500 F650.000
G1 X75.796 Y-44.322 Z0.500 F650.000
G1 X75.796 Y-44.322 Z0.000 F250.000
G1 X75.796 Y-33.271 Z0.000 F650.000
G1 X74.296 Y-33.271 Z0.000 F650.000
G1 X75.796 Y-33.271 Z0.000 F650.000
G1 X86.847 Y-33.271 Z0.000 F650.000
G1 X86.847 Y-33.271 Z0.000 F650.000
G1 X88.347 Y-33.271 Z0.000 F650.000
G1 X86.847 Y-33.271 Z0.000 F650.000
G1 X86.847 Y-44.322 Z0.000 F650.000
G1 X86.847 Y-44.322 Z0.000 F650.000
G1 X88.347 Y-44.322 Z0.000 F650.000
G1 X86.847 Y-44.322 Z0.000 F650.000
G1 X75.796 Y-44.322 Z0.000 F650.000
G1 X75.796 Y-44.322 Z0.000 F650.000
G1 X74.296 Y-44.322 Z0.000 F650.000
G1 X75.796 Y-44.322 Z0.000 F650.000
G0 Z7.000
G0 Z7.000
G0 X75.796 Y-44.322
G0 Y-25.321
G0 Y-25.321 Z5.000
G1 X75.796 Y-25.321 Z0.500 F250.000
G1 X75.796 Y-14.270 Z0.500 F650.000
G1 X74.296 Y-14.270 Z0.500 F650.000
G1 X75.796 Y-14.270 Z0.500 F650.000
G1 X86.847 Y-14.270 Z0.500 F650.000
G1 X86.847 Y-14.270 Z0.500 F650.000
G1 X88.347 Y-14.270 Z0.500 F650.000
G1 X86.847 Y-14.270 Z0.500 F650.000
G1 X86.847 Y-25.321 Z0.500 F650.000
G1 X86.847 Y-25.321 Z0.500 F650.000
G1 X88.347 Y-25.321 Z0.500 F650.000
G1 X86.847 Y-25.321 Z0.500 F650.000
G1 X75.796 Y-25.321 Z0.500 F650.000
G1 X75.796 Y-25.321 Z0.500 F650.000
G1 X74.296 Y-25.321 Z0.500 F650.000
G1 X75.796 Y-25.321 Z0.500 F650.000
G1 X75.796 Y-25.321 Z0.000 F250.000
G1 X75.796 Y-14.270 Z0.000 F650.000
G1 X74.296 Y-14.270 Z0.000 F650.000
G1 X75.796 Y-14.270 Z0.000 F650.000
G1 X86.847 Y-14.270 Z0.000 F650.000
G1 X86.847 Y-14.270 Z0.000 F650.000
G1 X88.347 Y-14.270 Z0.000 F650.000
G1 X86.847 Y-14.270 Z0.000 F650.000
G1 X86.847 Y-25.321 Z0.000 F650.000
G1 X86.847 Y-25.321 Z0.000 F650.000
G1 X88.347 Y-25.321 Z0.000 F650.000
G1 X86.847 Y-25.321 Z0.000 F650.000
G1 X75.796 Y-25.321 Z0.000 F650.000
G1 X75.796 Y-25.321 Z0.000 F650.000
G1 X74.296 Y-25.321 Z0.000 F650.000
G1 X75.796 Y-25.321 Z0.000 F650.000
G0 Z7.000
G0 Z7.000
G0 X75.796 Y-25.321
G0 X94.798
G0 X94.798 Z5.000
G1 X94.798 Y-25.321 Z0.500 F250.000
G1 X94.798 Y-16.645 Z0.500 F650.000
G1 X93.298 Y-16.645 Z0.500 F650.000
G1 X94.798 Y-16.645 Z0.500 F650.000
G1 X105.849 Y-16.645 Z0.500 F650.000
G1 X105.849 Y-16.645 Z0.500 F650.000
G1 X107.349 Y-16.645 Z0.500 F650.000
G1 X105.849 Y-16.645 Z0.500 F650.000
G1 X105.849 Y-27.696 Z0.500 F650.000
G1 X105.849 Y-27.696 Z0.500 F650.000
G1 X107.349 Y-27.696 Z0.500 F650.000
G1 X105.849 Y-27.696 Z0.500 F650.000
G1 X94.798 Y-27.696 Z0.500 F650.000
G1 X94.798 Y-27.696 Z0.500 F650.000
G1 X93.298 Y-27.696 Z0.500 F650.000
G1 X94.798 Y-27.696 Z0.500 F650.000
G1 X94.798 Y-25.321 Z0.500 F650.000
G1 X94.798 Y-25.321 Z0.500 F650.000
G1 X94.798 Y-25.321 Z0.000 F250.000
G1 X94.798 Y-16.645 Z0.000 F650.000
G1 X93.298 Y-16.645 Z0.000 F650.000
G1 X94.798 Y-16.645 Z0.000 F650.000
G1 X105.849 Y-16.645 Z0.000 F650.000
G1 X105.849 Y-16.645 Z0.000 F650.000
G1 X107.349 Y-16.645 Z0.000 F650.000
G1 X105.849 Y-16.645 Z0.000 F650.000
G1 X105.849 Y-27.696 Z0.000 F650.000
G1 X105.849 Y-27.696 Z0.000 F650.000
G1 X107.349 Y-27.696 Z0.000 F650.000
G1 X105.849 Y-27.696 Z0.000 F650.000
G1 X94.798 Y-27.696 Z0.000 F650.000
G1 X94.798 Y-27.696 Z0.000 F650.000
G1 X93.298 Y-27.696 Z0.000 F650.000
G1 X94.798 Y-27.696 Z0.000 F650.000
G1 X94.798 Y-25.321 Z0.000 F650.000
G1 X94.798 Y-25.321 Z0.000 F650.000
G0 Z7.000
G0 Z7.000
G0 X94.798 Y-25.321
G0 Y-35.646
G0 Y-35.646 Z5.000
G1 X94.798 Y-35.646 Z0.500 F250.000
G1 X105.849 Y-35.646 Z0.500 F650.000
G1 X107.349 Y-35.646 Z0.500 F650.000
G1 X105.849 Y-35.646 Z0.500 F650.000
G1 X105.849 Y-46.697 Z0.500 F650.000
G1 X105.849 Y-46.697 Z0.500 F650.000
G1 X107.349 Y-46.697 Z0.500 F650.000
G1 X105.849 Y-46.697 Z0.500 F650.000
G1 X94.798 Y-46.697 Z0.500 F650.000
G1 X94.798 Y-46.697 Z0.500 F650.000
G1 X93.298 Y-46.697 Z0.500 F650.000
G1 X94.798 Y-46.697 Z0.500 F650.000
G1 X94.798 Y-35.646 Z0.500 F650.000
G1 X94.798 Y-35.646 Z0.500 F650.000
G1 X93.298 Y-35.646 Z0.500 F650.000
G1 X94.798 Y-35.646 Z0.500 F650.000
G1 X94.798 Y-35.646 Z0.000 F250.000
G1 X105.849 Y-35.646 Z0.000 F650.000
G1 X107.349 Y-35.646 Z0.000 F650.000
G1 X105.849 Y-35.646 Z0.000 F650.000
G1 X105.849 Y-46.697 Z0.000 F650.000
G1 X105.849 Y-46.697 Z0.000 F650.000
G1 X107.349 Y-46.697 Z0.000 F650.000
G1 X105.849 Y-46.697 Z0.000 F650.000
G1 X94.798 Y-46.697 Z0.000 F650.000
G1 X94.798 Y-46.697 Z0.000 F650.000
G1 X93.298 Y-46.697 Z0.000 F650.000
G1 X94.798 Y-46.697 Z0.000 F650.000
G1 X94.798 Y-35.646 Z0.000 F650.000
G1 X94.798 Y-35.646 Z0.000 F650.000
G1 X93.298 Y-35.646 Z0.000 F650.000
G1 X94.798 Y-35.646 Z0.000 F650.000
G0 Z7.000
G0 Z7.000
G0 X94.798 Y-35.646
G0 Y-54.648
G0 Y-54.648 Z5.000
G1 X94.798 Y-54.648 Z0.500 F250.000
G1 X105.849 Y-54.648 Z0.500 F650.000
G1 X107.349 Y-54.648 Z0.500 F650.000
G1 X105.849 Y-54.648 Z0.500 F650.000
G1 X105.849 Y-65.699 Z0.500 F650.000
G1 X105.849 Y-65.699 Z0.500 F650.000
G1 X107.349 Y-65.699 Z0.500 F650.000
G1 X105.849 Y-65.699 Z0.500 F650.000
G1 X94.798 Y-65.699 Z0.500 F650.000
G1 X94.798 Y-65.699 Z0.500 F650.000
G1 X93.298 Y-65.699 Z0.500 F650.000
G1 X94.798 Y-65.699 Z0.500 F650.000
G1 X94.798 Y-54.648 Z0.500 F650.000
G1 X94.798 Y-54.648 Z0.500 F650.000
G1 X93.298 Y-54.648 Z0.500 F650.000
G1 X94.798 Y-54.648 Z0.500 F650.000
G1 X94.798 Y-54.648 Z0.000 F250.000
G1 X105.849 Y-54.648 Z0.000 F650.000
G1 X107.349 Y-54.648 Z0.000 F650.000
G1 X105.849 Y-54.648 Z0.000 F650.000
G1 X105.849 Y-65.699 Z0.000 F650.000
G1 X105.849 Y-65.699 Z0.000 F650.000
G1 X107.349 Y-65.699 Z0.000 F650.000
G1 X105.849 Y-65.699 Z0.000 F650.000
G1 X94.798 Y-65.699 Z0.000 F650.000
G1 X94.798 Y-65.699 Z0.000 F650.000
G1 X93.298 Y-65.699 Z0.000 F650.000
G1 X94.798 Y-65.699 Z0.000 F650.000
G1 X94.798 Y-54.648 Z0.000 F650.000
G1 X94.798 Y-54.648 Z0.000 F650.000
G1 X93.298 Y-54.648 Z0.000 F650.000
G1 X94.798 Y-54.648 Z0.000 F650.000
G0 Z7.000
G0 Z7.000
G0 X94.798 Y-54.648
G0 X113.799 Y-57.023
G0 X113.799 Y-57.023 Z5.000
G1 X113.799 Y-57.023 Z0.500 F250.000
G1 X124.850 Y-57.023 Z0.500 F650.000
G1 X126.350 Y-57.023 Z0.500 F650.000
G1 X124.850 Y-57.023 Z0.500 F650.000
G1 X124.850 Y-68.074 Z0.500 F650.000
G1 X124.850 Y-68.074 Z0.500 F650.000
G1 X126.350 Y-68.074 Z0.500 F650.000
G1 X124.850 Y-68.074 Z0.500 F650.000
G1 X113.799 Y-68.074 Z0.500 F650.000
G1 X113.799 Y-68.074 Z0.500 F650.000
G1 X112.299 Y-68.074 Z0.500 F650.000
G1 X113.799 Y-68.074 Z0.500 F650.000
G1 X113.799 Y-57.023 Z0.500 F650.000
G1 X113.799 Y-57.023 Z0.500 F650.000
G1 X112.299 Y-57.023 Z0.500 F650.000
G1 X113.799 Y-57.023 Z0.500 F650.000
G1 X113.799 Y-57.023 Z0.000 F250.000
G1 X124.850 Y-57.023 Z0.000 F650.000
G1 X126.350 Y-57.023 Z0.000 F650.000
G1 X124.850 Y-57.023 Z0.000 F650.000
G1 X124.850 Y-68.074 Z0.000 F650.000
G1 X124.850 Y-68.074 Z0.000 F650.000
G1 X126.350 Y-68.074 Z0.000 F650.000
G1 X124.850 Y-68.074 Z0.000 F650.000
G1 X113.799 Y-68.074 Z0.000 F650.000
G1 X113.799 Y-68.074 Z0.000 F650.000
G1 X112.299 Y-68.074 Z0.000 F650.000
G1 X113.799 Y-68.074 Z0.000 F650.000
G1 X113.799 Y-57.023 Z0.000 F650.000
G1 X113.799 Y-57.023 Z0.000 F650.000
G1 X112.299 Y-57.023 Z0.000 F650.000
G1 X113.799 Y-57.023 Z0.000 F650.000
G0 Z7.000
G0 Z7.000
G0 X113.799 Y-57.023
G0 Y-49.073
G0 Y-49.073 Z5.000
G1 X113.799 Y-49.073 Z0.500 F250.000
G1 X113.799 Y-38.022 Z0.500 F650.000
G1 X112.299 Y-38.022 Z0.500 F650.000
G1 X113.799 Y-38.022 Z0.500 F650.000
G1 X124.850 Y-38.022 Z0.500 F650.000
G1 X124.850 Y-38.022 Z0.500 F650.000
G1 X126.350 Y-38.022 Z0.500 F650.000
G1 X124.850 Y-38.022 Z0.500 F650.000
G1 X124.850 Y-49.073 Z0.500 F650.000
G1 X124.850 Y-49.073 Z0.500 F650.000
G1 X126.350 Y-49.073 Z0.500 F650.000
G1 X124.850 Y-49.073 Z0.500 F650.000
G1 X113.799 Y-49.073 Z0.500 F650.000
G1 X113.799 Y-49.073 Z0.500 F650.000
G1 X112.299 Y-49.073 Z0.500 F650.000
G1 X113.799 Y-49.073 Z0.500 F650.000
G1 X113.799 Y-49.073 Z0.000 F250.000
G1 X113.799 Y-38.022 Z0.000 F650.000
G1 X112.299 Y-38.022 Z0.000 F650.000
G1 X113.799 Y-38.022 Z0.000 F650.000
G1 X124.850 Y-38.022 Z0.000 F650.000
G1 X124.850 Y-38.022 Z0.000 F650.000
G1 X126.350 Y-38.022 Z0.000 F650.000
G1 X124.850 Y-38.022 Z0.000 F650.000
G1 X124.850 Y-49.073 Z0.000 F650.000
G1 X124.850 Y-49.073 Z0.000 F650.000
G1 X126.350 Y-49.073 Z0.000 F650.000
G1 X124.850 Y-49.073 Z0.000 F650.000
G1 X113.799 Y-49.073 Z0.000 F650.000
G1 X113.799 Y-49.073 Z0.000 F650.000
G1 X112.299 Y-49.073 Z0.000 F650.000
G1 X113.799 Y-49.073 Z0.000 F650.000
G0 Z7.000
G0 Z7.000
G0 X113.799 Y-49.073
G0 Y-30.071
G0 Y-30.071 Z5.000
G1 X113.799 Y-30.071 Z0.500 F250.000
G1 X113.799 Y-19.020 Z0.500 F650.000
G1 X112.299 Y-19.020 Z0.500 F650.000
G1 X113.799 Y-19.020 Z0.500 F650.000
G1 X124.850 Y-19.020 Z0.500 F650.000
G1 X124.850 Y-19.020 Z0.500 F650.000
G1 X126.350 Y-19.020 Z0.500 F650.000
G1 X124.850 Y-19.020 Z0.500 F650.000
G1 X124.850 Y-30.071 Z0.500 F650.000
G1 X124.850 Y-30.071 Z0.500 F650.000
G1 X126.350 Y-30.071 Z0.500 F650.000
G1 X124.850 Y-30.071 Z0.500 F650.000
G1 X113.799 Y-30.071 Z0.500 F650.000
G1 X113.799 Y-30.071 Z0.500 F650.000
G1 X113.799 Y-30.071 Z0.000 F250.000
G1 X113.799 Y-19.020 Z0.000 F650.000
G1 X112.299 Y-19.020 Z0.000 F650.000
G1 X113.799 Y-19.020 Z0.000 F650.000
G1 X124.850 Y-19.020 Z0.000 F650.000
G1 X124.850 Y-19.020 Z0.000 F650.000
G1 X126.350 Y-19.020 Z0.000 F650.000
G1 X124.850 Y-19.020 Z0.000 F650.000
G1 X124.850 Y-30.071 Z0.000 F650.000
G1 X124.850 Y-30.071 Z0.000 F650.000
G1 X126.350 Y-30.071 Z0.000 F650.000
G1 X124.850 Y-30.071 Z0.000 F650.000
G1 X113.799 Y-30.071 Z0.000 F650.000
G1 X113.799 Y-30.071 Z0.000 F650.000
G0 Z7.000
G0 Z7.000
G0 X113.799 Y-30.071
G0 X107.918 Y-75.787
G0 X107.918 Y-75.787 Z5.000
G1 X107.918 Y-75.787 Z0.500 F250.000
G1 X118.595 Y-78.637 Z0.500 F650.000
G1 X115.746 Y-89.314 Z0.500 F650.000
G1 X115.746 Y-89.314 Z0.500 F650.000
G1 X105.068 Y-86.465 Z0.500 F650.000
G1 X105.068 Y-86.465 Z0.500 F650.000
G1 X107.918 Y-75.787 Z0.500 F650.000
G1 X107.918 Y-75.787 Z0.500 F650.000
G1 X107.918 Y-75.787 Z0.000 F250.000
G1 X118.595 Y-78.637 Z0.000 F650.000
G1 X115.746 Y-89.314 Z0.000 F650.000
G1 X115.746 Y-89.314 Z0.000 F650.000
G1 X105.068 Y-86.465 Z0.000 F650.000
G1 X105.068 Y-86.465 Z0.000 F650.000
G1 X107.918 Y-75.787 Z0.000 F650.000
G1 X107.918 Y-75.787 Z0.000 F650.000
G0 Z7.000
G0 Z7.000
G0 X107.918 Y-75.787
G0 X96.348
G0 X96.348 Z5.000
G1 X96.348 Y-75.787 Z0.500 F250.000
G1 X96.348 Y-85.325 Z0.500 F650.000
G1 X97.848 Y-85.325 Z0.500 F650.000
G1 X96.348 Y-85.325 Z0.500 F650.000
G1 X85.297 Y-85.325 Z0.500 F650.000
G1 X85.297 Y-85.325 Z0.500 F650.000
G1 X83.797 Y-85.325 Z0.500 F650.000
G1 X85.297 Y-85.325 Z0.500 F650.000
G1 X85.297 Y-74.274 Z0.500 F650.000
G1 X85.297 Y-74.274 Z0.500 F650.000
G1 X83.797 Y-74.274 Z0.500 F650.000
G1 X85.297 Y-74.274 Z0.500 F650.000
G1 X96.348 Y-74.274 Z0.500 F650.000
G1 X96.348 Y-74.274 Z0.500 F650.000
G1 X97.848 Y-74.274 Z0.500 F650.000
G1 X96.348 Y-74.274 Z0.500 F650.000
G1 X96.348 Y-75.787 Z0.500 F650.000
G1 X96.348 Y-75.787 Z0.500 F650.000
G1 X96.348 Y-75.787 Z0.000 F250.000
G1 X96.348 Y-85.325 Z0.000 F650.000
G1 X97.848 Y-85.325 Z0.000 F650.000
G1 X96.348 Y-85.325 Z0.000 F650.000
G1 X85.297 Y-85.325 Z0.000 F650.000
G1 X85.297 Y-85.325 Z0.000 F650.000
G1 X83.797 Y-85.325 Z0.000 F650.000
G1 X85.297 Y-85.325 Z0.000 F650.000
G1 X85.297 Y-74.274 Z0.000 F650.000
G1 X85.297 Y-74.274 Z0.000 F650.000
G1 X83.797 Y-74.274 Z0.000 F650.000
G1 X85.297 Y-74.274 Z0.000 F650.000
G1 X96.348 Y-74.274 Z0.000 F650.000
G1 X96.348 Y-74.274 Z0.000 F650.000
G1 X97.848 Y-74.274 Z0.000 F650.000
G1 X96.348 Y-74.274 Z0.000 F650.000
G1 X96.348 Y-75.787 Z0.000 F650.000
G1 X96.348 Y-75.787 Z0.000 F650.000
G0 Z7.000
G0 Z7.000
G0 X96.348 Y-75.787
G0 X126.534 Y-88.322
G0 X126.534 Y-88.322 Z5.000
G1 X126.534 Y-88.322 Z0.500 F250.000
G1 X132.053 Y-78.748 Z0.500 F650.000
G1 X141.627 Y-84.266 Z0.500 F650.000
G1 X141.627 Y-84.266 Z0.500 F650.000
G1 X136.108 Y-93.841 Z0.500 F650.000
G1 X136.108 Y-93.841 Z0.500 F650.000
G1 X126.534 Y-88.322 Z0.500 F650.000
G1 X126.534 Y-88.322 Z0.500 F650.000
G1 X126.534 Y-88.322 Z0.000 F250.000
G1 X132.053 Y-78.748 Z0.000 F650.000
G1 X141.627 Y-84.266 Z0.000 F650.000
G1 X141.627 Y-84.266 Z0.000 F650.000
G1 X136.108 Y-93.841 Z0.000 F650.000
G1 X136.108 Y-93.841 Z0.000 F650.000
G1 X126.534 Y-88.322 Z0.000 F650.000
G1 X126.534 Y-88.322 Z0.000 F650.000
G0 Z7.000
G0 Z7.000
(Finish operation: DogboneDressup)
(Begin operation: Holes-big)
(Path: Holes-big)
(Holes-big)
(Compensated Tool Path. Diameter: 3.0)
G0 Z7.000
G0 X11.211 Y-25.947
G0 Z5.000
G1 X11.211 Y-25.947 Z0.500 F250.000
G2 X10.812 Y-27.749 Z0.500 I-0.774 J-0.774 K0.000 F650.000
G2 X9.409 Y-27.095 Z0.500 I-0.374 J1.028 K0.000 F650.000
G2 X10.063 Y-25.693 Z0.500 I1.028 J0.374 K0.000 F650.000
G2 X11.211 Y-25.947 Z0.500 I0.374 J-1.028 K0.000 F650.000
G1 X11.211 Y-25.947 Z0.000 F250.000
G2 X10.812 Y-27.749 Z0.000 I-0.774 J-0.774 K0.000 F650.000
G2 X9.409 Y-27.095 Z0.000 I-0.374 J1.028 K0.000 F650.000
G2 X10.063 Y-25.693 Z0.000 I1.028 J0.374 K0.000 F650.000
G2 X11.211 Y-25.947 Z0.000 I0.374 J-1.028 K0.000 F650.000
G0 Z7.000
G0 Z7.000
G0 X11.211 Y-25.947
G0 X10.450 Y-63.651
G0 X10.450 Y-63.651 Z5.000
G1 X10.450 Y-63.651 Z0.500 F250.000
G2 X10.802 Y-65.774 Z0.500 I-0.022 J-1.094 K0.000 F650.000
G2 X9.400 Y-65.120 Z0.500 I-0.374 J1.028 K0.000 F650.000
G2 X10.054 Y-63.717 Z0.500 I1.028 J0.374 K0.000 F650.000
G2 X10.450 Y-63.651 Z0.500 I0.374 J-1.028 K0.000 F650.000
G1 X10.450 Y-63.651 Z0.000 F250.000
G2 X10.802 Y-65.774 Z0.000 I-0.022 J-1.094 K0.000 F650.000
G2 X9.400 Y-65.120 Z0.000 I-0.374 J1.028 K0.000 F650.000
G2 X10.054 Y-63.717 Z0.000 I1.028 J0.374 K0.000 F650.000
G2 X10.450 Y-63.651 Z0.000 I0.374 J-1.028 K0.000 F650.000
G0 Z7.000
G0 Z7.000
G0 X10.450 Y-63.651
G0 X118.341 Y-11.149
G0 X118.341 Y-11.149 Z5.000
G1 X118.341 Y-11.149 Z0.500 F250.000
G2 X118.950 Y-9.642 Z0.500 I0.984 J0.479 K0.000 F650.000
G2 X119.699 Y-11.698 Z0.500 I0.374 J-1.028 K0.000 F650.000
G2 X118.341 Y-11.149 Z0.500 I-0.374 J1.028 K0.000 F650.000
G1 X118.341 Y-11.149 Z0.000 F250.000
G2 X118.950 Y-9.642 Z0.000 I0.984 J0.479 K0.000 F650.000
G2 X119.699 Y-11.698 Z0.000 I0.374 J-1.028 K0.000 F650.000
G2 X118.341 Y-11.149 Z0.000 I-0.374 J1.028 K0.000 F650.000
G0 Z7.000
G0 Z7.000
G0 X118.341 Y-11.149
G0 X145.531 Y-92.680
G0 X145.531 Y-92.680 Z5.000
G1 X145.531 Y-92.680 Z0.500 F250.000
G2 X146.301 Y-94.728 Z0.500 I0.346 J-1.038 K0.000 F650.000
G2 X145.453 Y-92.709 Z0.500 I-0.424 J1.009 K0.000 F650.000
G2 X145.531 Y-92.680 Z0.500 I0.424 J-1.009 K0.000 F650.000
G1 X145.531 Y-92.680 Z0.000 F250.000
G2 X146.301 Y-94.728 Z0.000 I0.346 J-1.038 K0.000 F650.000
G2 X145.453 Y-92.709 Z0.000 I-0.424 J1.009 K0.000 F650.000
G2 X145.531 Y-92.680 Z0.000 I0.424 J-1.009 K0.000 F650.000
G0 Z7.000
G0 Z7.000
(Finish operation: Holes-big)
(Begin operation: DressupTag)
(Path: DressupTag)
G0 Z7.000
G0 X129.713 Y-15.146 Z7.000
G0 X129.713 Y-15.146 Z5.000
G1 X129.713 Y-15.146 Z0.500 F250.000
G2 X129.914 Y-15.830 Z0.500 I-1.932 J-0.940 K0.000 F650.000
G2 X129.930 Y-65.576 Z0.500 I-20507.321 J-31.122 K0.000 F650.000
G1 X148.787 Y-76.486 Z0.500 F650.000
G2 X149.757 Y-80.366 Z0.500 I-1.616 J-2.466 K0.000 F650.000
G1 X147.058 Y-85.082 Z0.500 F650.000
G3 X147.359 Y-86.911 Z0.500 I1.197 J-0.742 K0.000 F650.000
G2 X149.217 Y-88.026 Z0.500 I-81.293 J-137.563 K0.000 F650.000
G2 X142.666 Y-99.482 Z0.500 I-3.339 J-5.691 K0.000 F650.000
G1 X141.019 Y-98.525 Z0.500 F650.000
G3 X139.012 Y-99.059 Z0.500 I-0.756 J-1.196 K0.000 F650.000
G1 X136.504 Y-103.429 Z0.500 F650.000
G2 X135.097 Y-104.497 Z0.500 I-2.106 J1.313 K0.000 F650.000
G2 X133.086 Y-104.219 Z0.500 I-0.699 J2.350 K0.000 F650.000
G1 X118.543 Y-95.848 Z0.500 F650.000
G1 X81.842 Y-90.393 Z0.500 F650.000
G2 X80.434 Y-89.603 Z0.500 I0.284 J2.156 K0.000 F650.000
G3 X70.260 Y-75.659 Z0.500 I-711503.238 J-519160.275 K0.000 F650.000
G1 X15.822 Y-75.659 Z0.500 F650.000
G2 X13.791 Y-74.062 Z0.500 I0.016 J2.111 K0.000 F650.000
G2 X13.719 Y-72.961 Z0.500 I4.340 J0.837 K0.000 F650.000
G3 X12.526 Y-71.367 Z0.500 I-1.437 J0.169 K0.000 F650.000
G3 X10.539 Y-71.350 Z0.500 I-3.835 J-326.533 K0.000 F650.000
G2 X3.832 Y-64.877 Z0.500 I-0.117 J6.590 K0.000 F650.000
G2 X9.901 Y-58.179 Z0.500 I6.625 J0.095 K0.000 F650.000
G2 X12.249 Y-58.145 Z0.500 I1.492 J-22.028 K0.000 F650.000
G3 X13.713 Y-56.682 Z0.500 I0.049 J1.414 K0.000 F650.000
G1 X13.720 Y-34.783 Z0.500 F650.000
G3 X12.538 Y-33.343 Z0.500 I-1.407 J0.050 K0.000 F650.000
G3 X10.549 Y-33.325 Z0.500 I-3.403 J-269.166 K0.000 F650.000
G2 X3.842 Y-26.853 Z0.500 I-0.118 J6.590 K0.000 F650.000
G2 X9.910 Y-20.155 Z0.500 I6.625 J0.095 K0.000 F650.000
G2 X12.259 Y-20.121 Z0.500 I1.492 J-22.028 K0.000 F650.000
G3 X13.708 Y-18.530 Z0.500 I0.052 J1.409 K0.000 F650.000
G2 X15.823 Y-16.205 Z0.500 I2.150 J0.169 K0.000 F650.000
G1 X51.725 Y-16.205 Z0.500 F650.000
G1 X51.725 Y-13.554 Z0.500 F650.000
G2 X53.825 Y-11.455 Z0.500 I2.100 J-0.000 K0.000 F650.000
G1 X70.726 Y-11.455 Z0.500 F650.000
G2 X72.826 Y-9.205 Z0.500 I2.122 J0.124 K0.000 F650.000
G1 X89.827 Y-9.205 Z0.500 F650.000
G2 X91.928 Y-11.455 Z0.500 I-0.003 J-2.108 K0.000 F650.000
G1 X108.829 Y-11.455 Z0.500 F650.000
G2 X110.512 Y-12.312 Z0.500 I0.005 J-2.072 K0.000 F650.000
G2 X110.929 Y-13.954 Z0.500 I-1.952 J-1.368 K0.000 F650.000
G1 X111.263 Y-13.954 Z0.500 F650.000
G3 X112.703 Y-12.772 Z0.500 I0.049 J1.408 K0.000 F650.000
G3 X112.722 Y-10.871 Z0.500 I-206.668 J3.062 K0.000 F650.000
G2 X113.312 Y-8.021 Z0.500 I6.907 J0.057 K0.000 F650.000
G2 X125.883 Y-9.949 Z0.500 I6.030 J-2.632 K0.000 F650.000
G2 X125.924 Y-12.490 Z0.500 I-20.891 J-1.614 K0.000 F650.000
G3 X126.690 Y-13.797 Z0.500 I1.417 J-0.047 K0.000 F650.000
G3 X127.703 Y-13.939 Z0.500 I0.768 J1.803 K0.000 F650.000
G2 X129.713 Y-15.146 Z0.500 I0.078 J-2.147 K0.000 F650.000
G1 X129.713 Y-15.146 Z0.000 F250.000
G2 X129.914 Y-15.830 Z0.000 I-1.932 J-0.940 K0.000 F650.000
G2 X129.935 Y-36.708 Z0.000 I-20507.321 J-31.122 K0.000 F650.000
G2 X129.930 Y-65.576 Z0.000 I-20507.344 J-2.254 K0.000 F650.000
G1 X148.787 Y-76.486 Z0.000 F650.000
G2 X149.757 Y-80.366 Z0.000 I-1.616 J-2.466 K0.000 F650.000
G1 X147.058 Y-85.082 Z0.000 F650.000
G3 X147.359 Y-86.911 Z0.000 I1.197 J-0.742 K0.000 F650.000
G2 X149.217 Y-88.026 Z0.000 I-81.293 J-137.563 K0.000 F650.000
G2 X142.666 Y-99.482 Z0.000 I-3.339 J-5.691 K0.000 F650.000
G1 X141.019 Y-98.525 Z0.000 F650.000
G3 X139.012 Y-99.059 Z0.000 I-0.756 J-1.196 K0.000 F650.000
G1 X136.504 Y-103.429 Z0.000 F650.000
G2 X135.097 Y-104.497 Z0.000 I-2.106 J1.313 K0.000 F650.000
G2 X133.086 Y-104.219 Z0.000 I-0.699 J2.350 K0.000 F650.000
G1 X129.277 Y-102.026 Z0.000 F650.000
G1 X128.844 Y-101.777 Z0.500 F450.000
G1 X122.786 Y-98.290 Z0.500 F650.000
G1 X122.352 Y-98.040 Z0.000 F450.000
G1 X118.543 Y-95.848 Z0.000 F650.000
G1 X81.842 Y-90.393 Z0.000 F650.000
G2 X80.434 Y-89.603 Z0.000 I0.284 J2.156 K0.000 F650.000
G3 X70.260 Y-75.659 Z0.000 I-711503.238 J-519160.275 K0.000 F650.000
G1 X47.036 Y-75.659 Z0.000 F650.000
G1 X46.536 Y-75.659 Z0.500 F450.000
G1 X39.546 Y-75.659 Z0.500 F650.000
G1 X39.046 Y-75.659 Z0.000 F450.000
G1 X15.822 Y-75.659 Z0.000 F650.000
G2 X13.791 Y-74.062 Z0.000 I0.016 J2.111 K0.000 F650.000
G2 X13.719 Y-72.961 Z0.000 I4.340 J0.837 K0.000 F650.000
G3 X12.526 Y-71.367 Z0.000 I-1.437 J0.169 K0.000 F650.000
G3 X10.539 Y-71.350 Z0.000 I-3.835 J-326.533 K0.000 F650.000
G2 X3.832 Y-64.877 Z0.000 I-0.117 J6.590 K0.000 F650.000
G2 X9.901 Y-58.179 Z0.000 I6.625 J0.095 K0.000 F650.000
G2 X12.249 Y-58.145 Z0.000 I1.492 J-22.028 K0.000 F650.000
G3 X13.713 Y-56.682 Z0.000 I0.049 J1.414 K0.000 F650.000
G1 X13.720 Y-34.783 Z0.000 F650.000
G3 X12.538 Y-33.343 Z0.000 I-1.407 J0.050 K0.000 F650.000
G3 X10.549 Y-33.325 Z0.000 I-3.403 J-269.166 K0.000 F650.000
G2 X3.842 Y-26.853 Z0.000 I-0.118 J6.590 K0.000 F650.000
G2 X9.910 Y-20.155 Z0.000 I6.625 J0.095 K0.000 F650.000
G2 X12.259 Y-20.121 Z0.000 I1.492 J-22.028 K0.000 F650.000
G3 X13.708 Y-18.530 Z0.000 I0.052 J1.409 K0.000 F650.000
G2 X15.823 Y-16.205 Z0.000 I2.150 J0.169 K0.000 F650.000
G1 X29.779 Y-16.205 Z0.000 F650.000
G1 X30.279 Y-16.205 Z0.500 F450.000
G1 X37.269 Y-16.205 Z0.500 F650.000
G1 X37.769 Y-16.205 Z0.000 F450.000
G1 X51.725 Y-16.205 Z0.000 F650.000
G1 X51.725 Y-13.554 Z0.000 F650.000
G2 X53.825 Y-11.455 Z0.000 I2.100 J-0.000 K0.000 F650.000
G1 X70.726 Y-11.455 Z0.000 F650.000
G2 X72.826 Y-9.205 Z0.000 I2.122 J0.124 K0.000 F650.000
G1 X77.332 Y-9.205 Z0.000 F650.000
G1 X77.832 Y-9.205 Z0.500 F450.000
G1 X84.822 Y-9.205 Z0.500 F650.000
G1 X85.322 Y-9.205 Z0.000 F450.000
G1 X89.827 Y-9.205 Z0.000 F650.000
G2 X91.928 Y-11.455 Z0.000 I-0.003 J-2.108 K0.000 F650.000
G1 X108.829 Y-11.455 Z0.000 F650.000
G2 X110.512 Y-12.312 Z0.000 I0.005 J-2.072 K0.000 F650.000
G2 X110.929 Y-13.954 Z0.000 I-1.952 J-1.368 K0.000 F650.000
G1 X111.263 Y-13.954 Z0.000 F650.000
G3 X112.703 Y-12.772 Z0.000 I0.049 J1.408 K0.000 F650.000
G3 X112.722 Y-10.871 Z0.000 I-206.668 J3.062 K0.000 F650.000
G2 X113.312 Y-8.021 Z0.000 I6.907 J0.057 K0.000 F650.000
G2 X125.883 Y-9.949 Z0.000 I6.030 J-2.632 K0.000 F650.000
G2 X125.924 Y-12.490 Z0.000 I-20.891 J-1.614 K0.000 F650.000
G3 X126.690 Y-13.797 Z0.000 I1.417 J-0.047 K0.000 F650.000
G3 X127.703 Y-13.939 Z0.000 I0.768 J1.803 K0.000 F650.000
G2 X129.713 Y-15.146 Z0.000 I0.078 J-2.147 K0.000 F650.000
G0 X129.713 Y-15.146 Z7.000
(Finish operation: DressupTag)
(Begin postamble)
M5
G17 G90
M2
