(Exported by FreeCAD)
(Post Processor: grbl_post)
(Output Time:2022-05-21 09:46:38.327207)
(Begin preamble)
G17 G90
G21
(Begin operation: Fixture)
(Path: Fixture)
G54
(Finish operation: Fixture)
(Begin operation: TC: 3mm_Endmill_1flutes003)
(Path: TC: 3mm_Endmill_1flutes003)
(TC: 3mm_Endmill_1flutes003)
(Begin toolchange)
( M6 T3.0 )
M3 S12000.0
(Finish operation: TC: 3mm_Endmill_1flutes003)
(Begin operation: Profile)
(Path: Profile)
(Profile)
(Compensated Tool Path. Diameter: 2.8)
G0 Z7.000
G0 X21.600 Y21.600
G0 Z5.000
G1 X21.600 Y21.600 Z1.067 F250.000
G1 X11.400 Y21.600 Z1.067 F650.000
G1 X11.400 Y11.400 Z1.067 F650.000
G1 X21.600 Y11.400 Z1.067 F650.000
G1 X21.600 Y21.600 Z1.067 F650.000
G1 X21.600 Y21.600 Z0.133 F250.000
G1 X11.400 Y21.600 Z0.133 F650.000
G1 X11.400 Y11.400 Z0.133 F650.000
G1 X21.600 Y11.400 Z0.133 F650.000
G1 X21.600 Y21.600 Z0.133 F650.000
G1 X21.600 Y21.600 Z0.000 F250.000
G1 X11.400 Y21.600 Z0.000 F650.000
G1 X11.400 Y11.400 Z0.000 F650.000
G1 X21.600 Y11.400 Z0.000 F650.000
G1 X21.600 Y21.600 Z0.000 F650.000
G0 Z7.000
G0 Z7.000
G0 X21.600 Y21.600
G0 X21.600 Y34.400
G0 X21.600 Y34.400 Z5.000
G1 X21.600 Y34.400 Z1.067 F250.000
G1 X22.100 Y34.400 Z1.067 F650.000
G1 X22.100 Y45.100 Z1.067 F650.000
G1 X11.400 Y45.100 Z1.067 F650.000
G1 X11.400 Y34.400 Z1.067 F650.000
G1 X21.600 Y34.400 Z1.067 F650.000
G1 X21.600 Y34.400 Z0.133 F250.000
G1 X22.100 Y34.400 Z0.133 F650.000
G1 X22.100 Y45.100 Z0.133 F650.000
G1 X11.400 Y45.100 Z0.133 F650.000
G1 X11.400 Y34.400 Z0.133 F650.000
G1 X21.600 Y34.400 Z0.133 F650.000
G1 X21.600 Y34.400 Z0.000 F250.000
G1 X22.100 Y34.400 Z0.000 F650.000
G1 X22.100 Y45.100 Z0.000 F650.000
G1 X11.400 Y45.100 Z0.000 F650.000
G1 X11.400 Y34.400 Z0.000 F650.000
G1 X21.600 Y34.400 Z0.000 F650.000
G0 Z7.000
G0 Z7.000
G0 X21.600 Y34.400
G0 Y57.900
G0 Y57.900 Z5.000
G1 X21.600 Y57.900 Z1.067 F250.000
G1 X22.400 Y57.900 Z1.067 F650.000
G1 X22.400 Y68.900 Z1.067 F650.000
G1 X11.400 Y68.900 Z1.067 F650.000
G1 X11.400 Y57.900 Z1.067 F650.000
G1 X21.600 Y57.900 Z1.067 F650.000
G1 X21.600 Y57.900 Z0.133 F250.000
G1 X22.400 Y57.900 Z0.133 F650.000
G1 X22.400 Y68.900 Z0.133 F650.000
G1 X11.400 Y68.900 Z0.133 F650.000
G1 X11.400 Y57.900 Z0.133 F650.000
G1 X21.600 Y57.900 Z0.133 F650.000
G1 X21.600 Y57.900 Z0.000 F250.000
G1 X22.400 Y57.900 Z0.000 F650.000
G1 X22.400 Y68.900 Z0.000 F650.000
G1 X11.400 Y68.900 Z0.000 F650.000
G1 X11.400 Y57.900 Z0.000 F650.000
G1 X21.600 Y57.900 Z0.000 F650.000
G0 Z7.000
G0 Z7.000
G0 X21.600 Y57.900
G0 Y81.700
G0 Y81.700 Z5.000
G1 X21.600 Y81.700 Z1.067 F250.000
G1 X22.600 Y81.700 Z1.067 F650.000
G1 X22.600 Y92.900 Z1.067 F650.000
G1 X11.400 Y92.900 Z1.067 F650.000
G1 X11.400 Y81.700 Z1.067 F650.000
G1 X21.600 Y81.700 Z1.067 F650.000
G1 X21.600 Y81.700 Z0.133 F250.000
G1 X22.600 Y81.700 Z0.133 F650.000
G1 X22.600 Y92.900 Z0.133 F650.000
G1 X11.400 Y92.900 Z0.133 F650.000
G1 X11.400 Y81.700 Z0.133 F650.000
G1 X21.600 Y81.700 Z0.133 F650.000
G1 X21.600 Y81.700 Z0.000 F250.000
G1 X22.600 Y81.700 Z0.000 F650.000
G1 X22.600 Y92.900 Z0.000 F650.000
G1 X11.400 Y92.900 Z0.000 F650.000
G1 X11.400 Y81.700 Z0.000 F650.000
G1 X21.600 Y81.700 Z0.000 F650.000
G0 Z7.000
G0 Z7.000
G0 X21.600 Y81.700
G0 X36.400
G0 X36.400 Z5.000
G1 X36.400 Y81.700 Z1.067 F250.000
G1 X36.400 Y0.000 Z1.067 F650.000
G2 X35.000 Y-1.400 Z1.067 I-1.400 J-0.000 K0.000 F650.000
G1 X0.000 Y-1.400 Z1.067 F650.000
G2 X-1.400 Y0.000 Z1.067 I-0.000 J1.400 K0.000 F650.000
G1 X-1.400 Y100.000 Z1.067 F650.000
G2 X0.000 Y101.400 Z1.067 I1.400 J0.000 K0.000 F650.000
G1 X35.000 Y101.400 Z1.067 F650.000
G2 X36.400 Y100.000 Z1.067 I0.000 J-1.400 K0.000 F650.000
G1 X36.400 Y81.700 Z1.067 F650.000
G1 X36.400 Y81.700 Z0.133 F250.000
G1 X36.400 Y0.000 Z0.133 F650.000
G2 X35.000 Y-1.400 Z0.133 I-1.400 J-0.000 K0.000 F650.000
G1 X0.000 Y-1.400 Z0.133 F650.000
G2 X-1.400 Y0.000 Z0.133 I-0.000 J1.400 K0.000 F650.000
G1 X-1.400 Y100.000 Z0.133 F650.000
G2 X0.000 Y101.400 Z0.133 I1.400 J0.000 K0.000 F650.000
G1 X35.000 Y101.400 Z0.133 F650.000
G2 X36.400 Y100.000 Z0.133 I0.000 J-1.400 K0.000 F650.000
G1 X36.400 Y81.700 Z0.133 F650.000
G1 X36.400 Y81.700 Z0.000 F250.000
G1 X36.400 Y0.000 Z0.000 F650.000
G2 X35.000 Y-1.400 Z0.000 I-1.400 J-0.000 K0.000 F650.000
G1 X0.000 Y-1.400 Z0.000 F650.000
G2 X-1.400 Y0.000 Z0.000 I-0.000 J1.400 K0.000 F650.000
G1 X-1.400 Y100.000 Z0.000 F650.000
G2 X0.000 Y101.400 Z0.000 I1.400 J0.000 K0.000 F650.000
G1 X35.000 Y101.400 Z0.000 F650.000
G2 X36.400 Y100.000 Z0.000 I0.000 J-1.400 K0.000 F650.000
G1 X36.400 Y81.700 Z0.000 F650.000
G0 Z7.000
G0 Z7.000
(Finish operation: Profile)
(Begin postamble)
M5
G17 G90
M2
