(Exported by FreeCAD)
(Post Processor: grbl_post)
(Output Time:2022-05-22 22:16:18.975134)
(Begin preamble)
G17 G90
G21
(Begin operation: Fixture)
(Path: Fixture)
G54
(Finish operation: Fixture)
(Begin operation: TC: 25degree_Vbit003)
(Path: TC: 25degree_Vbit003)
(TC: 25degree_Vbit003)
(Begin toolchange)
( M6 T2.0 )
M3 S12000.0
(Finish operation: TC: 25degree_Vbit003)
(Begin operation: keys001)
(Path: keys001)
(keys001)
(Uncompensated Tool Path)
G0 Z5.000
G0 X31.243 Y-19.995
G0 Z3.000
G1 X31.243 Y-19.995 Z0.000 F250.000
G1 X31.243 Y-33.847 Z0.000 F800.000
G1 X17.392 Y-33.847 Z0.000 F800.000
G1 X17.392 Y-19.995 Z0.000 F800.000
G1 X31.243 Y-19.995 Z0.000 F800.000
G0 Z5.000
G0 Z5.000
G0 X31.243 Y-19.995
G0 Y-38.996
G0 Y-38.996 Z3.000
G1 X31.243 Y-38.996 Z0.000 F250.000
G1 X31.243 Y-52.848 Z0.000 F800.000
G1 X17.392 Y-52.848 Z0.000 F800.000
G1 X17.392 Y-38.996 Z0.000 F800.000
G1 X31.243 Y-38.996 Z0.000 F800.000
G0 Z5.000
G0 Z5.000
G0 X31.243 Y-38.996
G0 Y-57.998
G0 Y-57.998 Z3.000
G1 X31.243 Y-57.998 Z0.000 F250.000
G1 X31.243 Y-71.849 Z0.000 F800.000
G1 X17.392 Y-71.849 Z0.000 F800.000
G1 X17.392 Y-57.998 Z0.000 F800.000
G1 X31.243 Y-57.998 Z0.000 F800.000
G0 Z5.000
G0 Z5.000
G0 X31.243 Y-57.998
G0 X36.394
G0 X36.394 Z3.000
G1 X36.394 Y-57.998 Z0.000 F250.000
G1 X50.245 Y-57.998 Z0.000 F800.000
G1 X50.245 Y-71.849 Z0.000 F800.000
G1 X36.394 Y-71.849 Z0.000 F800.000
G1 X36.394 Y-57.998 Z0.000 F800.000
G0 Z5.000
G0 Z5.000
G0 X36.394 Y-57.998
G0 Y-52.848
G0 Y-52.848 Z3.000
G1 X36.394 Y-52.848 Z0.000 F250.000
G1 X36.394 Y-38.996 Z0.000 F800.000
G1 X50.245 Y-38.996 Z0.000 F800.000
G1 X50.245 Y-52.848 Z0.000 F800.000
G1 X36.394 Y-52.848 Z0.000 F800.000
G0 Z5.000
G0 Z5.000
G0 X36.394 Y-52.848
G0 Y-33.847
G0 Y-33.847 Z3.000
G1 X36.394 Y-33.847 Z0.000 F250.000
G1 X36.394 Y-19.995 Z0.000 F800.000
G1 X50.245 Y-19.995 Z0.000 F800.000
G1 X50.245 Y-33.847 Z0.000 F800.000
G1 X36.394 Y-33.847 Z0.000 F800.000
G0 Z5.000
G0 Z5.000
G0 X36.394 Y-33.847
G0 X55.395 Y-29.096
G0 X55.395 Y-29.096 Z3.000
G1 X55.395 Y-29.096 Z0.000 F250.000
G1 X55.395 Y-15.245 Z0.000 F800.000
G1 X69.246 Y-15.245 Z0.000 F800.000
G1 X69.246 Y-29.096 Z0.000 F800.000
G1 X55.395 Y-29.096 Z0.000 F800.000
G0 Z5.000
G0 Z5.000
G0 X55.395 Y-29.096
G0 Y-34.246
G0 Y-34.246 Z3.000
G1 X55.395 Y-34.246 Z0.000 F250.000
G1 X69.246 Y-34.246 Z0.000 F800.000
G1 X69.246 Y-48.097 Z0.000 F800.000
G1 X55.395 Y-48.097 Z0.000 F800.000
G1 X55.395 Y-34.246 Z0.000 F800.000
G0 Z5.000
G0 Z5.000
G0 X55.395 Y-34.246
G0 Y-53.248
G0 Y-53.248 Z3.000
G1 X55.395 Y-53.248 Z0.000 F250.000
G1 X69.246 Y-53.248 Z0.000 F800.000
G1 X69.246 Y-67.099 Z0.000 F800.000
G1 X55.395 Y-67.099 Z0.000 F800.000
G1 X55.395 Y-53.248 Z0.000 F800.000
G0 Z5.000
G0 Z5.000
G0 X55.395 Y-53.248
G0 X74.396
G0 X74.396 Z3.000
G1 X74.396 Y-53.248 Z0.000 F250.000
G1 X74.396 Y-50.872 Z0.000 F800.000
G1 X88.247 Y-50.872 Z0.000 F800.000
G1 X88.247 Y-64.723 Z0.000 F800.000
G1 X74.396 Y-64.723 Z0.000 F800.000
G1 X74.396 Y-53.248 Z0.000 F800.000
G0 Z5.000
G0 Z5.000
G0 X74.396 Y-53.248
G0 Y-45.722
G0 Y-45.722 Z3.000
G1 X74.396 Y-45.722 Z0.000 F250.000
G1 X74.396 Y-31.871 Z0.000 F800.000
G1 X88.247 Y-31.871 Z0.000 F800.000
G1 X88.247 Y-45.722 Z0.000 F800.000
G1 X74.396 Y-45.722 Z0.000 F800.000
G0 Z5.000
G0 Z5.000
G0 X74.396 Y-45.722
G0 Y-26.721
G0 Y-26.721 Z3.000
G1 X74.396 Y-26.721 Z0.000 F250.000
G1 X74.396 Y-12.870 Z0.000 F800.000
G1 X88.247 Y-12.870 Z0.000 F800.000
G1 X88.247 Y-26.721 Z0.000 F800.000
G1 X74.396 Y-26.721 Z0.000 F800.000
G0 Z5.000
G0 Z5.000
G0 X74.396 Y-26.721
G0 X93.398
G0 X93.398 Z3.000
G1 X93.398 Y-26.721 Z0.000 F250.000
G1 X93.398 Y-15.245 Z0.000 F800.000
G1 X107.249 Y-15.245 Z0.000 F800.000
G1 X107.249 Y-29.096 Z0.000 F800.000
G1 X93.398 Y-29.096 Z0.000 F800.000
G1 X93.398 Y-26.721 Z0.000 F800.000
G0 Z5.000
G0 Z5.000
G0 X93.398 Y-26.721
G0 Y-34.246
G0 Y-34.246 Z3.000
G1 X93.398 Y-34.246 Z0.000 F250.000
G1 X107.249 Y-34.246 Z0.000 F800.000
G1 X107.249 Y-48.097 Z0.000 F800.000
G1 X93.398 Y-48.097 Z0.000 F800.000
G1 X93.398 Y-34.246 Z0.000 F800.000
G0 Z5.000
G0 Z5.000
G0 X93.398 Y-34.246
G0 Y-53.248
G0 Y-53.248 Z3.000
G1 X93.398 Y-53.248 Z0.000 F250.000
G1 X107.249 Y-53.248 Z0.000 F800.000
G1 X107.249 Y-67.099 Z0.000 F800.000
G1 X93.398 Y-67.099 Z0.000 F800.000
G1 X93.398 Y-53.248 Z0.000 F800.000
G0 Z5.000
G0 Z5.000
G0 X93.398 Y-53.248
G0 X112.399 Y-55.623
G0 X112.399 Y-55.623 Z3.000
G1 X112.399 Y-55.623 Z0.000 F250.000
G1 X126.250 Y-55.623 Z0.000 F800.000
G1 X126.250 Y-69.474 Z0.000 F800.000
G1 X112.399 Y-69.474 Z0.000 F800.000
G1 X112.399 Y-55.623 Z0.000 F800.000
G0 Z5.000
G0 Z5.000
G0 X112.399 Y-55.623
G0 Y-50.473
G0 Y-50.473 Z3.000
G1 X112.399 Y-50.473 Z0.000 F250.000
G1 X112.399 Y-36.622 Z0.000 F800.000
G1 X126.250 Y-36.622 Z0.000 F800.000
G1 X126.250 Y-50.473 Z0.000 F800.000
G1 X112.399 Y-50.473 Z0.000 F800.000
G0 Z5.000
G0 Z5.000
G0 X112.399 Y-50.473
G0 Y-31.471
G0 Y-31.471 Z3.000
G1 X112.399 Y-31.471 Z0.000 F250.000
G1 X112.399 Y-17.620 Z0.000 F800.000
G1 X126.250 Y-17.620 Z0.000 F800.000
G1 X126.250 Y-31.471 Z0.000 F800.000
G1 X112.399 Y-31.471 Z0.000 F800.000
G0 Z5.000
G0 Z5.000
G0 X112.399 Y-31.471
G0 X106.926 Y-74.074
G0 X106.926 Y-74.074 Z3.000
G1 X106.926 Y-74.074 Z0.000 F250.000
G1 X120.309 Y-77.645 Z0.000 F800.000
G1 X116.738 Y-91.028 Z0.000 F800.000
G1 X103.355 Y-87.457 Z0.000 F800.000
G1 X106.926 Y-74.074 Z0.000 F800.000
G0 Z5.000
G0 Z5.000
G0 X106.926 Y-74.074
G0 X97.748
G0 X97.748 Z3.000
G1 X97.748 Y-74.074 Z0.000 F250.000
G1 X97.748 Y-86.725 Z0.000 F800.000
G1 X83.897 Y-86.725 Z0.000 F800.000
G1 X83.897 Y-72.874 Z0.000 F800.000
G1 X97.748 Y-72.874 Z0.000 F800.000
G1 X97.748 Y-74.074 Z0.000 F800.000
G0 Z5.000
G0 Z5.000
G0 X97.748 Y-74.074
G0 X124.621 Y-88.836
G0 X124.621 Y-88.836 Z3.000
G1 X124.621 Y-88.836 Z0.000 F250.000
G1 X131.539 Y-76.835 Z0.000 F800.000
G1 X143.539 Y-83.752 Z0.000 F800.000
G1 X136.622 Y-95.753 Z0.000 F800.000
G1 X124.621 Y-88.836 Z0.000 F800.000
G0 Z5.000
G0 Z5.000
(Finish operation: keys001)
(Begin operation: holes001)
(Path: holes001)
(holes001)
(Uncompensated Tool Path)
G0 Z5.000
G0 X12.276 Y-24.883
G0 Z3.000
G1 X12.276 Y-24.883 Z0.000 F250.000
G2 X10.437 Y-29.321 Z0.000 I-1.838 J-1.838 K0.000 F800.000
G2 X7.837 Y-26.721 Z0.000 I-0.000 J2.600 K0.000 F800.000
G2 X10.437 Y-24.121 Z0.000 I2.600 J0.000 K0.000 F800.000
G2 X12.276 Y-24.883 Z0.000 I0.000 J-2.600 K0.000 F800.000
G0 Z5.000
G0 Z5.000
G0 X12.276 Y-24.883
G0 X32.857 Y-35.909
G0 X32.857 Y-35.909 Z3.000
G1 X32.857 Y-35.909 Z0.000 F250.000
G2 X33.827 Y-35.328 Z0.000 I0.970 J-0.520 K0.000 F800.000
G2 X33.827 Y-37.529 Z0.000 I-0.000 J-1.100 K0.000 F800.000
G2 X32.857 Y-35.909 Z0.000 I-0.000 J1.100 K0.000 F800.000
G0 Z5.000
G0 Z5.000
G0 X32.857 Y-35.909
G0 X33.763 Y-54.345
G0 X33.763 Y-54.345 Z3.000
G1 X33.763 Y-54.345 Z0.000 F250.000
G2 X33.817 Y-54.344 Z0.000 I0.054 J-1.099 K0.000 F800.000
G2 X34.918 Y-55.443 Z0.000 I0.000 J-1.100 K0.000 F800.000
G2 X33.817 Y-56.543 Z0.000 I-1.100 J0.000 K0.000 F800.000
G2 X33.763 Y-54.345 Z0.000 I-0.000 J1.100 K0.000 F800.000
G0 Z5.000
G0 Z5.000
G0 X33.763 Y-54.345
G0 X12.803 Y-63.687
G0 X12.803 Y-63.687 Z3.000
G1 X12.803 Y-63.687 Z0.000 F250.000
G2 X10.428 Y-67.345 Z0.000 I-2.375 J-1.058 K0.000 F800.000
G2 X10.428 Y-62.145 Z0.000 I0.000 J2.600 K0.000 F800.000
G2 X12.803 Y-63.687 Z0.000 I0.000 J-2.600 K0.000 F800.000
G0 Z5.000
G0 Z5.000
G0 X12.803 Y-63.687
G0 X75.980 Y-72.403
G0 X75.980 Y-72.403 Z3.000
G1 X75.980 Y-72.403 Z0.000 F250.000
G2 X77.070 Y-71.453 Z0.000 I1.090 J-0.150 K0.000 F800.000
G2 X78.170 Y-72.553 Z0.000 I0.000 J-1.100 K0.000 F800.000
G2 X77.070 Y-73.653 Z0.000 I-1.100 J0.000 K0.000 F800.000
G2 X75.980 Y-72.403 Z0.000 I-0.000 J1.100 K0.000 F800.000
G0 Z5.000
G0 Z5.000
G0 X75.980 Y-72.403
G0 X122.505 Y-80.128
G0 X122.505 Y-80.128 Z3.000
G1 X122.505 Y-80.128 Z0.000 F250.000
G2 X123.590 Y-79.208 Z0.000 I1.085 J-0.180 K0.000 F800.000
G2 X124.690 Y-80.308 Z0.000 I0.000 J-1.100 K0.000 F800.000
G2 X123.590 Y-81.408 Z0.000 I-1.100 J0.000 K0.000 F800.000
G2 X122.505 Y-80.128 Z0.000 I-0.000 J1.100 K0.000 F800.000
G0 Z5.000
G0 Z5.000
G0 X122.505 Y-80.128
G0 X143.629 Y-92.411
G0 X143.629 Y-92.411 Z3.000
G1 X143.629 Y-92.411 Z0.000 F250.000
G2 X145.750 Y-91.121 Z0.000 I2.248 J-1.307 K0.000 F800.000
G2 X146.004 Y-96.316 Z0.000 I0.127 J-2.597 K0.000 F800.000
G2 X143.629 Y-92.411 Z0.000 I-0.127 J2.597 K0.000 F800.000
G0 Z5.000
G0 Z5.000
G0 X143.629 Y-92.411
G0 X110.391 Y-33.763
G0 X110.391 Y-33.763 Z3.000
G1 X110.391 Y-33.763 Z0.000 F250.000
G2 X109.848 Y-33.906 Z0.000 I-0.542 J0.957 K0.000 F800.000
G2 X108.748 Y-32.806 Z0.000 I-0.000 J1.100 K0.000 F800.000
G2 X109.848 Y-31.706 Z0.000 I1.100 J0.000 K0.000 F800.000
G2 X110.391 Y-33.763 Z0.000 I0.000 J-1.100 K0.000 F800.000
G0 Z5.000
G0 Z5.000
G0 X110.391 Y-33.763
G0 X118.386 Y-13.095
G0 X118.386 Y-13.095 Z3.000
G1 X118.386 Y-13.095 Z0.000 F250.000
G2 X119.324 Y-8.070 Z0.000 I0.938 J2.425 K0.000 F800.000
G2 X119.324 Y-13.270 Z0.000 I0.000 J-2.600 K0.000 F800.000
G2 X118.386 Y-13.095 Z0.000 I0.000 J2.600 K0.000 F800.000
G0 Z5.000
G0 Z5.000
(Finish operation: holes001)
(Begin operation: contour001)
(Path: contour001)
(contour001)
(Compensated Tool Path. Diameter: 3.175)
G0 Z5.000
G0 X129.705 Y-15.144
G0 Z3.000
G1 X129.705 Y-15.144 Z-3.000 F250.000
G2 X129.902 Y-15.832 Z-3.000 I-1.872 J-0.909 K0.000 F800.000
G2 X129.917 Y-65.583 Z-3.000 I-20673.859 J-31.123 K0.000 F800.000
G1 X148.780 Y-76.496 Z-3.000 F800.000
G2 X149.746 Y-80.359 Z-3.000 I-1.610 J-2.455 K0.000 F800.000
G1 X147.047 Y-85.077 Z-3.000 F800.000
G3 X147.351 Y-86.921 Z-3.000 I1.208 J-0.748 K0.000 F800.000
G2 X149.210 Y-88.037 Z-3.000 I-82.736 J-139.955 K0.000 F800.000
G2 X152.387 Y-92.717 Z-3.000 I-3.340 J-5.685 K0.000 F800.000
G2 X142.671 Y-99.471 Z-3.000 I-6.509 J-1.001 K0.000 F800.000
G1 X141.025 Y-98.514 Z-3.000 F800.000
G3 X139.001 Y-99.053 Z-3.000 I-0.762 J-1.207 K0.000 F800.000
G1 X136.493 Y-103.422 Z-3.000 F800.000
G2 X133.093 Y-104.208 Z-3.000 I-2.092 J1.302 K0.000 F800.000
G1 X118.547 Y-95.836 Z-3.000 F800.000
G1 X81.843 Y-90.380 Z-3.000 F800.000
G2 X80.444 Y-89.596 Z-3.000 I0.282 J2.143 K0.000 F800.000
G3 X70.266 Y-75.647 Z-3.000 I-708674.269 J-517096.032 K0.000 F800.000
G1 X15.822 Y-75.647 Z-3.000 F800.000
G2 X13.803 Y-74.060 Z-3.000 I0.016 J2.098 K0.000 F800.000
G2 X13.731 Y-72.960 Z-3.000 I4.326 J0.835 K0.000 F800.000
G3 X12.528 Y-71.354 Z-3.000 I-1.449 J0.168 K0.000 F800.000
G3 X10.540 Y-71.337 Z-3.000 I-3.756 J-315.627 K0.000 F800.000
G2 X3.845 Y-64.876 Z-3.000 I-0.117 J6.578 K0.000 F800.000
G2 X9.902 Y-58.191 Z-3.000 I6.613 J0.094 K0.000 F800.000
G2 X12.250 Y-58.158 Z-3.000 I1.491 J-22.040 K0.000 F800.000
G3 X13.725 Y-56.682 Z-3.000 I0.049 J1.427 K0.000 F800.000
G1 X13.732 Y-34.783 Z-3.000 F800.000
G3 X12.540 Y-33.330 Z-3.000 I-1.420 J0.050 K0.000 F800.000
G3 X10.549 Y-33.313 Z-3.000 I-3.350 J-261.634 K0.000 F800.000
G2 X3.854 Y-26.852 Z-3.000 I-0.118 J6.578 K0.000 F800.000
G2 X9.912 Y-20.167 Z-3.000 I6.613 J0.095 K0.000 F800.000
G2 X12.259 Y-20.133 Z-3.000 I1.491 J-22.040 K0.000 F800.000
G3 X13.149 Y-19.860 Z-3.000 I0.038 J1.463 K0.000 F800.000
G3 X13.724 Y-18.372 Z-3.000 I-0.932 J1.215 K0.000 F800.000
G2 X15.823 Y-16.218 Z-3.000 I2.115 J0.039 K0.000 F800.000
G1 X51.737 Y-16.218 Z-3.000 F800.000
G1 X51.737 Y-13.554 Z-3.000 F800.000
G2 X53.825 Y-11.467 Z-3.000 I2.088 J-0.001 K0.000 F800.000
G1 X70.739 Y-11.467 Z-3.000 F800.000
G2 X72.826 Y-9.217 Z-3.000 I2.110 J0.135 K0.000 F800.000
G1 X89.827 Y-9.217 Z-3.000 F800.000
G2 X91.915 Y-11.467 Z-3.000 I-0.004 J-2.097 K0.000 F800.000
G1 X108.829 Y-11.467 Z-3.000 F800.000
G2 X110.502 Y-12.319 Z-3.000 I0.005 J-2.060 K0.000 F800.000
G2 X110.916 Y-13.967 Z-3.000 I-1.951 J-1.366 K0.000 F800.000
G1 X111.263 Y-13.967 Z-3.000 F800.000
G3 X112.715 Y-12.774 Z-3.000 I0.049 J1.420 K0.000 F800.000
G3 X112.734 Y-10.871 Z-3.000 I-202.102 J3.026 K0.000 F800.000
G2 X113.323 Y-8.025 Z-3.000 I6.894 J0.058 K0.000 F800.000
G2 X125.870 Y-9.950 Z-3.000 I6.018 J-2.627 K0.000 F800.000
G2 X125.912 Y-12.491 Z-3.000 I-20.885 J-1.613 K0.000 F800.000
G3 X127.103 Y-13.944 Z-3.000 I1.420 J-0.051 K0.000 F800.000
G3 X128.057 Y-13.985 Z-3.000 I2.389 J45.412 K0.000 F800.000
G2 X129.705 Y-15.144 Z-3.000 I-0.224 J-2.069 K0.000 F800.000
G0 Z5.000
G0 Z5.000
(Finish operation: contour001)
(Begin postamble)
M5
G17 G90
M2
